el-Lennard/Robotik/Modularbeit/Aufgabe4/Aufnahme_Lennard_Messung.csv
timestamp target_q_0 target_q_1 target_q_2 target_q_3 target_q_4 target_q_5 target_qd_0 target_qd_1 target_qd_2 target_qd_3 target_qd_4 target_qd_5 actual_q_0 actual_q_1 actual_q_2 actual_q_3 actual_q_4 actual_q_5 actual_qd_0 actual_qd_1 actual_qd_2 actual_qd_3 actual_qd_4 actual_qd_5 actual_TCP_pose_0 actual_TCP_pose_1 actual_TCP_pose_2 actual_TCP_pose_3 actual_TCP_pose_4 actual_TCP_pose_5 actual_TCP_speed_0 actual_TCP_speed_1 actual_TCP_speed_2 actual_TCP_speed_3 actual_TCP_speed_4 actual_TCP_speed_5 target_TCP_pose_0 target_TCP_pose_1 target_TCP_pose_2 target_TCP_pose_3 target_TCP_pose_4 target_TCP_pose_5 target_TCP_speed_0 target_TCP_speed_1 target_TCP_speed_2 target_TCP_speed_3 target_TCP_speed_4 target_TCP_speed_5
6315.744 0.3490658503988659 -1.919862177193763 1.0471975511965979 -2.094395102393195 0.6981317007977315 1.0471975511965976 0.0 0.0 0.0 0.0 0.0 0.0 0.34903568029403687 -1.919814411793844 1.047147274017334 -2.094419304524557 0.6981418132781982 1.0472755432128906 0.0 0.0 -0.0 0.0 0.0 0.0 0.04379454436394324 -0.16977406731964134 0.637709027303759 0.10791921904271091 1.4992421442806831 -0.7501031199347268 0.0 0.0 0.0 0.0 0.0 0.0 0.04380681392990532 -0.169770671054659 0.6377056203568942 0.1078627386172837 1.4992338678643229 -0.7501377533745073 0.0 0.0 0.0 0.0 0.0 0.0
6315.7519999999995 0.3490658503988659 -1.919862177193763 1.0471975511965979 -2.094395102393195 0.6981317007977315 1.0471975511965976 0.0 0.0 0.0 0.0 0.0 0.0 0.349023699760437 -1.9198382536517542 1.0471711158752441 -2.094443146382467 0.6981897354125977 1.0472396612167358 0.0 0.0 -0.0 0.0 0.0 0.0 0.04380167668965209 -0.16976855355940157 0.6377066856427471 0.10784673197993797 1.4992584643786864 -0.7501185074039016 0.0 0.0 0.0 0.0 0.0 0.0 0.04380681392990532 -0.169770671054659 0.6377056203568942 0.1078627386172837 1.4992338678643229 -0.7501377533745073 0.0 0.0 0.0 0.0 0.0 0.0
6315.759999999999 0.3490658503988659 -1.919862177193763 1.0471975511965979 -2.094395102393195 0.6981317007977315 1.0471975511965976 0.0 0.0 0.0 0.0 0.0 0.0 0.349023699760437 -1.9198263327227991 1.0471711158752441 -2.094455067311422 0.6981897354125977 1.0472755432128906 0.0 0.0 -0.0 0.0 0.0 0.0 0.04379728088501182 -0.16977015738224047 0.6377060382179591 0.10787340475634322 1.4992530209768096 -0.7500897093448922 0.0 0.0 0.0 0.0 0.0 0.0 0.04380681392990532 -0.169770671054659 0.6377056203568942 0.1078627386172837 1.4992338678643229 -0.7501377533745073 0.0 0.0 0.0 0.0 0.0 0.0
6315.768 0.3490658503988659 -1.919862177193763 1.0471975511965979 -2.094395102393195 0.6981317007977315 1.0471975511965976 0.0 0.0 0.0 0.0 0.0 0.0 0.34898775815963745 -1.919802490864889 1.0471711158752441 -2.094419304524557 0.6981537938117981 1.047251582145691 0.0 0.0 -0.0 0.0 0.0 0.0 0.043775704158813974 -0.16977937219687583 0.6377065796737768 0.1079487859257649 1.4992187689066014 -0.7501384723560344 0.0 0.0 0.0 0.0 0.0 0.0 0.04380681392990532 -0.169770671054659 0.6377056203568942 0.1078627386172837 1.4992338678643229 -0.7501377533745073 0.0 0.0 0.0 0.0 0.0 0.0
6315.776 0.3490658503988659 -1.919862177193763 1.0471975511965979 -2.094395102393195 0.6981317007977315 1.0471975511965976 0.0 0.0 0.0 0.0 0.0 0.0 0.349023699760437 -1.919802490864889 1.0471830368041992 -2.094419304524557 0.6981897354125977 1.0472396612167358 0.0 0.0 -0.0 0.0 0.0 0.0 0.04378038841265963 -0.16977628649336146 0.6377057828482504 0.1078893300918742 1.4992040750476374 -0.7500901296197865 0.0 0.0 0.0 0.0 0.0 0.0 0.04380681392990532 -0.169770671054659 0.6377056203568942 0.1078627386172837 1.4992338678643229 -0.7501377533745073 0.0 0.0 0.0 0.0 0.0 0.0
6315.784 0.3490658503988659 -1.919862177193763 1.0471975511965979 -2.094395102393195 0.6981317007977315 1.0471975511965976 0.0 0.0 0.0 0.0 0.0 0.0 0.349023699760437 -1.9198263327227991 1.0471949577331543 -2.094407383595602 0.698165774345398 1.0472396612167358 0.0 0.0 -0.0 0.0 0.0 0.0 0.04378638023681455 -0.1697754406596317 0.6377051835613893 0.1079095701088069 1.4992079078520635 -0.7501063698819387 0.0 0.0 0.0 0.0 0.0 0.0 0.04380681392990532 -0.169770671054659 0.6377056203568942 0.1078627386172837 1.4992338678643229 -0.7501377533745073 0.0 0.0 0.0 0.0 0.0 0.0
6315.7919999999995 0.3490658503988659 -1.919862177193763 1.0471975511965979 -2.094395102393195 0.6981317007977315 1.0471975511965976 0.0 0.0 0.0 0.0 0.0 0.0 0.34901171922683716 -1.9198382536517542 1.047147274017334 -2.094419304524557 0.698165774345398 1.0472755432128906 0.0 0.0 -0.0 0.0 0.0 0.0 0.04380232970930419 -0.16976945554333006 0.6377096917990815 0.10790279874572052 1.4992574279626165 -0.7501155836715669 0.0 0.0 0.0 0.0 0.0 0.0 0.04380681392990532 -0.169770671054659 0.6377056203568942 0.1078627386172837 1.4992338678643229 -0.7501377533745073 0.0 0.0 0.0 0.0 0.0 0.0
6315.799999999999 0.3490658507238354 -1.919862206122426 1.0471976209907234 -2.0943951433126866 0.6981317003083928 1.0471975512673148 1.6248472003174624e-07 -1.4464330906495678e-05 3.4897061789208314e-05 -2.0459745070059226e-05 -2.446692946364435e-07 3.535863761346599e-08 0.3490476608276367 -1.919814411793844 1.0471830368041992 -2.0944674650775355 0.698165774345398 1.0472396612167358 0.0 0.0 -0.0 0.0 0.0 0.0 0.04379314979528806 -0.16977343530573857 0.637703924219349 0.107855760355347 1.499252613590705 -0.7501109427421436 0.0 0.0 0.0 0.0 0.0 0.0 0.04380681392954746 -0.16977067105455287 0.6377056123568944 0.10786273862048777 1.499233867866209 -0.750137753372734 -1.7937612704416857e-10 4.862243273876875e-11 -3.999999995682509e-06 1.7628230949462992e-09 2.4742569161866246e-10 -4.792135900295214e-10
6315.808 0.3490658533235886 -1.919862437551652 1.0471981793435765 -2.094395470668541 0.6981316963936867 1.0471975518330534 7.311797861836812e-07 -6.508945042266593e-05 0.00015703670181220706 -9.20688153885458e-05 -1.1010102356381744e-06 1.5911407491332048e-07 0.34901171922683716 -1.9197905699359339 1.0471711158752441 -2.094431225453512 0.698165774345398 1.0472755432128906 0.0 0.0 -0.0 0.0 0.0 0.0 0.04377586190245764 -0.16977907687585536 0.6377060624894847 0.10793831626705017 1.4992121323087422 -0.7500919017751061 0.0 0.0 0.0 0.0 0.0 0.0 0.043806813926662344 -0.1697706710537752 0.6377055483568945 0.1078627386461272 1.499233867881288 -0.7501377533585449 -8.071932430330991e-10 2.1879428599098544e-10 -1.7999999980737824e-05 7.932704133340834e-09 1.1134153624564506e-09 -2.1564611051591546e-09
6315.816 0.3490658620977148 -1.9198632186242746 1.0472000637824548 -2.094396575493567 0.6981316831815978 1.047197553742427 1.949798845562892e-06 -0.0001735715202617959 0.00041876385217019184 -0.0002455165041498546 -2.9360121647042812e-06 4.2430627516359796e-07 0.3489997386932373 -1.9198263327227991 1.0471711158752441 -2.094407383595602 0.6981418132781982 1.047251582145691 0.0 0.0 -0.0 0.0 0.0 0.0 0.043787089736089746 -0.16977611377560872 0.637707298805199 0.10794273301745237 1.4992292070882802 -0.7501417215757865 0.0 0.0 0.0 0.0 0.0 0.0 0.043806813916990074 -0.169770671051166 0.6377053323568946 0.10786273873266135 1.4992338679321795 -0.7501377533106566 -2.1524993206796104e-09 5.83460588695011e-10 -4.799999994852317e-05 2.1153877430767323e-08 2.969107966279618e-09 -5.750562913863075e-09
6315.824 0.3490658828953913 -1.9198650700494309 1.0472045305882056 -2.09439919433202 0.6981316518643278 1.0471975582683872 4.062011899704206e-06 -0.00036160561744708725 0.0008724213043326674 -0.000511491053571802 -6.116616997121524e-06 8.839817358102157e-07 0.3489997386932373 -1.919814411793844 1.047135353088379 -2.094407383595602 0.698165774345398 1.047251582145691 0.0 0.0 -0.0 0.0 0.0 0.0 0.04379124227475324 -0.16977327953280685 0.6377109215186981 0.10790832693774773 1.499243514795093 -0.750134959955015 0.0 0.0 0.0 0.0 0.0 0.0 0.04380681389403217 -0.16977067104494056 0.6377048203568954 0.10786273893777701 1.499233868052814 -0.750137753197144 -4.484402967880348e-09 1.2155705676297142e-09 -9.999999989234042e-05 4.407057740473312e-08 6.18564229032467e-09 -1.1980339792655514e-08
6315.831999999999 0.34906592351484167 -1.9198686860888419 1.047213254768166 -2.094404309226311 0.698131590698885 1.047197567108304 7.31138068303912e-06 -0.0006508840767825292 0.001570346437994773 -0.0009206780484429111 -1.1009648789169747e-05 1.5912029144485949e-06 0.34903568029403687 -1.9198382536517542 1.047147274017334 -2.094443146382467 0.6981777548789978 1.0472875833511353 0.0 0.0 -0.0 0.0 0.0 0.0 0.04380897362553215 -0.16976680247176001 0.6377089310092555 0.10786927176489136 1.49927073584618 -0.7500880321352406 0.0 0.0 0.0 0.0 0.0 0.0 0.04380681384918219 -0.16977067103278293 0.6377038203568963 0.10786273933839448 1.4992338682884268 -0.7501377529754397 -8.0719288295431e-09 2.1880185494672767e-09 -0.00017999999980621224 7.932703941654472e-08 1.1134155821417512e-08 -2.1564611501711657e-08
6315.84 0.3490659937020995 -1.919874934525927 1.047228329995189 -2.0944131476870718 0.698131485008428 1.0471975823841488 1.194124223663494e-05 -0.0010630936272597144 0.0025648655690222863 -0.0015037576410181339 -1.7981687348332022e-05 2.5990658015072636e-06 0.349023699760437 -1.9198382536517542 1.0471949577331543 -2.094443146382467 0.6981777548789978 1.0472875833511353 0.0 0.0 -0.0 0.0 0.0 0.0 0.043795442826638054 -0.16977148007025064 0.6377041794090451 0.10790661202525687 1.4992349413085329 -0.7500787106870505 0.0 0.0 0.0 0.0 0.0 0.0 0.04380681377169868 -0.16977067101178955 0.6377020923568982 0.10786274003066056 1.499233868695566 -0.7501377525923351 -1.3184138562139378e-08 3.5737558008387167e-09 -0.0002939999996830528 1.295674973907428e-07 1.8185788216777754e-08 -3.522219904195566e-08
6315.848 0.34906610514865477 -1.9198848566069087 1.0472522684914223 -2.0944271826360854 0.6981313171848257 1.047197606642846 1.81945336348541e-05 -0.0016199109841443105 0.003908285250770568 -0.0022914002799968806 -2.7398877558943378e-05 3.9607259123586795e-06 0.349023699760437 -1.919814411793844 1.0472073554992676 -2.094431225453512 0.698165774345398 1.0472636222839355 0.0 0.0 -0.0 0.0 0.0 0.0 0.04378004069238145 -0.16977774749805205 0.6377028549431238 0.10792765322650802 1.499203911026524 -0.750086933774808 0.0 0.0 0.0 0.0 0.0 0.0 0.043806813648641085 -0.16977067097841564 0.6376993483569011 0.10786274112995412 1.4992338693420875 -0.7501377519839785 -2.0090132432864447e-08 5.445743497654067e-09 -0.00044799999951688514 1.9743618664272456e-07 2.771167706073022e-08 -5.367192195021036e-08
6315.856 0.3490662714874588 -1.9198996669404282 1.0472880008301952 -2.094448132309015 0.6981310666930018 1.0471976428568648 2.631354337892261e-05 -0.002342996561018993 0.0056528798659804666 -0.0033142606182593633 -3.962665879040962e-05 5.729434976018328e-06 0.349023699760437 -1.9198382536517542 1.0471711158752441 -2.0944674650775355 0.6981897354125977 1.047251582145691 0.0 0.0 -0.0 0.0 0.0 0.0 0.043803809145459706 -0.16976778518718996 0.6377057766491425 0.10784112297504621 1.499275162811431 -0.7501185756564414 0.0 0.0 0.0 0.0 0.0 0.0 0.043806813464959286 -0.1697706709286299 0.6376952523569056 0.10786274277088068 1.4992338703071595 -0.7501377510758787 -2.9058927023969245e-08 7.8768264841016e-09 -0.0006479999993010652 2.855773410997137e-07 4.00829624909031e-08 -7.763260188368194e-08
6315.864 0.34906650828660024 -1.9199207533394818 1.0473388756240836 -2.09447796010224 0.6981307100778117 1.047197694425163 3.653956699128295e-05 -0.003253985969596891 0.007850874851433196 -0.004602969277104421 -5.502939088274183e-05 7.958592790363628e-06 0.349023699760437 -1.9198501745807093 1.0472674369812012 -2.094527546559469 0.698165774345398 1.047251582145691 0.0 -0.00621262239292264 0.007813715375959873 0.0 0.0 0.0 0.04379032455283492 -0.16977399505206064 0.637693873340455 0.10787571154604647 1.4992604618883552 -0.7501250901510383 0.0009517276299166012 0.0003516416874391336 -0.0006734770884152847 0.0005220092866160308 -0.0015137723745366795 2.0955307707070743e-05 0.043806813203432673 -0.16977067085774655 0.6376894203569119 0.10786274510727963 1.499233871681254 -0.7501377497828997 -4.035962081387095e-08 1.0940047990768679e-08 -0.0008999999990291185 3.9663519659201497e-07 5.56707799464934e-08 -1.0782305759365442e-07
6315.871999999999 0.3490668330399506 -1.919949676586823 1.047408659061959 -2.094518874345569 0.6981302209742152 1.0471977651745759 4.911247132132866e-05 -0.004374478971136027 0.010554424900600035 -0.006188122146257697 -7.396987979922438e-05 1.0701811393631677e-05 0.34903568029403687 -1.9199102560626429 1.0473275184631348 -2.094623390828268 0.6981418132781982 1.0472755432128906 0.0 -0.006442719604820013 0.012415657751262188 -0.016178704798221588 0.0 0.0 0.043812728771943525 -0.16976739312666578 0.6376850597247022 0.10784751638432058 1.4993329807060298 -0.7501504522772572 0.001365844635433925 0.0005002788090536611 -0.0017330771754131558 -0.003487954448753341 0.009591287107710237 1.8100304397146442e-05 0.04380681284468694 -0.16977067076047891 0.6376814203569204 0.10786274831221586 1.4992338735661581 -0.7501377480092666 -5.4261280264283625e-08 1.4708308954569235e-08 -0.001209999998694569 5.33253986120118e-07 7.484627170579903e-08 -1.449621110759187e-07
6315.88 0.3490672651538983 -1.919988170102343 1.0475015342526592 -2.094573327980024 0.6981295701217045 1.0471978593617892 6.427013787677555e-05 -0.005726025557400662 0.013815586503946282 -0.008100266906238796 -9.680877235565927e-05 1.4012998024329713e-05 0.3489997386932373 -1.9199102560626429 1.0474109649658203 -2.094635311757223 0.698165774345398 1.0472157001495361 0.0 -0.0026269422378391027 0.005920207127928734 -0.005392901599407196 0.0 0.0 0.04378852513396465 -0.1697741571502488 0.6376765580768686 0.10785235367201203 1.499285317867648 -0.7501826531093293 0.00024457427277022617 9.124475836047789e-05 -0.0007471660617848597 -0.0007229840954097915 0.001971276469210694 1.0774882657094243e-05 0.043806812367183624 -0.1697706706310651 0.6376707723569319 0.10786275257798558 1.4992338760749657 -0.7501377456485607 -7.103296788213685e-08 1.9254440233390773e-08 -0.0015839999982906045 6.980779454902373e-07 9.798057427243354e-08 -1.8976858155517094e-07
6315.888 0.349067825929177 -1.9200381394883719 1.0476221003278194 -2.094644018117423 0.6981287253840635 1.047197981676045 8.224777472898245e-05 -0.007330108840421274 0.01768628419820492 -0.010369886466161665 -0.0001239038084338563 1.7946458136853423e-05 0.349023699760437 -1.9199817816363733 1.047579288482666 -2.09475547472109 0.6981897354125977 1.047251582145691 0.0 -0.014189322479069233 0.022458437830209732 -0.018383800983428955 0.0 0.0 0.04379616569657504 -0.1697703865708374 0.6376567600687332 0.10782620203040917 1.4992924570660522 -0.7501275848380032 0.002673765039732523 0.000982328464761743 -0.002685703049986021 -0.003483676252274398 0.009496009261332528 4.297208841965662e-05 0.043806811747255626 -0.1697706704630263 0.6376569483569466 0.10786275811611558 1.4992338793320805 -0.7501377425837225 -9.094370655662488e-08 2.4651588732996374e-08 -0.0020279999978113934 8.937513093965759e-07 1.2544482586673152e-07 -2.429612900382262e-07
6315.896 0.34906853853680725 -1.9201016619262523 1.0477753712514217 -2.0947338854560797 0.6981276517755334 1.0471981372427177 0.0001032771027092669 -0.009208124431839639 0.022218269912092053 -0.013027379021290262 -0.00015560893498760332 2.25570154102821e-05 0.34903568029403687 -1.9200056234942835 1.047579288482666 -2.0948875586139124 0.698165774345398 1.0472636222839355 0.0 0.0 0.0076459357514977455 -0.018503643572330475 0.0 0.0 0.04381969134998506 -0.16976342823386087 0.6376519646744992 0.10775361308100309 1.499412636751242 -0.7501863252320816 -0.0002207806937439263 -8.118603158648659e-05 -0.0014540042396902482 -0.003689058820081906 0.01021181316043655 3.033241208113053e-06 0.043806810959079824 -0.16977067024935924 0.6376393723569656 0.10786276515736067 1.4992338834732146 -0.7501377386870496 -1.1426258950751869e-07 3.097250733311184e-08 -0.002547999997249758 1.1229183113538157e-06 1.576101653040843e-07 -3.0525905649708127e-07
6315.9039999999995 0.3490694279869104 -1.9201809853951426 1.0479667742788754 -2.094846113524606 0.6981263114947278 1.0471983316279556 0.00012758537336587063 -0.01138135602444669 0.027463074831113286 -0.016103034448090747 -0.000192273238752895 2.7900158861613674e-05 0.3489997386932373 -1.9200895468341272 1.0478668212890625 -2.0949834028827112 0.6981777548789978 1.0472396612167358 0.0 -0.024505343288183212 0.03238137811422348 -0.017976338043808937 0.0 0.0 0.04379146697921562 -0.16977221979802112 0.6376212674190941 0.10781626226303105 1.4993335883222465 -0.7501833924340987 0.004954014989874643 0.0018189253983812892 -0.003485813014528145 -0.0035121548853237127 0.00947044274325921 7.006681769454303e-05 0.04380680997466571 -0.16977066998255028 0.637617420356989 0.10786277395170489 1.4992338886453926 -0.7501377338202001 -1.412587072623684e-07 3.829010936497963e-08 -0.003149999996599559 1.388223186985587e-06 1.9484773239537482e-07 -3.773807024081162e-07
6315.911999999999 0.3490705210891521 -1.9202785276816527 1.0482021480038644 -2.0949841277235945 0.6981246639676488 1.0471985708445708 0.0001553942292674233 -0.013870946882400892 0.0334719532281261 -0.019627006773711878 -0.0002342397068651058 3.403221280422277e-05 0.34901171922683716 -1.920185391102926 1.048011302947998 -2.095210854207174 0.6981777548789978 1.0472755432128906 0.0 -0.005905826110392809 0.0373188778758049 -0.01883920282125473 0.0 0.0 0.043822356545239916 -0.16976116896519694 0.6375999780972832 0.10772703653208625 1.4994634583167343 -0.7502157788236805 -0.004648309386184511 -0.001672936986677521 -0.004325588231457092 0.0042288988048686605 -0.011841327423511735 8.162964318780136e-05 0.0438068087638674 -0.16977066965434218 0.6375904203570175 0.10786278476836457 1.4992338950069448 -0.7501377278341876 -1.7220109793343206e-07 4.667759904723064e-08 -0.003839999995853878 1.6923101715972214e-06 2.3752866368187693e-07 -4.6004504616512735e-07
6315.92 0.34907184640356603 -1.9203968751466363 1.0484877399269505 -2.095151594132992 0.6981226659011736 1.0471988613593535 0.0001869184039692438 -0.016697866971883104 0.04029581775206967 -0.02362928248016351 -0.0002818438116366319 4.101052913206307e-05 0.3489997386932373 -1.9203055540667933 1.0482630729675293 -2.095318619404928 0.698165774345398 1.047251582145691 0.0 -0.02761165425181389 0.035113781690597534 -0.01967809721827507 0.0 0.0 0.04382343594505858 -0.16976110061989153 0.6375727434405094 0.10774193493755531 1.499451064956552 -0.7502431656198668 0.0058618324172444326 0.002150598895660205 -0.003771030554226941 -0.004226425539946644 0.011419367463314723 7.585706760220514e-05 0.04380680729442831 -0.16977066925602102 0.6375576523570521 0.10786279789578353 1.4992339027275123 -0.7501377205693855 -2.0735877966510257e-07 5.620757140722029e-08 -0.004623999995004731 2.0378234983349606e-06 2.8602409862100756e-07 -5.539709096546137e-07
6315.928 0.34907343418017617 -1.9205387812135477 1.0488302034760937 -2.095352418051096 0.6981202713487153 1.0471992101020668 0.00022236421040250655 -0.01988287550660001 0.047985165729128816 -0.028139644432760135 -0.00033541186801678603 4.8893714726926935e-05 0.34901171922683716 -1.9203651587115687 1.0485749244689941 -2.0954864660846155 0.6981897354125977 1.0472755432128906 0.0 -0.01215679757297039 0.04465322196483612 -0.02605370618402958 0.0 0.0 0.04379319753573109 -0.16977082028159524 0.6375366279905672 0.10777987159728245 1.4993784622495359 -0.7501644372777654 -0.0029296132525367556 -0.0010448200317405996 -0.005223597350689081 0.002127294185676013 -0.006081595797949334 9.46032894389081e-05 0.04380680553186768 -0.16977066877825303 0.6375183483570934 0.10786281364163514 1.4992339119880467 -0.7501377118555245 -2.47000948027554e-07 6.69531036245037e-08 -0.005507999994046823 2.427407401946443e-06 3.407051767263012e-07 -6.598771130198745e-07
6315.936 0.34907531628604926 -1.9207071645408478 1.0492365944058177 -2.09559074222957 0.6981174317895626 1.047199624476312 0.00026192786377141547 -0.023446478679157442 0.056589996080705016 -0.033187631255927365 -0.00039525920817892925 5.77418804986463e-05 0.34903568029403687 -1.9205449263202112 1.0489106178283691 -2.0957263151751917 0.698165774345398 1.0472276210784912 0.0 -0.02203179895877838 0.057020943611860275 -0.028498487547039986 0.0 0.0 0.04381845055718325 -0.1697632592497654 0.6374969439137349 0.10769556529252802 1.4994519402451956 -0.7502329909498562 -0.0011895632810043025 -0.000404069095298454 -0.0063835079865017606 0.0021098904610137234 -0.006138834321648204 0.00012552919892406825 0.04380680343963092 -0.1697706682111112 0.6374716923571422 0.10786283233282384 1.4992339229808067 -0.7501377015116941 -2.913964892836927e-07 7.898713763821235e-08 -0.0064979999929725245 2.863706118040581e-06 4.0194303507179013e-07 -7.784824768378899e-07
6315.9439999999995 0.34907752611815557 -1.920905106839407 1.0497143664989486 -2.095870944767647 0.6981140962236541 1.0472001123725134 0.00030579358983166713 -0.0274088824123121 0.06615971655418403 -0.03880249202791353 -0.0004616881240796606 6.761692462074996e-05 0.349023699760437 -1.9207127729998987 1.0493669509887695 -2.095978562031881 0.698165774345398 1.0472276210784912 0.0 -0.027841752395033836 0.05934588238596916 -0.0348980650305748 0.0 0.0 0.04380515561031034 -0.16976765939702662 0.637444799770748 0.10772501708124563 1.4994243173504533 -0.750227983099455 0.0014628573737091614 0.0005608563378600509 -0.00675912855078414 -0.0012614422674695359 0.0031530587537074335 0.00012595666654183785 0.043806800978959566 -0.16977066754410194 0.637416820357199 0.10786285431548127 1.499233935909365 -0.750137689346343 -3.408146426921639e-07 9.238256864136397e-08 -0.007599999991774561 3.3493638794770646e-06 4.7010881539006233e-07 -9.105058218912293e-07
6315.951999999999 0.34908009850044047 -1.921135850294629 1.050271366492706 -2.096197636627754 0.6981102112835307 1.047200682183266 0.0003372681276923388 -0.030276133329739517 0.07308861052375946 -0.04286965353152348 -0.000509510088236006 7.484080499108353e-05 0.3489997386932373 -1.9209283033954065 1.049870491027832 -2.0963261763202112 0.6981777548789978 1.047251582145691 0.0 -0.027458256110548973 0.07224091142416 -0.040650490671396255 0.0 0.0 0.043809061224578935 -0.16976490919941126 0.6373852909089843 0.10771398120832773 1.4994644841135356 -0.7502432138858842 -0.0013132876701137854 -0.0004428527799382202 -0.008271666611967597 0.001285845772710962 -0.003928805193665064 0.00015480004227615786 0.0438067981089234 -0.16977066676616098 0.637352820357265 0.10786287995497032 1.499233950988599 -0.7501376751572758 -3.766899198691696e-07 1.0210702158897356e-07 -0.008399999990898847 3.701928498866982e-06 5.195939527147969e-07 -1.006348539742747e-06
6315.96 0.3490829218401473 -1.921389510742939 1.0508837562275684 -2.096556845478421 0.6981059446800483 1.0472013099099988 0.00036852965181840587 -0.033138048207023256 0.08000698983530623 -0.046931660523861364 -0.0005571003810315828 8.209641156792215e-05 0.34903568029403687 -1.9211919943438929 1.0505304336547852 -2.096638027821676 0.6981537938117981 1.0472396612167358 0.0 -0.0328463651239872 0.07804127782583237 -0.043119244277477264 0.0 0.0 0.04380284695720383 -0.16976882459103484 0.6373118881532428 0.10774669764630947 1.4994034629854922 -0.750206386181781 -3.472569526590929e-05 2.5511303171142034e-05 -0.008857139913267658 0.0005702072087629961 -0.0020007568675296447 0.00016811960850620966 0.04380679495190436 -0.169770665910403 0.6372824203573374 0.10786290815840964 1.4992339675757549 -0.7501376595493019 -4.1256505465540127e-07 1.1183159793331012e-07 -0.009199999990020358 4.054493118869738e-06 5.690790896661593e-07 -1.1021912572427945e-06
6315.968 0.3490859943543218 -1.921666043521716 1.0515514477097674 -2.096948528190304 0.6981012983523495 1.0472019958183016 0.0003995584755023225 -0.03599413412410717 0.08691388680754998 -0.05098804047891735 -0.0006044375859292552 8.938668641715856e-05 0.3490476608276367 -1.9213956038104456 1.0512261390686035 -2.0970218817340296 0.6981897354125977 1.0472276210784912 0.0 -0.033133987337350845 0.08417719602584839 -0.04585164785385132 0.0 0.0 0.04376531289006091 -0.16978034252498037 0.6372318060531932 0.10776093191564347 1.4993157675366606 -0.7501387600274952 -0.00113902981063889 -0.0003733115403214734 -0.009573460339984212 0.0016232635880966493 -0.004933291951590257 0.00018187703533754153 0.04380679150788744 -0.16977066497686466 0.6372056203574166 0.10786293892579728 1.499233985670834 -0.7501376425224207 -4.484402839858092e-07 1.21556068667684e-07 -0.009999999989138555 4.407057737128894e-06 6.185642283541222e-07 -1.1980339747463792e-06
6315.976 0.34908931410312216 -1.9219654000411293 1.0522743452397236 -2.0973726378732813 0.6980962744102531 1.047202740197225 0.0004303350683738811 -0.03884390225165091 0.09380834278870445 -0.05503832579413065 -0.0006515004554074517 9.671455154088479e-05 0.34901171922683716 -1.9216826597796839 1.0519461631774902 -2.0973694960223597 0.6981897354125977 1.047251582145691 0.0 -0.037582531571388245 0.09522665292024612 -0.05078914761543274 0.0 0.0 0.043747226222467656 -0.16978591003534363 0.6371516213585152 0.1078547834038264 1.4992477945255116 -0.750114170760659 -0.0013357302817294256 -0.00043915645493456854 -0.010794599471972094 0.0021690795873441464 -0.006504702870086518 0.00020679947542458742 0.04380678777686854 -0.1697706639655085 0.6371224203575026 0.10786297225713389 1.4992340052738373 -0.7501376240766329 -4.843155330205966e-07 1.3128061709919606e-07 -0.010799999988256174 4.7596223565843175e-06 6.680493673543218e-07 -1.293876693245812e-06
6315.9839999999995 0.34909287899117963 -1.9222875278181295 1.0530523454871359 -2.0978291239174087 0.6980908751327889 1.0472035433590963 0.00046084007801450356 -0.04168686816864701 0.10068940886819167 -0.059082054181362725 -0.0006982679334178917 0.00010408290476223515 0.34898775815963745 -1.9219825903521937 1.0527138710021973 -2.097837273274557 0.6981537938117981 1.0472755432128906 0.0 -0.03973010182380676 0.09541840106248856 -0.05512743815779686 0.0 0.0 0.0437346643923104 -0.16979170969299134 0.6370619454449657 0.10791917741382821 1.4992500473310753 -0.7501380832295799 -1.9900216038256507e-05 3.843360356486588e-05 -0.010946443635733603 2.735136544000996e-05 -0.0005861876367695001 0.0002033450884974427 0.04380678375885302 -0.16977066287634993 0.6370328203575951 0.10786300815242014 1.4992340263847617 -0.7501376042119373 -5.201907811287607e-07 1.410050557752336e-07 -0.011599999987373813 5.112186975907794e-06 7.175345040567649e-07 -1.3897194106005814e-06
6315.991999999999 0.3490966867690149 -1.9226323705130008 1.053885337571718 -2.098317932036971 0.6980851029666679 1.0472044056393353 0.0004910543338083749 -0.044522552179774064 0.10755614657468769 -0.06311876904812212 -0.0007447191603519079 0.0001114946204219341 0.349023699760437 -1.9223054091082972 1.053576946258545 -2.0983169714557093 0.6981298327445984 1.047251582145691 0.0 -0.04354587942361832 0.10996725410223007 -0.0601847805082798 0.0 0.0 0.04372131115730817 -0.1697981472572873 0.6369627231000436 0.10792829559741 1.4992087957452729 -0.7501202160462623 -0.0013349607248472018 -0.00043228039524698136 -0.012537563860196856 0.0019345872691217993 -0.005931882318643507 0.00023744618844462773 0.04380677945382087 -0.1697706617094422 0.6369368203576946 0.10786304661165527 1.4992340490036096 -0.7501375829283349 -5.560660552018556e-07 1.5072946198051491e-07 -0.012399999986489772 5.464751594615267e-06 7.670196439867898e-07 -1.4855621291114187e-06
6316.0 0.349100735034554 -1.9229998679683895 1.0547732031494401 -2.0988390043175356 0.6980789605246462 1.0472053273962567 0.0005209588610314382 -0.047350479620885004 0.1144076285544994 -0.06714801986879901 -0.0007908334880327125 0.0001189525472342759 0.34901171922683716 -1.9226411024676722 1.0545129776000977 -2.098760430012838 0.6981418132781982 1.0472636222839355 0.0 -0.04613447189331055 0.11327489465475082 -0.06073605269193649 0.0 0.0 0.043686447223583044 -0.169809468582751 0.6368580686491253 0.10802705171747683 1.4990849632148677 -0.750049362737963 -0.0008987216602883152 -0.00027157149639821503 -0.012856058963061355 0.0019825394045582326 -0.006092938513024358 0.00024586265553136005 0.04380677486178833 -0.16977066046470635 0.6368344203578008 0.10786308763483952 1.49923407313038 -0.7501375602258252 -5.919412551059045e-07 1.6045410175044653e-07 -0.013199999985605714 5.817316213638867e-06 8.165047819601957e-07 -1.5814048470904615e-06
6316.008 0.3491050212348103 -1.923389956250717 1.0557158165041025 -2.099392279265942 0.6980724505837161 1.0472063090108403 0.000550534902735663 -0.05017018115073142 0.12124293922836672 -0.07116936254648129 -0.0008365905023572307 0.00012645950398137827 0.34903568029403687 -1.9230120817767542 1.055436611175537 -2.099287811909811 0.6981298327445984 1.0472755432128906 0.0 -0.04910656064748764 0.12161591649055481 -0.06720753759145737 0.0 0.0 0.0436831680470632 -0.16981132768194476 0.6367517809540741 0.10804052068483068 1.4990635718078564 -0.7500181726269337 -0.000979443577060893 -0.00029763521044456074 -0.013895342656719023 0.0015956027805917698 -0.0050604123325948824 0.00026211081147314245 0.04380676998276324 -0.16977065914216125 0.6367256203579139 0.10786313122197305 1.4992340987650734 -0.7501375361044084 -6.278164620685898e-07 1.7017858052632437e-07 -0.013999999984720018 6.169880832578644e-06 8.659899206114381e-07 -1.6772475654363087e-06
6316.016 0.34910954266757555 -1.9238025676939579 1.05671304464412 -2.099977691863142 0.6980655760832792 1.0472073508865116 0.0005797639167298234 -0.052981193044199654 0.12806117543301593 -0.07518235976309115 -0.0008819700213910107 0.00013401828192645586 0.34903568029403687 -1.923431698475973 1.056504249572754 -2.099828068410055 0.6981537938117981 1.047251582145691 0.0 -0.0539386011660099 0.12732040882110596 -0.06926882266998291 0.0 0.0 0.043665969641270515 -0.16981570872418272 0.6366316654605249 0.10806369367726011 1.4989799065191989 -0.7499778929072205 3.5233104165027264e-05 7.468369729852955e-05 -0.014476168811423683 0.0011758214800883862 -0.003948022001593582 0.0002755921826690151 0.043806764816721785 -0.16977065774182587 0.6366104203580335 0.10786317737305506 1.4992341259076898 -0.7501375105640845 -6.636917153146795e-07 1.7990299238284652e-07 -0.014799999983834883 6.522445451620268e-06 9.154750586244919e-07 -1.7730902833085136e-06
6316.023999999999 0.3491142964832315 -1.9242376309456688 1.0577647474043266 -2.1005951736197863 0.6980583401231931 1.047208453448903 0.000608627593963463 -0.05578305746707499 0.13486144703755276 -0.07918658131838834 -0.0009269521144936659 0.0001416316413619472 0.34898775815963745 -1.923910919819967 1.057572364807129 -2.1004393736468714 0.6981418132781982 1.047251582145691 0.0 -0.056718941777944565 0.13407951593399048 -0.07971906661987305 0.0 0.0 0.04367247284247783 -0.16981263724302606 0.6365093657428134 0.10809384352236077 1.498999536534438 -0.7500327969082473 0.0005970617905828972 0.0002801369362765275 -0.015512628657026295 -0.001031760729472201 0.002135317965740402 0.0002838666359802442 0.04380675936369726 -0.16977065626370852 0.6364888203581601 0.1078632260880868 1.4992341545582277 -0.7501374836048528 -6.995668957459646e-07 1.8962743245575636e-07 -0.015599999982948051 6.875010071428193e-06 9.649601963357851e-07 -1.8689330009691025e-06
6316.032 0.34911927968664846 -1.924695071015183 1.0588707775526287 -2.1012446526345014 0.6980507459617241 1.0472096171456025 0.0006371078678651885 -0.058575322741897175 0.14164287753853413 -0.08318160445837423 -0.0009715171124973098 0.00014930231054835694 0.34903568029403687 -1.924377743397848 1.058675765991211 -2.1010754744159144 0.6981418132781982 1.0472276210784912 0.0 -0.06082233786582947 0.14599183201789856 -0.08029431104660034 0.0 0.0 0.04368381909305531 -0.16980885333064658 0.6363823931968945 0.10803710970854957 1.4989992028066288 -0.750012804995836 -0.0003418272282024867 -5.4072759220353313e-05 -0.01667910645501712 0.0014049688983505428 -0.004675595803613833 0.00031529967196370446 0.043806753623656734 -0.1697706547077969 0.6363608203582933 0.1078632773670681 1.4992341847166877 -0.7501374552267133 -7.354421698831998e-07 1.9935194202406878e-07 -0.01639999998206127 7.227574690639075e-06 1.0144453345552304e-06 -1.9647757189846187e-06
6316.04 0.349124489139192 -1.9251748093239005 1.0600309809013317 -2.1019260536547115 0.6980427970133859 1.0472108424458848 0.0006651869284941504 -0.06135754360460617 0.14840460463264557 -0.08716701418948944 -0.001015645622590047 0.00015703298331254024 0.3490476608276367 -1.9248812834369105 1.059887409210205 -2.1017583052264612 0.6981537938117981 1.0472396612167358 0.0 -0.06216457113623619 0.1449611932039261 -0.08293084055185318 0.0 0.0 0.04368439799424674 -0.16980760840042225 0.6362433925824404 0.1080386108871706 1.4989740252031474 -0.7499747654628841 0.0007531343468130513 0.0003428132504278889 -0.016667438693582042 -0.00029807203268165244 3.541603921333736e-05 0.00031016814121018036 0.043806747596624215 -0.16977065307409184 0.6362264203584337 0.10786333120999886 1.4992342163830699 -0.750137425429666 -7.713173729692059e-07 2.0907645967526857e-07 -0.01719999998117277 7.580139309290725e-06 1.0639304735887353e-06 -2.0606184373101183e-06
6316.048 0.34912992156078054 -1.9256767637575845 1.0612451964229532 -2.102639298139957 0.6980344968467201 1.0472121298404409 0.0006928472272051535 -0.06412928144948933 0.1551457807656417 -0.09114240358267439 -0.001059318533816432 0.00016482631914243952 0.34905967116355896 -1.92542010942568 1.0611586570739746 -2.1024063269244593 0.698165774345398 1.0472276210784912 0.0 -0.0660378709435463 0.1509772688150406 -0.08832374215126038 0.0 0.0 0.043683720278315 -0.16980677268943853 0.6361001310947095 0.10805718447775167 1.498907399262637 -0.7499325797572683 0.0015494131484543915 0.0006347314092438505 -0.017428158658977257 -0.0014151077220644973 0.0030875923753694856 0.0003213075146981566 0.04380674128257726 -0.16977065136257063 0.6360856203585808 0.10786338761687841 1.4992342495573745 -0.7501373942137113 -8.071926251155701e-07 2.188009896478425e-07 -0.01799999998028598 7.932703927671488e-06 1.1134156128436885e-06 -2.156461155981336e-06
6316.056 0.3491355735320485 -1.9262008487205637 1.0625132563703281 -2.1033843043275686 0.698025849181967 1.0472134798410881 0.0007200714913395686 -0.06689010456254353 0.161865573656722 -0.09510737406234679 -0.001102517032408193 0.00017268494051681578 0.34905967116355896 -1.9259589354144495 1.0624184608459473 -2.103185478840963 0.6981418132781982 1.0472396612167358 0.0 -0.06795535236597061 0.16281768679618835 -0.09414807707071304 0.0 0.0 0.043693840367466374 -0.16980385984322371 0.6359525860429645 0.10804844353308826 1.4989520224320558 -0.7499615283941129 9.656340793444754e-05 0.00011156291634303265 -0.018828901948327453 -3.6260037535706946e-05 -0.0007720965493952792 0.00034751667112534136 0.04380673468154101 -0.1697706495732649 0.6359384203587344 0.10786344658770741 1.4992342842396011 -0.7501373615788491 -8.43067814138842e-07 2.285254183366651e-07 -0.018799999979398588 8.285268546772675e-06 1.1629007508839423e-06 -2.2523038743436987e-06
6316.063999999999 0.34914144149654014 -1.9267469751917758 1.0638349864008168 -2.1041609873006166 0.6980168578886977 1.0472148929804836 0.0007468427257842427 -0.06963958834466667 0.168563166798758 -0.09906153568406069 -0.0011452226041443734 0.0001806114337255764 0.349023699760437 -1.9265340010272425 1.0637502670288086 -2.10395318666567 0.6981177926063538 1.0472875833511353 0.00015339808305725455 -0.07054394483566284 0.16499881446361542 -0.10100305080413818 0.0 0.0 0.04369609881459575 -0.1698031114677686 0.6357986415244615 0.10812146702076153 1.4989567303429625 -0.7499718583450357 0.0013838934230301168 0.0005763778077162267 -0.019282232030569113 -0.0025091687673546165 0.006056365769460004 0.0005003568192415951 0.043806727793498444 -0.16977064770616812 0.6357848203588952 0.1078635081224852 1.4992343204297498 -0.7501373275250788 -8.789430656149246e-07 2.3824990378378158e-07 -0.019599999978507913 8.637833165484607e-06 1.2123858889402964e-06 -2.348146591848732e-06
6316.072 0.3491475217630222 -1.9273150507825196 1.0652102057044028 -2.10496925905802 0.6980075269833247 1.047216369811814 0.0007731442302749194 -0.07237731552002612 0.17523775993192992 -0.10300450739710176 -0.001187417052169261 0.00018860834536997938 0.34903568029403687 -1.9271324316607874 1.065129280090332 -2.1047328154193323 0.6981177926063538 1.0472636222839355 0.00015339808305725455 -0.07414879649877548 0.16960075497627258 -0.1010989248752594 0.0 0.0 0.04370786952511912 -0.16979839376308992 0.6356399558692694 0.10809142928954321 1.498957225074545 -0.7499803812196583 0.001933772412634479 0.0007793017697370519 -0.019712724236118927 -0.002215763007730527 0.005204147041251883 0.0005128029722144646 0.04380672061845522 -0.1697706457612583 0.6356248203590626 0.10786357222121276 1.4992343581278205 -0.7501372920524005 -9.148182946337079e-07 2.479744134919305e-07 -0.02039999997761944 8.990397785425076e-06 1.26187102656587e-06 -2.443989310018608e-06
6316.08 0.34915381050785543 -1.9279049797958407 1.066638727135483 -2.1058090285867053 0.6979978606265466 1.047217910908479 0.0007989596045957443 -0.07510287633390751 0.18188856949187682 -0.10693591729456269 -0.0012290825028408784 0.00019667818206620108 0.34903568029403687 -1.9277556578265589 1.066617488861084 -2.105583969746725 0.6981298327445984 1.0472396612167358 0.00015339808305725455 -0.07635389268398285 0.17489778995513916 -0.1059165820479393 0.0 0.0 0.04370951774235938 -0.16979642050770338 0.63546788353426 0.10806765766866412 1.4989463894247024 -0.7499851845035559 0.0020960370461836613 0.00084003311117921 -0.02041692707417816 -0.002810538414167882 0.006824169398199562 0.0005225154180229913 0.04380671315641218 -0.16977064373856393 0.6354584203592373 0.10786363888389063 1.4992343973338105 -0.7501372551608133 -9.506935292426764e-07 2.5769883756721053e-07 -0.02119999997672983 9.342962404564102e-06 1.3113561638615072e-06 -2.5398320278209867e-06
6316.088 0.3491603037774014 -1.9285166632874704 1.0681203573481417 -2.1066802019357116 0.6979878631207537 1.0472195168637746 0.0008242727526749402 -0.07781586874020657 0.18851482903279668 -0.11085540284891732 -0.0012702014104636968 0.00020482341040610992 0.34905967116355896 -1.9283421675311487 1.0681166648864746 -2.1064236799823206 0.698093831539154 1.0472636222839355 0.00015339808305725455 -0.0780029222369194 0.18388596177101135 -0.11001519113779068 0.0 0.0 0.043693055006915796 -0.16980416603511142 0.6352937637129464 0.10813727696751706 1.4988900323517764 -0.7499413453417824 0.0010600228226211109 0.0004672225653712418 -0.021480739559006992 -0.0017206861875150234 0.0037724039520627556 0.0005427793181728988 0.043806705407352806 -0.16977064163807337 0.6352856203594185 0.10786370811051624 1.4992344380477243 -0.7501372168503191 -9.86568773997566e-07 2.674233181789068e-07 -0.021999999975841355 9.695527022540729e-06 1.3608413041405436e-06 -2.6356747465215526e-06
6316.096 0.34916699749052915 -1.9291499991281702 1.0696548969346935 -2.1075826822921115 0.6979775389073295 1.0472211882905564 0.0008490678965289715 -0.0805158985722459 0.19511578962186193 -0.11476261113347902 -0.0013107565716529077 0.0002130464541668342 0.3490716516971588 -1.9290369192706507 1.0696039199829102 -2.1073110739337366 0.6981298327445984 1.047251582145691 0.00015339808305725455 -0.08178035169839859 0.18973425030708313 -0.11512047052383423 -0.0005033374764025211 0.0 0.04373372938898254 -0.16978687230891176 0.635121494046234 0.10802815596194452 1.4989555869993705 -0.7499538905639915 0.0018089886733461608 0.0007135006717433001 -0.02223412900142432 -0.0026816756257722844 0.006650769929169807 5.811144361006005e-05 0.04380669737130584 -0.16977063945980259 0.6351064203596068 0.10786377990109282 1.4992344802695576 -0.7501371771209155 -1.0224439459420838e-06 2.7714779751802864e-07 -0.022799999974951763 1.0048091642881485e-05 1.4103264408374437e-06 -2.731517463658238e-06
6316.103999999999 0.349173887441147 -1.929804882067434 1.0712421405672832 -2.108516370058675 0.6979668925639222 1.0472229258209047 0.0008733295771143522 -0.0832025797045546 0.20169072020858325 -0.11865719903053032 -0.001350731126781853 0.00022134969500117816 0.3490716516971588 -1.9296839872943323 1.0711755752563477 -2.1082585493670862 0.6980339288711548 1.047251582145691 0.001035437104292214 -0.08392792195081711 0.19936957955360413 -0.11941082030534744 -0.004410195164382458 0.0 0.04373050299001816 -0.16979272421004626 0.6349359140056062 0.10809167604624942 1.4989864766879375 -0.7500270409464361 0.000854811053799213 0.0001351713479523971 -0.02341118766658634 -0.0009670154198060943 0.0038641077014235766 -0.00288532207456229 0.04380668904825467 -0.16977063720369137 0.634920820359802 0.10786385425561792 1.499234523999313 -0.7501371359726039 -1.0583191889390974e-06 2.868723549498613e-07 -0.023599999974062726 1.0400656261220316e-05 1.4598115801980931e-06 -2.827360182044775e-06
6316.112 0.3491809693008428 -1.9304812037983998 1.0728818771423225 -2.109481162933104 0.6979559288016054 1.0472247301057667 0.0008970426701954012 -0.08587553419861843 0.20823890796540484 -0.1225388334235308 -0.0013901085761461357 0.00022973546901354277 0.3490716516971588 -1.930366341267721 1.0728073120117188 -2.109194580708639 0.6979856491088867 1.047251582145691 0.001035437104292214 -0.08538521081209183 0.2045467644929886 -0.12427641451358795 -0.004410195164382458 0.0 0.04372992075432657 -0.1697948964556461 0.6347455107700105 0.10813617397979067 1.4989819469505212 -0.7500535677997712 0.0007143790969552875 8.55345805847327e-05 -0.02412757482312476 -0.0013628986253682706 0.004939263906650946 -0.002875980954214538 0.04380668043819919 -0.16977063486984312 0.6347288203600039 0.10786393117409344 1.499234569236988 -0.7501370934053831 -1.094194420049193e-06 2.965966898230645e-07 -0.024399999973173714 1.0753220881024798e-05 1.5092967171689576e-06 -2.9232028995584004e-06
6316.12 0.3491882386214681 -1.931178853023935 1.0745738899275683 -2.11047695598878 0.697944652462089 1.047226601814621 0.0009201923746029019 -0.08853439244368856 0.2147596586050156 -0.12640719137666473 -0.0014288727689257693 0.00023820607073693815 0.3490716516971588 -1.9310973326312464 1.0744743347167969 -2.110213581715719 0.6980215907096863 1.0472276210784912 0.0021092237439006567 -0.08797380328178406 0.2142060399055481 -0.13314475119113922 -0.003906857687979937 0.0 0.04375373027417406 -0.16978346173798897 0.6345498938267071 0.1080340100927207 1.4990406169848884 -0.7500804720162381 0.0005695917178531133 4.4809436584369985e-05 -0.025429493577636644 -0.002068746356438703 0.006596486587094907 -0.0012890644678906524 0.04380667154114272 -0.16977063245816562 0.6345304203602129 0.10786401065651788 1.4992346159825851 -0.7501370494192539 -1.1300696384683027e-06 3.0632131903753036e-07 -0.025199999972283026 1.1105785499662733e-05 1.5587818568241305e-06 -3.0190456180254935e-06
6316.128 0.34919569083791063 -1.931897715523693 1.0763179567115841 -2.1115036417568716 0.6979330685147419 1.0472285416350975 0.000942764242662977 -0.09117879326999981 0.22125229666366433 -0.13026196029918694 -0.0014670079335827424 0.0002467637456092485 0.3491315543651581 -1.9317081610309046 1.0762138366699219 -2.111304585133688 0.6979856491088867 1.047251582145691 0.0021092237439006567 -0.08956530690193176 0.2202221304178238 -0.1354457139968872 -0.002636529505252838 0.0 0.043719405064315375 -0.16979829370444804 0.6343410727609514 0.1080549631241547 1.4990093453571038 -0.7500215543998732 0.00012171077608261236 -4.4163955410877884e-05 -0.026126073726968346 -0.0015644034374120057 0.0045228644375101676 -2.3986874342335224e-05 0.04380666235708946 -0.16977062996869755 0.634325620360429 0.10786409270289278 1.499234664236101 -0.7501370040142152 -1.1659448610504841e-06 3.1604578144753904e-07 -0.025999999971393965 1.1458350119412437e-05 1.608266993737966e-06 -3.1148883358860364e-06
6316.1359999999995 0.3492033212707958 -1.9326376742221454 1.0781138499554135 -2.1125611103097093 0.6979211820536798 1.0472305502726207 0.0009647441632236688 -0.09380838406665255 0.22771616576512813 -0.13410283809554321 -0.0015044986615809109 0.0002554106952511842 0.3490956127643585 -1.9325225988971155 1.077965259552002 -2.112335983906881 0.6979976296424866 1.0472276210784912 0.0016873788554221392 -0.09355365484952927 0.2262861430644989 -0.1324256956577301 -0.0019893813878297806 0.0 0.04375506198546133 -0.16978319672146683 0.6341369546971967 0.10799315893845823 1.4990819984174713 -0.7500980531064895 0.00018105333791325546 2.598381753937795e-05 -0.026597070811713464 4.5009069321593864e-05 -0.0003126415605617924 0.00021106020856553193 0.04380665288602319 -0.1697706274014354 0.6341144203606518 0.10786417731321714 1.4992347139975382 -0.750136957190268 -1.201820108697627e-06 3.2577027037395076e-07 -0.026799999970506038 1.1810914737931191e-05 1.6577521337446236e-06 -3.210731054549438e-06
6316.143999999999 0.3492111251292801 -1.9333986092574182 1.0799613369462178 -2.1136492493452943 0.6979089982947608 1.0472326284500348 0.0009861183787125897 -0.09642282087419476 0.2341506288520708 -0.13792953330105379 -0.0015413299245335887 0.00026414907343910656 0.3491075932979584 -1.9333131949054163 1.0797643661499023 -2.1134875456439417 0.6980215907096863 1.0472276210784912 0.001208009896799922 -0.09771458059549332 0.2341478019952774 -0.14587199687957764 -0.0015819177497178316 0.0 0.04378776548501009 -0.16976937866445463 0.6339228806919553 0.10787377730318372 1.499183973004353 -0.7501279674549767 0.0013155237871554644 0.00047097991658864136 -0.02787063554751397 -0.0033462574308176967 0.008824927730698618 0.00014114644848032144 0.043806643127969044 -0.16977062475637555 0.6338968203608815 0.10786426448749149 1.4992347652668947 -0.7501369089474106 -1.2376953003144768e-06 3.354947683873288e-07 -0.027599999969616457 1.2163479356647406e-05 1.707237270980711e-06 -3.3065737722014854e-06
6316.152 0.3492190975138678 -1.9341803980508576 1.0818601799526733 -2.114767944272849 0.697896522572554 1.0472347769072265 0.0010068734850202546 -0.09902176846946575 0.24055506839281357 -0.1417417652042915 -0.0015774870744162527 0.00027298098667380595 0.3491075932979584 -1.9341638723956507 1.0815997123718262 -2.114614788685934 0.6979856491088867 1.047251582145691 0.0009587380336597562 -0.0966024398803711 0.23906132578849792 -0.14275608956813812 -0.001318264752626419 0.0 0.04383251399389881 -0.16975429827055621 0.6337060430510815 0.10783212002288851 1.4992920424935667 -0.7501886719349808 -0.0006533931883820437 -0.000222802934083906 -0.028316371611799968 -0.0002863312099019667 0.00021100772465909394 0.0001679750148076114 0.04380663308290741 -0.16977062203351323 0.6336728203611183 0.10786435422571482 1.4992348180441721 -0.750136859285645 -1.2735705615797301e-06 3.452192574554573e-07 -0.028399999968726823 1.2516043975528338e-05 1.7567224102105108e-06 -3.4024164912808546e-06
6316.16 0.3492272334192693 -1.9349829153772111 1.0838101363819146 -2.1159170782992742 0.6978837603372655 1.04723699640074 0.0010269964375637954 -0.10160490043779062 0.24692888656121548 -0.14553926395385264 -0.0016129558498008088 0.0002819084930087126 0.3490956127643585 -1.934906307850973 1.0834593772888184 -2.115753952656881 0.6979496479034424 1.0472636222839355 0.0008820389630272985 -0.09972792863845825 0.245029479265213 -0.14639930427074432 -0.0012463594321161509 0.0 0.043821570465000924 -0.16975927352268902 0.6334841023860569 0.10786269216118072 1.4993108361271814 -0.7502206659352871 -0.00033690955764637193 -9.996206089366636e-05 -0.029055949293884283 -0.0005818528934131639 0.0009555693146890816 0.00017485046719077917 0.043806622750841934 -0.1697706192328713 0.633442420361362 0.10786444652788885 1.499234872329368 -0.7501368082049689 -1.309445794311804e-06 3.5494371349296894e-07 -0.029199999967838404 1.2868608595413268e-05 1.8062075478101041e-06 -3.498259208343638e-06
6316.168 0.3492355277372665 -1.93580603343535 1.0858109589378102 -2.117096532516424 0.6978707171516557 1.0472392877033943 0.0010464745510080174 -0.10417189923239246 0.25327150539007837 -0.1493217706527256 -0.0016477223758206048 0.00029093360252979895 0.3491315543651581 -1.935744587575094 1.0854864120483398 -2.116953198109762 0.6979616284370422 1.0472755432128906 0.0008820389630272985 -0.10279589146375656 0.2504223883152008 -0.15090537071228027 -0.0012463594321161509 0.0 0.043829578495912846 -0.1697554305590102 0.6332444504986237 0.10782251862826406 1.4993107453328738 -0.7501772161115426 0.0001774131216885321 8.87961828447364e-05 -0.02977611608726112 -0.0013338710422070555 0.003002979093547166 0.00018522285492196533 0.04380661213177771 -0.16977061635442808 0.6332056203616127 0.10786454139401226 1.4992349281224846 -0.7501367557053836 -1.3453210169559312e-06 3.646682509135485e-07 -0.029999999966949957 1.3221173214102676e-05 1.8556926866319728e-06 -3.594101926714925e-06
6316.1759999999995 0.3492439752596356 -1.9366496219193916 1.0878623957803553 -2.1183061859890593 0.6978573986878976 1.0472416516038874 0.0010652955076866364 -0.10672245621960189 0.2595823668976646 -0.15308903743810995 -0.0016817731726299094 0.00030005827542239016 0.34916752576828003 -1.9365947882281702 1.0875020027160645 -2.118188206349508 0.6979256868362427 1.0472755432128906 0.0016873788554221392 -0.10490511357784271 0.2544730305671692 -0.1527988761663437 -0.0036911414936184883 0.0 0.04384702780479816 -0.16975086554778898 0.6330039401854769 0.10777892707553544 1.499365227301582 -0.7501992136883064 0.0003861675724237878 1.4424337901051021e-05 -0.030304315770100232 -0.0009259549208432291 0.0030953255334247665 -0.001407881958720614 0.04380660122570351 -0.16977061339816146 0.6329624203618703 0.1078646388240863 1.4992349854235187 -0.7501367017868876 -1.3811962547871498e-06 3.743927616548911e-07 -0.030799999966061982 1.3573737833522863e-05 1.9051778238040923e-06 -3.6899446442354995e-06
6316.183999999999 0.3492525706810814 -1.9375135480901626 1.0899641906859812 -2.1195459158434042 0.697843810724423 1.0472440889064005 0.0010834473575604354 -0.10925627171479792 0.26586093318963916 -0.15684082754764928 -0.0017150951555115071 0.0003092844222609999 0.3491315543651581 -1.9374573866473597 1.0895414352416992 -2.1194236914264124 0.6979137063026428 1.047251582145691 0.0016873788554221392 -0.10843326896429062 0.2587394118309021 -0.15991750359535217 -0.0036911414936184883 0.0 0.04385332985920905 -0.16974770931503722 0.6327610288630308 0.10775811820704133 1.4994142952437113 -0.7502775594432196 0.001605553551613606 0.0004583541962721366 -0.031001732372449495 -0.0031042806657571712 0.009092355595071624 -0.0014032036081035172 0.04380659003264005 -0.16977061036413427 0.632712820362135 0.10786473881811043 1.4992350442324727 -0.7501366464494816 -1.4170714518458628e-06 3.8411713466904354e-07 -0.03159999996517464 1.3926302451988085e-05 1.9546629644602684e-06 -3.785787363266693e-06
6316.192 0.3492613086021406 -1.9383976768469005 1.092116083208583 -2.1208155973561684 0.6978299591427986 1.0472466004302121 0.0011009185132820258 -0.1117730550070671 0.27210668653617454 -0.16057691537303978 -0.0017476756301047457 0.0003186139055708131 0.3491555452346802 -1.9383199850665491 1.091712474822998 -2.120718781148092 0.6979376673698425 1.047251582145691 0.0016873788554221392 -0.11117526143789291 0.27043601870536804 -0.16137957572937012 -0.0033076461404561996 0.0 0.04384533719097772 -0.16974875557711866 0.632502223362857 0.10772185178154041 1.4993963361288574 -0.7502355833273402 0.0002261077286731523 -1.607762087546164e-05 -0.03227323620855772 -0.0006376520232740591 0.002017651245452379 -0.0009949709025203228 0.043806578552566394 -0.16977060725229529 0.6324568203624066 0.10786484137608435 1.4992351045493455 -0.7501365896931659 -1.4529467115927484e-06 3.9384168421766e-07 -0.032399999964287225 1.42788670704867e-05 2.0041481027243963e-06 -3.881630081764459e-06
6316.2 0.3492701835321925 -1.939301870799067 1.094317808841043 -2.122115104043946 0.6978158499244949 1.0472491870092844 0.0011176977672412247 -0.11427252436566299 0.2783191294212233 -0.1642970864994645 -0.0017795023092383217 0.0003280485353666565 0.3491555452346802 -1.939242188130514 1.0940041542053223 -2.122037712727682 0.6979256868362427 1.0472636222839355 0.0014381069922819734 -0.11169297993183136 0.27712324261665344 -0.16272181272506714 -0.0023489082232117653 0.0 0.043832321435877765 -0.16975315728035947 0.6322301476783205 0.10776492957888698 1.4993549481389687 -0.7502127428518105 -0.0009933718158433532 -0.00039864552113628657 -0.03305829425240963 0.0008391439851033516 -0.002579829383998556 -0.0002829670446263845 0.04380656678548821 -0.16977060406265193 0.6321944203626855 0.10786494649800718 1.4992351663741377 -0.7501365315179398 -1.4888219294287243e-06 4.03566154273816e-07 -0.033199999963399916 1.4631431689291928e-05 2.053633240292819e-06 -3.977472799633658e-06
6316.208 0.3492791898924125 -1.9402259903382175 1.0965690991770773 -2.123444307752883 0.697801489147712 1.0472518494918672 0.0011337742793647004 -0.11675440704349627 0.28449778457141384 -0.1680011377335803 -0.0018105633009297235 0.0003375900725646731 0.3491795063018799 -1.9401877562152308 1.0962467193603516 -2.12338096300234 0.6978897452354431 1.0472396612167358 0.001073786523193121 -0.11731117963790894 0.2823004126548767 -0.16439960896968842 -0.0018216022290289402 0.0 0.04384690832416125 -0.1697493282290926 0.6319619271167102 0.1077259087167729 1.499395518806956 -0.7502542145500084 0.00043862087759308563 0.0001610870783254034 -0.03361833606896207 1.544319487865062e-05 -0.0006236732859475365 -0.00011515582410894605 0.04380655473141352 -0.16977060079522827 0.6319256203629708 0.10786505418388204 1.499235229706847 -0.7501364719238026 -1.5246971335921972e-06 4.1329058198863987e-07 -0.033999999962514744 1.4983996309937697e-05 2.103118377363457e-06 -4.073315517072274e-06
6316.215999999999 0.3492883220187392 -1.9411698937098292 1.0988696820732025 -2.1248030787485197 0.697786882984192 1.0472545887400977 0.0011491375814231303 -0.11921843926445728 0.29064219495879756 -0.17168887711808323 -0.0018408471125905526 0.0003472402278507099 0.34919148683547974 -1.9411104361163538 1.0986218452453613 -2.1247838179217737 0.6978897452354431 1.0472636222839355 0.0009203884983435273 -0.1178097277879715 0.2884123623371124 -0.1733398288488388 -0.0014860439114272594 0.0 0.04382454552244294 -0.169756661167148 0.6316771588079656 0.10775790310444289 1.4993505185437566 -0.7502043833972457 8.719798893333976e-06 2.6446100101852003e-05 -0.03464190055738557 -0.0011744155388768891 0.0024843056123307573 6.966580337771202e-05 0.04380654239034397 -0.1697705974500089 0.6316504203632636 0.1078651644337065 1.499235294547474 -0.7501364109107543 -1.5605723642014016e-06 4.230150876947193e-07 -0.034799999961627394 1.5336560928207058e-05 2.1526035165689707e-06 -4.16915823540251e-06
6316.224 0.3492975741648781 -1.9421334370849745 1.1012192818106323 -2.126191285805695 0.697772037695995 1.0472574056295905 0.0011637775815237208 -0.12166436619940794 0.29675192378056414 -0.17536012393449218 -0.0018703426553721319 0.0003570006604654456 0.34919148683547974 -1.942068878804342 1.1009373664855957 -2.126211468373434 0.6978657841682434 1.0472636222839355 0.003969175275415182 -0.12062841653823853 0.2901860475540161 -0.171494260430336 -0.0014620755100622773 0.0 0.043831796825284985 -0.1697543906078981 0.6313975227068032 0.10773002832159904 1.4994050083158508 -0.7502473215786224 0.0012367397482891242 0.00042120379993190976 -0.03477316055207093 -0.0009150589002570165 0.0017268324122964008 0.0031491049878992912 0.04380652976226406 -0.16977059402699757 0.6313688203635631 0.10786527724748113 1.4992353608960196 -0.7501363484787953 -1.596447629560319e-06 4.3273959421326564e-07 -0.03559999996074223 1.5689125547191287e-05 2.202088655429762e-06 -4.265000953778229e-06
6316.232 0.34930694050528804 -1.943116474631779 1.1036176192569276 -2.1276087962984267 0.6977569596322944 1.0472603010490327 0.0011776845604458256 -0.12409194193431698 0.302826554417262 -0.17901470869393799 -0.0018990392404477127 0.00036687297912239245 0.3492274284362793 -1.9430511633502405 1.1034207344055176 -2.1276024023639124 0.6978418231010437 1.0472157001495361 0.003930825740098953 -0.12335123121738434 0.30183470249176025 -0.1726687252521515 -0.004625910893082619 0.0 0.043813100646373296 -0.16976210777578007 0.6311015452739605 0.10774651633869597 1.4993275088996447 -0.7502281139959776 -0.0003022826377066239 -0.0003104525457633662 -0.03609537458612376 0.00222087435293704 -0.005387240699609664 2.5817086523338868e-05 0.043806516847180926 -0.16977059052619026 0.6310808203638697 0.1078653926252065 1.4992354287524823 -0.7501362846279248 -1.6323228521878134e-06 4.424641204267378e-07 -0.0363999999598571 1.6041690166573202e-05 2.251573793288236e-06 -4.360843672125148e-06
6316.24 0.3493164151381672 -1.944118858586572 1.1060644120272176 -2.129055476289678 0.6977416552261719 1.0472632758997784 0.0011908491721811345 -0.12650092942547106 0.3088656903681397 -0.1826524731170887 -0.0019269265793894516 0.00037685874174442894 0.3492514193058014 -1.944056812916891 1.1058311462402344 -2.129005257283346 0.6978294253349304 1.0472276210784912 0.002070874208584428 -0.12455924600362778 0.30590933561325073 -0.17923606932163239 -0.004625910893082619 0.0 0.04382188165565226 -0.16975900697243695 0.6308127420823662 0.10774236630647376 1.4993219291156583 -0.7502056404166768 -0.0004390428172310999 -0.0003270247888220895 -0.03681686004474793 0.0009582163618211587 -0.0019085770015963544 -0.0018294744916438448 0.04380650364510803 -0.16977058694757632 0.6307864203641834 0.10786551056688161 1.4992354981168627 -0.7501362193581435 -1.668198067640233e-06 4.521886462884703e-07 -0.03719999995897199 1.6394254785497746e-05 2.3010589316291795e-06 -4.45668639017728e-06
6316.248 0.3493259920884384 -1.9451404393246339 1.1085593746448228 -2.130531190620914 0.6977261309914159 1.0472663310954409 0.00120326244358509 -0.1288911004456875 0.3148689551657018 -0.18627327010242686 -0.0019539947836358434 0.0003869594553909582 0.3492514193058014 -1.9450390974627894 1.1082549095153809 -2.130528752003805 0.6978054642677307 1.0472396612167358 0.001418932224623859 -0.12998570501804352 0.30468693375587463 -0.18153704702854156 -0.0036911414936184883 0.0 0.04382321850691067 -0.16975887038194856 0.6305169593484659 0.10771637723795491 1.4993831850856123 -0.7502433773565226 0.0024438587506565483 0.0007851632233976801 -0.036741005204338276 -0.0022483131324723665 0.006450511160735007 -0.00156614396203814 0.043806490156032954 -0.16977058329115435 0.6304856203645041 0.10786563107250828 1.4992355689891599 -0.7501361526694497 -1.7040733433155696e-06 4.6191311840226396e-07 -0.037999999958088455 1.6746819405423334e-05 2.350544068926199e-06 -4.552529107510091e-06
6316.255999999999 0.3493356653107265 -1.9461810654304923 1.111102218701112 -2.132035803001359 0.6977103935193286 1.0472694675614873 0.001214915773068424 -0.13126223552130836 0.32083599227013543 -0.18987696368378704 -0.0019802343629805133 0.00039717657639010514 0.34923940896987915 -1.946069065724508 1.1108217239379883 -2.131991688405172 0.6977695226669312 1.0472157001495361 0.001073786523193121 -0.13084855675697327 0.32093754410743713 -0.1865224838256836 -0.002540655666962266 0.0 0.0438045693065028 -0.169766370558989 0.6302084559018237 0.10777529035425046 1.499333562107094 -0.7502658518521026 -0.0005554703117288093 -0.0002289461991023108 -0.038690114710142325 0.001084296596585015 -0.0034038687225494634 -0.0007385812299889791 0.043806476379929765 -0.16977057955696173 0.6301784203648318 0.10786575414208494 1.4992356413693733 -0.7501360845618442 -1.7399486171363676e-06 4.7163752967989767e-07 -0.03879999995720438 1.7099384023808108e-05 2.40002920723318e-06 -4.648371825778643e-06
6316.264 0.34934542869230994 -1.9472405837676607 1.113692653014436 -2.133569176096879 0.6976944494755613 1.047272686234837 0.0012258009269127475 -0.1336141238597692 0.326766464944001 -0.19346342897803046 -0.002005636221680745 0.0004075115110827606 0.34923940896987915 -1.9471114317523401 1.1133170127868652 -2.133490864430563 0.6977695226669312 1.0472755432128906 0.0009012137306854129 -0.13439589738845825 0.3272652328014374 -0.18573153018951416 -0.0019174760673195124 0.0 0.0438152661584663 -0.16976143911884436 0.6299061599772934 0.10778548507279673 1.4993562746436488 -0.7502348253049653 -0.0005027754245835675 -0.00016832678329929237 -0.03933824555041408 0.0021820781772082555 -0.006803424547476318 -0.000278802593950397 0.04380646231683365 -0.16977057574496235 0.6298648203651668 0.10786587977561302 1.4992357152575022 -0.750136015035326 -1.7758237594517634e-06 4.813620673154415e-07 -0.039599999956322074 1.7451948643230463e-05 2.44951434547042e-06 -4.744214543687348e-06
6316.272 0.34935527605609573 -1.948318839547749 1.1163303837879714 -2.135131171618408 0.6976783055969273 1.0472759880634515 0.0012359100433638882 -0.13594656326394217 0.33266005610607885 -0.19703255212345483 -0.0020301916621904125 0.0004179656143791273 0.34923940896987915 -1.9482138792621058 1.1159796714782715 -2.1350138823138636 0.6977455615997314 1.047251582145691 0.0009012137306854129 -0.1341082751750946 0.331699401140213 -0.19335348904132843 -0.0015579493483528495 0.0 0.04381478595595217 -0.16976183847929197 0.6295853879098003 0.10780296949247478 1.4993319240566017 -0.7502540769420325 -0.0009659220464396204 -0.0003173723198685732 -0.040175744149528084 0.0011359856501582653 -0.0040971019286104695 7.975503536570986e-05 0.04380644796675363 -0.1697705718551615 0.6295448203655084 0.10786600797309115 1.4992357906535483 -0.7501359440898961 -1.8116989460312171e-06 4.910865507305158e-07 -0.04039999995544079 1.7804513261394223e-05 2.498999485197489e-06 -4.840057262524381e-06
6316.28 0.3493652011635498 -1.9494156763988881 1.1190151147663407 -2.1367216504098288 0.6976619686882637 1.0472793740059343 0.0012452356249703777 -0.13825936004475622 0.3385164681700561 -0.20058423020717295 -0.0020538923772915113 0.0004285401915007817 0.34928736090660095 -1.9492910544024866 1.1186432838439941 -2.1365369001971644 0.6977216005325317 1.047251582145691 0.0020900489762425423 -0.1370611935853958 0.3358459174633026 -0.19505524635314941 -0.0014141385909169912 0.0 0.043811116429559906 -0.16976427010825867 0.6292634263749873 0.10781761806846551 1.4992818752186645 -0.7502052175012373 -0.00023090076977279935 -6.194549864401699e-05 -0.040710987783464395 0.0009297657571746121 -0.003631070795772443 0.0014202569218766867 0.043806433329654934 -0.16977056788756478 0.6292184203658573 0.10786613873452017 1.4992358675575106 -0.7501358717255538 -1.8475742221842462e-06 5.008110059976394e-07 -0.041199999954558406 1.8157077880789744e-05 2.5484846237167026e-06 -4.935899980539501e-06
6316.288 0.3493751977176238 -1.9505309364333963 1.1217465473908592 -2.1383404725352513 0.6976454456192966 1.0472828450311285 0.0012537705394908031 -0.14055232892103042 0.3443354228640889 -0.2041183711843497 -0.002076730450631861 0.0004392364973266469 0.34926339983940125 -1.9503935019122522 1.121377944946289 -2.1380961577044886 0.6977335810661316 1.0472276210784912 0.0020900489762425423 -0.13963060081005096 0.3460325300693512 -0.20325246453285217 -0.0014141385909169912 0.0 0.043794725365598745 -0.16976799549224558 0.6289326937149959 0.10784390620203013 1.499225507942231 -0.7502051026940817 -0.0007261545139500675 -0.00023976072168735272 -0.04214535112849693 0.0007194234481303231 -0.0030903232177146734 0.0014400266802116638 0.04380641840557045 -0.16977056384219297 0.6288856203662129 0.10786627205990036 1.4992359459693874 -0.7501357979422978 -1.8834494138464468e-06 5.10535461590418e-07 -0.04199999995367775 1.8509642499830027e-05 2.597969761002013e-06 -5.031742697836126e-06
6316.295999999999 0.34938525936564135 -1.9516644603146176 1.1245243809532735 -2.139987497365609 0.6976287433215516 1.0472864021177217 0.0012615080135148665 -0.14282529291157955 0.35011666103355965 -0.2076348937898318 -0.0020986983500545543 0.0004500557376869178 0.3492993414402008 -1.9515669981585901 1.1242332458496094 -2.1396787802325647 0.6976856589317322 1.0472276210784912 0.002070874208584428 -0.1415289044380188 0.351880818605423 -0.20210197567939758 -0.00512924836948514 0.0 0.0437918444191569 -0.1697711902521822 0.6285880490356567 0.10790867409633675 1.4991523755861547 -0.7501678287543587 -0.0014719414858227805 -0.0007170770918506143 -0.042827653563740846 0.003052497444100284 -0.007676871267666846 -0.002220021088389936 0.04380640319446345 -0.16977055971901173 0.628546420366576 0.10786640794923094 1.4992360258891801 -0.7501357227401295 -1.9193246858148585e-06 5.202600211171983e-07 -0.042799999952796396 1.886220711875544e-05 2.6474548996618746e-06 -5.12758541666351e-06
6316.304 0.349395379702212 -1.9528160873228604 1.1273483127478565 -2.1416625836645036 0.6976118687852385 1.0472900462538404 0.0012684416377814285 -0.14507808321954865 0.355859942428388 -0.21113372743965655 -0.0021197889324098195 0.0004609990674472589 0.34928736090660095 -1.9527290503131312 1.1271238327026367 -2.1413100401507776 0.6976616978645325 1.047251582145691 0.001418932224623859 -0.14394491910934448 0.35902342200279236 -0.20840567350387573 -0.0041705104522407055 0.0 0.04377292476281317 -0.16977801830613265 0.6282371149703334 0.10800600623209683 1.4990752918195214 -0.7501342593902921 -0.0015515386261836836 -0.0006791734657318959 -0.04387159943624467 0.0023489463914627517 -0.006252542840926844 -0.001914314197109153 0.04380638769638077 -0.16977055551804676 0.6282008203669458 0.10786654640251293 1.4992361073168872 -0.7501356461190475 -1.955199854024955e-06 5.299845128404155e-07 -0.04359999995191798 1.9214771738629364e-05 2.6969400371184345e-06 -5.223428134008925e-06
6316.312 0.34940555227205433 -1.9539856554203983 1.1302180382217486 -2.1433655896732517 0.6975948290562305 1.047293778436664 0.001274565352359336 -0.14731053911182318 0.3615650454759169 -0.21461481212719719 -0.0021399954285306016 0.0004720675940085299 0.34933528304100037 -1.953902546559469 1.1300625801086426 -2.143013302479879 0.6976736783981323 1.0472396612167358 0.001073786523193121 -0.14716628193855286 0.36264264583587646 -0.21645908057689667 -0.0027563718613237143 0.0 0.04376605755416865 -0.16977952137812535 0.627878128169837 0.10797979593694984 1.4990219899335169 -0.7500710350963663 -0.00021770583671412843 -0.00010900601347077504 -0.0445886824496871 -0.0004944195115484623 0.000862437539812497 -0.0008650134066922736 0.04380637191127362 -0.16977055123925555 0.6278488203673228 0.10786668741974617 1.499236190252509 -0.7501355680790516 -1.991075152990427e-06 5.397090656077193e-07 -0.04439999995103776 1.9567336357657666e-05 2.7464251758540007e-06 -5.3192708520326436e-06
6316.32 0.34941577057286505 -1.9551730013154591 1.1331332511234131 -2.1450963731950425 0.6975776312330001 1.0472975996720233 0.0012798734564656135 -0.14952250778799414 0.3672317670385972 -0.21807809830943584 -0.0021593114524215283 0.00048326237410956124 0.34933528304100037 -1.9551003615008753 1.1330132484436035 -2.1447160879718226 0.6976616978645325 1.0472875833511353 0.0010162623366340995 -0.1483551263809204 0.3675561845302582 -0.22527946531772614 -0.0020373184233903885 0.0 0.04375842324889072 -0.1697817853617537 0.6275172283975989 0.10804741838389519 1.4989746014634844 -0.7500192040402364 -8.508300047520623e-06 7.750359964286621e-06 -0.0455182119253022 -0.0023501923663010117 0.005611257897647857 -0.00020999361197547367 0.04380635583916517 -0.16977054688267085 0.6274904203677069 0.1078668310009307 1.4992362746960446 -0.750135488620142 -2.0269503385103643e-06 5.494334664859099e-07 -0.04519999995015983 1.9919900976745112e-05 2.7959103140561665e-06 -5.415113570693907e-06
6316.3279999999995 0.3494260280580849 -1.9563779605251579 1.136093643649113 -2.146854791678191 0.6975602824636618 1.0473015109740218 0.0012843605908684633 -0.15171384424697487 0.3728599221597315 -0.22152354678928088 -0.0021777309834407825 0.0004945844180152148 0.3493472933769226 -1.9562624136554163 1.1360368728637695 -2.1465027968036097 0.6976616978645325 1.047251582145691 0.0030871364288032055 -0.1506560891866684 0.36868271231651306 -0.2251356542110443 -0.0016298546688631177 0.0 0.043727925010891844 -0.16979191619854805 0.6271440295675001 0.1080481984346308 1.4989186847564706 -0.7500070283278507 0.001151906159491005 0.0004154794435642009 -0.04569347472452117 -0.002773980405779772 0.006554654230050739 0.002265797591995766 0.04380633948007814 -0.16977054244831452 0.6271256203680979 0.10786697714606674 1.4992363606474937 -0.7501354077423181 -2.062825526621991e-06 5.591578793520242e-07 -0.04599999994928256 2.0272465595767614e-05 2.8453954527088996e-06 -5.510956289076273e-06
6316.335999999999 0.34943631813966697 -1.9576003674373226 1.1390989065872896 -2.1486407022983993 0.6975427899430158 1.0473055133646518 0.0012880217417009403 -0.1538844111434684 0.37844934379523476 -0.22495112858960456 -0.0021952483695369617 0.0005060346878748073 0.34938323497772217 -1.9574602285968226 1.1390595436096191 -2.148313824330465 0.6975897550582886 1.047251582145691 0.0030871364288032055 -0.15238182246685028 0.3732367157936096 -0.23040871322155 -0.0015579493483528495 0.0 0.04371724550681431 -0.1697993208668797 0.6267690079844689 0.10808221753082649 1.498914272771758 -0.7500197052939186 0.0013613795321571383 0.0004957595644805129 -0.046456105367844204 -0.0036244709284719836 0.008846948953436401 0.0023438461116461855 0.043806322833968736 -0.16977053793616897 0.6267544203684958 0.10786712585515391 1.499236448106857 -0.7501353254455803 -2.0987008307413463e-06 5.688824136182707e-07 -0.046799999948405675 2.0625030214167133e-05 2.8948805922602737e-06 -5.606799007550451e-06
6316.344 0.34944663419084715 -1.958840055371148 1.1421487294607537 -2.150453962039993 0.697525160909594 1.0473096078734048 0.0012908522399785061 -0.15603407863997137 0.38399988253410255 -0.22836082482132178 -0.00221185832623131 0.0005176140972227339 0.3493712544441223 -1.9587057272540491 1.14201021194458 -2.150149170552389 0.6975777745246887 1.0472396612167358 0.0018024274613708258 -0.15581409633159637 0.3804751932621002 -0.23697607219219208 -0.005896239075809717 0.0 0.0437414011326074 -0.1697898505264801 0.6264015271218388 0.10800714152426602 1.4990136085046912 -0.7500970055545206 0.0014178171819170925 0.00029696030314373687 -0.04757765002502617 -0.0038650743844990394 0.011688442774576981 -0.0031997874816757027 0.04380630590085966 -0.1697705333462059 0.6263768203689011 0.10786727712819151 1.4992365370741345 -0.7501352417299282 -2.1345760320590947e-06 5.786069812995438e-07 -0.047599999947528365 2.0977594832902158e-05 2.9443657298922304e-06 -5.70264172504121e-06
6316.352 0.3494569695488514 -1.960096856636647 1.145242800666596 -2.1522944277760914 0.6975074026427731 1.0473137955368943 0.0012928477520619543 -0.15816272425343905 0.3895114063082561 -0.23175262654803352 -0.002227555926668576 0.0005293235128986947 0.349395215511322 -1.9599512259112757 1.1450691223144531 -2.152079407368795 0.6975777745246887 1.0472396612167358 0.0012847089674323797 -0.15778909623622894 0.3821290135383606 -0.24208135902881622 -0.005632585845887661 0.0 0.043755471867522974 -0.16978400913318759 0.6260180457009715 0.10791131489159761 1.499097361665101 -0.7501224034273738 0.002321392549596722 0.0006487363461418507 -0.04801888423846595 -0.005759826868982481 0.01677408553076543 -0.0034586489400871005 0.04380628868074589 -0.16977052867844228 0.625992820369313 0.10786743096518173 1.4992366275493236 -0.7501351565953607 -2.1704512440960133e-06 5.883314405331111e-07 -0.04839999994665317 2.1330159453415817e-05 2.993850866392551e-06 -5.7984844423842935e-06
6316.36 0.34946731751755084 -1.9613706025928739 1.14838080761374 -2.1541619563476537 0.6974895224599423 1.0473180773984867 0.001294004273724596 -0.16027023269915303 0.3949838000929895 -0.23512653464330696 -0.002242336595197052 0.0005411637559716158 0.349395215511322 -1.961160961781637 1.1481881141662598 -2.154010597859518 0.6975777745246887 1.0472396612167358 0.000997087568975985 -0.16026264429092407 0.3907097280025482 -0.23752734065055847 -0.0033076461404561996 0.0 0.04373595828640644 -0.1697899468895762 0.6256264983650701 0.10789004439502564 1.4991100038306062 -0.7501293130267574 0.001111014552896754 0.0003486107598330053 -0.04882772131717823 -0.0025295762805000667 0.006609487675536703 -0.0014273195821400964 0.04380627117364354 -0.16977052393289643 0.6256024203697323 0.107867587366124 1.4992367195324243 -0.7501350700418774 -2.2063264415738e-06 5.980558767904112e-07 -0.04919999994577688 2.1682724072507762e-05 3.043336004842918e-06 -5.894327160645188e-06
6316.3679999999995 0.34947767137009056 -1.9626611237048506 1.1515624368580544 -2.15605640464139 0.6974715277137031 1.0473224545079343 0.0012943181273216697 -0.1623564957262493 0.40041696559665135 -0.23848255964486612 -0.0022561961039788653 0.0005531356018049806 0.34941917657852173 -1.9624908606158655 1.1512703895568848 -2.155989472066061 0.6975294947624207 1.0472276210784912 0.000997087568975985 -0.16302381455898285 0.39384958148002625 -0.2401159405708313 -0.0023489082232117653 0.0 0.04378509455580582 -0.16977405925974648 0.6252378190038008 0.10776071588131904 1.4992866915304515 -0.7502406045927602 0.001910922825826972 0.0006939016916497889 -0.0493212055576069 -0.003447652192263376 0.008629151375736575 -0.00047686333580405937 0.04380625337952479 -0.16977051910955795 0.6252056203701587 0.1078677463310172 1.4992368130234381 -0.7501349820694789 -2.242201705385472e-06 6.077803812215545e-07 -0.04999999994490277 2.2035288690601862e-05 3.092821143632911e-06 -5.990169879030956e-06
6316.375999999999 0.3494879428478874 -1.963957892212127 1.1547618110963938 -2.1579623967462647 0.6974535687322141 1.0473268923161605 0.0012735766974387886 -0.16183624554873696 0.39942797785288475 -0.2380162333638587 -0.002233576530030499 0.0005563130290806975 0.3494551479816437 -1.9637964407550257 1.1544971466064453 -2.158016029988424 0.6975054740905762 1.047251582145691 0.0035473306197673082 -0.16267865896224976 0.4002971053123474 -0.2377670258283615 -0.0018216022290289402 0.0 0.043797296120474075 -0.1697704270885345 0.624830480860456 0.10770031728723722 1.499361220420331 -0.7502487788873483 0.00054960316015351 0.00018444921805981881 -0.050057567140102864 -0.00043042506597601454 2.3171814398686888e-07 0.0026136878017793395 0.043806235441909834 -0.1697705142473144 0.6248056203705991 0.10786790657788764 1.4992369072684035 -0.7501348933876195 -2.2422016705708776e-06 6.077804154711401e-07 -0.04999999994489342 2.2035288691160714e-05 3.0928211434114628e-06 -5.9901698792553046e-06
6316.384 0.3494980490007425 -1.9652505133946514 1.1579533064964493 -2.1598646765652827 0.6974357900557698 1.0473313554619097 0.0012529865785797139 -0.16131965578517365 0.398447237457034 -0.23755447839563054 -0.002211119502167354 0.0005594700225019424 0.3494311571121216 -1.965113941823141 1.1577239036560059 -2.1599233786212366 0.6975294947624207 1.0472636222839355 0.0025310683995485306 -0.16072283685207367 0.39924249053001404 -0.23330889642238617 -0.0016298546688631177 0.0 0.04379647120941485 -0.16976773224447678 0.624427366653209 0.10769950532132767 1.4993507952000453 -0.7502395369034008 -0.000584680610279593 -0.00020026137709140267 -0.049924371022580155 0.0013655079600937623 -0.005048964434140643 0.001788661312364697 0.04380621750430884 -0.16977050938506674 0.6244056203710392 0.1078680668247602 1.4992370015133611 -0.7501348047057543 -2.2422016591599775e-06 6.077804140241029e-07 -0.04999999994493612 2.203528869098388e-05 3.092821143887265e-06 -5.990169879584794e-06
6316.392 0.34950799103167346 -1.966539016326946 1.1611369885941414 -2.1617632804356006 0.697418190392124 1.047335843782664 0.0012325459090722524 -0.1608066743982081 0.3974746340399148 -0.2370972365891404 -0.002188822996251132 0.0005626068195764595 0.3494431674480438 -1.9663837591754358 1.1609630584716797 -2.161841694508688 0.6974695324897766 1.047251582145691 0.0016106799012050033 -0.16085706651210785 0.3929627537727356 -0.2322303205728531 -0.005392901599407196 0.0 0.04377564796748856 -0.16977770254857974 0.6240197990321067 0.10775408880023801 1.4993187572777333 -0.7502580867248855 0.0005762639908277643 2.360800672245424e-05 -0.04934808774470417 0.0001713961670063176 0.000186004981750323 -0.002853803389014469 0.043806199566689324 -0.16977050452282466 0.6240056203714791 0.1078682270716336 1.4992370957583123 -0.7501347160238833 -2.2422017178589334e-06 6.077803922102979e-07 -0.04999999994497826 2.203528869052071e-05 3.0928211446240345e-06 -5.990169879636036e-06
6316.4 0.34951777012894364 -1.96782342967105 1.1643129220506871 -2.1636582442335808 0.6974007684650727 1.0473403571177884 0.0012122528615009806 -0.1602972503010575 0.3965100592863367 -0.2366444508935172 -0.0021666850253190145 0.0005657236535326059 0.34946712851524353 -1.9677136580096644 1.1640939712524414 -2.1637490431415003 0.6974695324897766 1.047251582145691 0.0011696603614836931 -0.1624102145433426 0.39078161120414734 -0.23148730397224426 -0.005392901599407196 0.0 0.04381043184303744 -0.1697643188036601 0.6236253297815834 0.10766414334257685 1.4993943063938644 -0.7502793274623929 0.0016696593624847096 0.00042801453653513517 -0.04916498504924353 -0.000848522438914505 0.0029979991382118928 -0.003299742839655574 0.04380618162907584 -0.16977049966058783 0.6236056203719187 0.10786838731851017 1.4992371900032537 -0.7501346273420056 -2.2422016837640853e-06 6.077803981604494e-07 -0.04999999994501935 2.2035288691680047e-05 3.0928211425904507e-06 -5.9901698789514976e-06
6316.407999999999 0.3495273874663241 -1.9691037816840318 1.1674811706688306 -2.1655496033835 0.6973835230141688 1.0473448953084983 0.0011921056405736173 -0.1597913333334993 0.39555340688540963 -0.23619606533272897 -0.0021447036373986087 0.0005688207537682357 0.34946712851524353 -1.9689825216876429 1.167224407196045 -2.165583912526266 0.697433590888977 1.0472636222839355 0.0009779128013178706 -0.1616048812866211 0.3907097280025482 -0.23064839839935303 -0.004026699811220169 0.0 0.04380672271958706 -0.16976653865305102 0.623231297796642 0.10771104406656118 1.4993738083084718 -0.7502816613678311 0.001320388245159036 0.00037997722851194974 -0.04923602718813336 -0.0005353381514403586 0.0014416683357037522 -0.002144852965691983 0.043806163691478765 -0.1697704947983476 0.6232056203723579 0.10786854756538862 1.4992372842481878 -0.7501345386601217 -2.2422016797825112e-06 6.077804303225784e-07 -0.04999999994505824 2.2035288691033266e-05 3.092821143569919e-06 -5.9901698790890015e-06
6316.416 0.34953684420335873 -1.9703801002253094 1.1706417974086882 -2.167437392866038 0.6973664527944353 1.047349458197827 0.0011721024840229334 -0.15928887424038274 0.3946045724832833 -0.23575202497952483 -0.002122876916314501 0.0005718983455019727 0.3494791090488434 -1.9702642599688929 1.17039155960083 -2.1674426237689417 0.697433590888977 1.0472755432128906 0.0009779128013178706 -0.15803837776184082 0.39272305369377136 -0.2317749261856079 -0.002684466540813446 0.0 0.04380614250573446 -0.16976581184686498 0.6228320099152943 0.10771821810810242 1.4993469221605944 -0.7502501112088213 -0.0005275065966199686 -0.00021859418456321214 -0.0496606490015384 0.0007665567364763255 -0.002820670035606971 -0.0008183122833569398 0.043806145753849474 -0.16977048993608984 0.6228056203727967 0.1078687078122685 1.4992373784931141 -0.750134449978232 -2.2422017578560863e-06 6.077804456098271e-07 -0.04999999994509602 2.203528869051133e-05 3.0928211439831626e-06 -5.9901698793620985e-06
6316.424 0.3495461414856314 -1.9716524127638122 1.1737948644032203 -2.1693216472265657 0.6973495565760752 1.0473540456305916 0.0011522416627920476 -0.15878982465064062 0.39366345363728117 -0.2353122759304485 -0.0021012029817970733 0.0005749566496100934 0.34951505064964294 -1.9715459982501429 1.1735219955444336 -2.169241730366842 0.6974096298217773 1.0472396612167358 0.0009779128013178706 -0.1601284295320511 0.3964861035346985 -0.23148730397224426 -0.0020133499056100845 0.0 0.043812269091306054 -0.1697644311655545 0.6224378677533751 0.107705756585282 1.4993127403174538 -0.7502448658481651 -0.00042786412337805075 -0.00014366248468533478 -0.05013831267728556 0.0013158310089321037 -0.004705728505220476 -0.00014591413428658145 0.043806127816242595 -0.1697704850738684 0.6224056203732353 0.10786886805915001 1.499237472738033 -0.7501343612963365 -2.242201675114328e-06 6.077803731900068e-07 -0.04999999994513095 2.2035288690410392e-05 3.0928211445657586e-06 -5.990169879625451e-06
6316.432 0.34955528044496864 -1.9729207463849727 1.1769404329733444 -2.1712024005832475 0.6973328331442473 1.047358657453373 0.0011325214712728355 -0.15829413705721104 0.39272994977150577 -0.23487676528343843 -0.0020796799797942545 0.0005779958851568601 0.34951505064964294 -1.972839657460348 1.1766767501831055 -2.1710765997516077 0.697433590888977 1.047251582145691 0.0009779128013178706 -0.16039687395095825 0.39804404973983765 -0.23580162227153778 -0.0016058861510828137 0.0 0.04381735944332284 -0.16976009307434256 0.622039505285192 0.10770138296899197 1.4992828510665808 -0.7502069017987337 -0.0002305540072633168 -5.052268865736124e-05 -0.05057810077038569 0.00021872229056550929 -0.0018852209271769636 0.00025517394893072396 0.04380610987862309 -0.16977048021159358 0.6220056203736738 0.1078690283060346 1.4992375669829436 -0.750134272614434 -2.242201704252255e-06 6.077804823323752e-07 -0.04999999994516539 2.2035288690815233e-05 3.092821143390158e-06 -5.990169879074704e-06
6316.44 0.34956426219975234 -1.974185127797532 1.1800785636426812 -2.1730796866349564 0.6973162812987335 1.0473632935144688 0.0011129402457952752 -0.15780176479278404 0.3918039621316212 -0.2344454411129835 -0.0020583061006018426 0.0005810162642801656 0.34951505064964294 -1.9740856329547327 1.179807186126709 -2.172959629689352 0.6973856687545776 1.047251582145691 0.0009779128013178706 -0.15842187404632568 0.397900253534317 -0.2353222519159317 -0.001342233270406723 0.0 0.043808661506076346 -0.1697648577276771 0.6216395740680476 0.10773450991906305 1.4992853971814137 -0.7502370077416385 -0.0010548723635730474 -0.00033735044693689384 -0.05068780560932616 0.0009660738631540692 -0.004071498032975092 0.0005152478126324795 0.04380609194102113 -0.16977047534934767 0.6216056203741118 0.1078691885529204 1.4992376612278462 -0.750134183932526 -2.2422016702027554e-06 6.07780324574524e-07 -0.049999999945198645 2.20352886898156e-05 3.0928211444094167e-06 -5.990169879584536e-06
6316.447999999999 0.3495730878550837 -1.9754455833402238 1.1832093161519783 -2.1749535386689933 0.697299899853753 1.0473679536638831 0.0010934963386228414 -0.15731266201715952 0.3908853937455072 -0.23401825244869343 -0.0020370795531932753 0.0005840179991460875 0.34949108958244324 -1.9753311316119593 1.1829380989074707 -2.1747944990741175 0.6973373293876648 1.0472396612167358 0.0009395632660016418 -0.1578466296195984 0.39758867025375366 -0.23563383519649506 -0.001318264752626419 0.0 0.04379169997318492 -0.16977221923780866 0.6212404865611855 0.10780649023731324 1.4992535291019915 -0.7502766938868087 -0.0011688278292612939 -0.00037830150207575266 -0.05078682627383158 0.0009472876967823775 -0.0040272804400504686 0.0004995809946518718 0.04380607400339621 -0.16977047048711638 0.6212056203745497 0.10786934879980793 1.4992377554727414 -0.7501340952506119 -2.242201723981088e-06 6.077803114339167e-07 -0.0499999999452303 2.203528868960136e-05 3.092821144869823e-06 -5.990169880038912e-06
6316.456 0.34958175850305234 -1.9767021389882764 1.1863327494731868 -2.176823989568639 0.6972836876376737 1.0473726377532884 0.0010741881389574983 -0.15682678369231548 0.3899741493799123 -0.2335951492524826 -0.002015998585826732 0.0005870012961463597 0.3495510220527649 -1.9765890280352991 1.1860928535461426 -2.176641289387838 0.6972894072532654 1.0472755432128906 0.002646117005497217 -0.15947647392749786 0.3918601870536804 -0.23930101096630096 -0.007574030663818121 0.0 0.04379038648238395 -0.16977537179498936 0.6208375968742099 0.10784977344148552 1.4992108976561107 -0.7502106205674783 0.0012705055238655455 0.00012323051020651516 -0.05043224212214997 -0.001777975808949563 0.00670014411922682 -0.003974943968558441 0.04380605606578469 -0.16977046562487644 0.6208056203749874 0.10786950904669726 1.499237849717629 -0.7501340065686917 -2.24220166281119e-06 6.077803713131874e-07 -0.049999999945260845 2.203528868963833e-05 3.0928211443691928e-06 -5.990169879611817e-06
6316.464 0.34959027522296515 -1.9779548203597628 1.1894489218232132 -2.178691071820537 0.6972676434927643 1.0473773456359967 0.0010550140626453112 -0.15634408556491505 0.3890701355007859 -0.23317608239843887 -0.001995061475843944 0.0005899663585903214 0.34953904151916504 -1.9778230826007288 1.1893315315246582 -2.178500000630514 0.6973133683204651 1.0472755432128906 0.002646117005497217 -0.1579616814851761 0.3949281573295593 -0.23314112424850464 -0.004314321093261242 0.0 0.043751423607710664 -0.16978687911175222 0.6204242598810877 0.10791681096470263 1.499092360182963 -0.7501442243111627 -0.00046012885248630884 -0.00032246418244337747 -0.05065385556384366 0.0013438126632117327 -0.003588562530862694 -0.0007483242329886352 0.043806038128178404 -0.1697704607626548 0.6204056203754248 0.10786966929358843 1.499237943962509 -0.7501339178867655 -2.242201668831807e-06 6.077803879873969e-07 -0.04999999994529088 2.2035288689865417e-05 3.0928211437852957e-06 -5.990169879406483e-06
6316.472 0.34959863908155003 -1.9792036527218215 1.1925578906773662 -2.1805548175218927 0.6972517662749704 1.0473820771669373 0.00103597255055646 -0.1558645241508252 0.3881732602357514 -0.23276100365104682 -0.0019742665280127704 0.0005929133870590851 0.34953904151916504 -1.979056183491842 1.1925702095031738 -2.1803954283343714 0.6972774267196655 1.047251582145691 0.002205097349360585 -0.15642769634723663 0.38970303535461426 -0.2346990704536438 0.0 0.0 0.04371529945906625 -0.16980095540055992 0.6200079347044892 0.10798650957353544 1.4990138621840792 -0.7501421911384407 0.00035031373937419175 0.00021889827559180147 -0.05021488632025169 -0.0011412537170086556 0.0011023114973246484 0.003042906956399855 0.04380602019055838 -0.16977045590040232 0.6200056203758618 0.10786982954048192 1.499238038207381 -0.7501338292048334 -2.242201700976222e-06 6.077804962499399e-07 -0.04999999994531911 2.2035288690159887e-05 3.0928211432643907e-06 -5.990169879089774e-06
6316.48 0.3496068511332055 -1.9804486609967196 1.1956597127824873 -2.1824152583875254 0.6972360548536474 1.0473868322026212 0.0010170620757302075 -0.15538805671397485 0.3872834333347252 -0.23234986564539986 -0.0019536120814937176 0.0005958425773687746 0.34953904151916504 -1.9803503195392054 1.1957249641418457 -2.182254139577047 0.697241485118866 1.0472636222839355 0.0014764565275982022 -0.15493206679821014 0.39209988713264465 -0.23580162227153778 -0.004841627087444067 0.0 0.04372243189182675 -0.169799304111026 0.6196026056715263 0.1080185311131348 1.4990121632434839 -0.750154332537743 -0.0010356401281142145 -0.0005454208987620599 -0.05071717372782832 0.0006033371795645048 -0.0012423250577673507 -0.0024479032681848085 0.04380600225294386 -0.1697704510381383 0.6196056203762988 0.107869989787377 1.499238132452245 -0.7501337405228949 -2.242201664353946e-06 6.077804502235215e-07 -0.04999999994534525 2.2035288689988637e-05 3.0928211430595307e-06 -5.99016987887521e-06
6316.487999999999 0.3496149124201819 -1.9816898697677834 1.198754444169792 -2.184272425756757 0.6972205081113599 1.047391610601123 0.000998281131722147 -0.1549146412527671 0.3864005661348487 -0.231942621868057 -0.001933096498310127 0.0005987541236459876 0.34953904151916504 -1.9815238157855433 1.1987838745117188 -2.1841610113727015 0.697241485118866 1.0472396612167358 0.0010929612908512354 -0.15512381494045258 0.3834952116012573 -0.23362049460411072 -0.004841627087444067 0.0 0.04370456038587037 -0.16980482217155035 0.6192038209764141 0.10797989937854709 1.4990281730597501 -0.7501802930805804 0.0008085209202353384 0.00012894192123450777 -0.04976103490409107 -0.0016411881413786011 0.004980500173523608 -0.002853131868322567 0.043805984315327055 -0.16977044617590947 0.6192056203767355 0.10787015003427457 1.4992382266971003 -0.7501336518409502 -2.242201655248758e-06 6.077803464035011e-07 -0.04999999994537186 2.203528869006968e-05 3.092821142183929e-06 -5.990169878666393e-06
6316.496 0.34962282397277256 -1.9829273032852148 1.2018421401674215 -2.186126350600137 0.6972051249436731 1.0473964122220598 0.000979628236441961 -0.15444423648286434 0.3855245715244111 -0.23153922663733012 -0.0019127181670671551 0.0006016482172007616 0.3495749831199646 -1.9828055540667933 1.2018547058105469 -2.1860201994525355 0.6972534656524658 1.0472875833511353 0.0008820389630272985 -0.15562234818935394 0.3833514153957367 -0.23314112424850464 -0.0038109836168587208 0.0 0.043734228839868126 -0.1697929773836547 0.6188065963168589 0.10792805939179513 1.4990664821183255 -0.7501309956456652 0.0010642750506653135 0.00028291842753173625 -0.04981281951590709 -0.0018672436004485119 0.005073897177135836 -0.0020486342196385206 0.04380596637770845 -0.16977044131366342 0.6188056203771721 0.10787031028117301 1.4992383209419498 -0.7501335631589995 -2.242201634722349e-06 6.077804186376202e-07 -0.0499999999453963 2.2035288689455264e-05 3.0928211443587844e-06 -5.990169879109249e-06
6316.504 0.3496305868095581 -1.9841609854717301 1.2049228554127045 -2.1879770635260307 0.6971899042588913 1.047401236926555 0.0009611019393388327 -0.15397680181756612 0.3846553639068544 -0.23113963508534444 -0.0018924755099592628 0.0006045250444879523 0.34953904151916504 -1.9840272108661097 1.2048892974853516 -2.187938992177145 0.6972534656524658 1.0472875833511353 0.0007286408799700439 -0.15431846678256989 0.38076281547546387 -0.23563383519649506 -0.002588592702522874 0.0 0.04373868462300341 -0.16978973652088908 0.6184092869679267 0.10788411562936288 1.499144570000516 -0.7502001092879609 0.0013676488620082948 0.00046177895061806423 -0.04972320607170508 -0.003347688661312512 0.008557579469627603 -0.0010084930863669425 0.043805948440101286 -0.16977043645142198 0.6184056203776084 0.10787047052807448 1.4992384151867895 -0.7501334744770425 -2.2422016051985726e-06 6.077804047031621e-07 -0.049999999945420745 2.2035288690310266e-05 3.0928211424928725e-06 -5.990169878828969e-06
6316.512 0.3496382019375771 -1.9853909399281164 1.207996643864153 -2.189824594787053 0.6971748449778697 1.0474060845772217 0.000942700808928549 -0.15351229735650918 0.3837928591686742 -0.23074380313977885 -0.0018723669704444415 0.0006073847904120728 0.34956300258636475 -1.9852970282184046 1.207876205444336 -2.189857784901754 0.6972654461860657 1.0472755432128906 0.0006327670998871326 -0.15437600016593933 0.38129010796546936 -0.22671757638454437 -0.0019414444686844945 0.0 0.04378609218170827 -0.16977128348082426 0.6180175670945396 0.10771867997172932 1.4992927346798217 -0.7502608121048522 0.000538815245337386 0.00019959028054007747 -0.04954480294329086 -0.0002620699602750025 -0.0003062906401724365 -0.00045442269884507177 0.04380593050248945 -0.16977043158918273 0.6180056203780447 0.10787063077497766 1.4992385094316216 -0.7501333857950793 -2.2422016329064624e-06 6.077804139585569e-07 -0.04999999994544291 2.2035288689577237e-05 3.092821143520696e-06 -5.990169879048981e-06
6316.5199999999995 0.3496456703525281 -1.9866171899386398 1.2110635588131906 -2.191668974286367 0.6971599460337963 1.0474109550381356 0.0009244234400286448 -0.15305068386823809 0.3829369746458545 -0.23035168750615265 -0.0018523910203060623 0.0006102276362881256 0.3495510220527649 -1.9865310827838343 1.2108750343322754 -2.1917408148394983 0.697241485118866 1.0472636222839355 0.0005368932615965605 -0.15456774830818176 0.38378283381462097 -0.23100793361663818 -0.0015579493483528495 0.0 0.04380472008378872 -0.169764682787805 0.6176240109743417 0.10766071507586364 1.4993848816883002 -0.7503414482693503 0.00047022837271152847 0.0001967330266873873 -0.050086167268933356 -0.001004103944605214 0.0015415430218264892 -0.0001704040329954296 0.04380591256488248 -0.16977042672694959 0.6176056203784807 0.1078707910218823 1.499238603676447 -0.7501332971131105 -2.2422016373779946e-06 6.077804340558427e-07 -0.049999999945466216 2.2035288689138785e-05 3.092821144200491e-06 -5.990169879512545e-06
6316.527999999999 0.3496529930389549 -1.9878397584763432 1.2141236528956196 -2.193510231583833 0.6971452063719893 1.0474158481748135 0.0009062684497839025 -0.1525919227756964 0.3820876290919932 -0.22996324565123086 -0.0018325461556857438 0.0006130537608368136 0.3495749831199646 -1.9877646605121058 1.2138733863830566 -2.193599526082174 0.6972295045852661 1.0472875833511353 0.0004985437844879925 -0.15345560014247894 0.3810264766216278 -0.22714900970458984 -0.001318264752626419 0.0 0.043828011336093244 -0.16975636025070331 0.6172307345425644 0.10760650690086025 1.4994495157498573 -0.7503467041122425 0.00031696200444658807 0.00015370363884604224 -0.04974393310729641 -0.0002854635052365271 -0.000553238707439395 2.435034819161402e-05 0.04380589462726498 -0.16977042186470598 0.6172056203789165 0.10787095126878873 1.499238697921264 -0.7501332084311351 -2.2422016658806397e-06 6.077804846381003e-07 -0.0499999999454868 2.2035288689466648e-05 3.0928211433785572e-06 -5.990169878871375e-06
6316.536 0.34966017097044394 -1.9890586682082194 1.2171769781028374 -2.1953483959020303 0.6971306249496853 1.0474207638541868 0.0008882344802384149 -0.15213597614142935 0.3812447426470308 -0.22957843578596462 -0.0018128308995679348 0.0006158633394128722 0.3495989441871643 -1.9890220800982874 1.2169442176818848 -2.1953862349139612 0.6971695423126221 1.047251582145691 0.0004985437844879925 -0.1526886224746704 0.3808826506137848 -0.22300246357917786 -0.0011744541116058826 0.0 0.043837295436257 -0.16975579151342468 0.616830867155419 0.1076200535546239 1.4994391998981857 -0.7503846421867024 -0.0003011744949811563 -6.357767232717636e-05 -0.04968838324155751 0.0013156373720197845 -0.005045977896729426 0.00017098749980403415 0.043805876689652364 -0.16977041700243084 0.6168056203793522 0.10787111151569803 1.4992387921660726 -0.7501331197491535 -2.2422016419102566e-06 6.077804830291486e-07 -0.04999999994550728 2.203528868954688e-05 3.0928211435096915e-06 -5.990169879189168e-06
6316.544 0.3496672051098048 -1.9902739415002744 1.2202235857928048 -2.1971834961321584 0.6971162007358419 1.0474257019445798 0.00087032019538864 -0.15168280665356434 0.3804082368071421 -0.22919721684994615 -0.0017932437988211034 0.000618656544729057 0.34961092472076416 -1.9903038183795374 1.2200865745544434 -2.1971614996539515 0.6971332430839539 1.0472996234893799 0.003489806316792965 -0.1539541482925415 0.3821050524711609 -0.22398516535758972 -0.0076219672337174416 0.0 0.04383920450626034 -0.16975633666844403 0.6164229837046068 0.1077197347132558 1.4993680854705962 -0.7503254187390355 0.00034936670242128893 -0.00024348802729481998 -0.05002167493772577 0.0020171808670521743 -0.0037133108872327556 -0.0031850131944447524 0.04380585875203359 -0.16977041214017136 0.6164056203797877 0.10787127176260844 1.4992388864108739 -0.7501330310671664 -2.2422016424061935e-06 6.077803237370392e-07 -0.049999999945526764 2.2035288688633547e-05 3.0928211442032014e-06 -5.990169879914689e-06
6316.552 0.34967409640922054 -1.991485600422486 1.2232635267007834 -2.1990155608397863 0.6971019327109726 1.0474306623156948 0.0008525242771694504 -0.1512323776143539 0.37957803439600835 -0.22881954849491964 -0.0017737834202023969 0.0006214335478823528 0.34963491559028625 -1.9915016333209437 1.2231097221374512 -2.1989367643939417 0.697121262550354 1.0473475456237793 0.0023584954906255007 -0.15345560014247894 0.3772154748439789 -0.22412897646427155 -0.006807039957493544 0.0005512743955478072 0.04383492875227651 -0.1697580554926788 0.6160268777850325 0.10776902446477173 1.499319574860514 -0.7502542312520701 0.0011374491611127995 0.00010656545837501796 -0.04956266299368808 0.0008175254477394208 0.00022724868944731574 -0.003465880421689759 0.04380584081441942 -0.1697704072779589 0.6160056203802232 0.10787143200952137 1.4992389806556674 -0.7501329423851731 -2.242201612090081e-06 6.077802427067784e-07 -0.049999999945546186 2.2035288688658592e-05 3.092821144440696e-06 -5.990169879532738e-06
6316.5599999999995 0.34968084581041925 -1.9926936667536541 1.226296850949835 -2.2008446182704997 0.6970878198669599 1.047435644838591 0.0008348454295105912 -0.15078465292436988 0.3787540595353127 -0.2284453910701858 -0.001754448354301951 0.0006241945171700855 0.34963491559028625 -1.9926875273333948 1.226156234741211 -2.2006877104388636 0.6971332430839539 1.04739511013031 0.0015339808305725455 -0.15102040767669678 0.3711514472961426 -0.22817964851856232 0.0 0.008628642186522484 0.04381528475166763 -0.16976358962557325 0.6156282085949535 0.10785133589581429 1.4992229733187836 -0.7501626586545272 0.0019844246472530795 0.0008074897819469819 -0.04907873383073952 0.00400999939147099 0.0029769446298402993 0.0032977830080955037 0.043805822876813776 -0.16977040241573926 0.6156056203806584 0.10787159225643553 1.4992390749004527 -0.7501328537031732 -2.2422016047052394e-06 6.077803967021388e-07 -0.04999999994556503 2.2035288687956137e-05 3.09282114454646e-06 -5.9901698796102995e-06
6316.567999999999 0.34968745424488495 -1.9938981619861194 1.2293236080610879 -2.202670696355419 0.6970738612068302 1.0474406493856532 0.0008172823833394185 -0.15033959706784075 0.37793623761600453 -0.2280747056074502 -0.0017352372204148668 0.0006269396166756209 0.3495989441871643 -1.9938977400409144 1.2291789054870605 -2.2024267355548304 0.6970853209495544 1.04739511013031 0.0011313108261674643 -0.1519024521112442 0.37462687492370605 -0.2263580560684204 0.0 0.0041705104522407055 0.043802409775029555 -0.16976938645050338 0.6152316990985353 0.10795475547328012 1.499172460954866 -0.7501930858321404 0.0013950221100402956 0.0006008749138904576 -0.04950010360771665 0.0016941307340951812 0.0010781347359934473 0.002407560821593648 0.04380580493919815 -0.1697703975534747 0.6152056203810935 0.10787175250335115 1.4992391691452318 -0.750132765021168 -2.2422016399711445e-06 6.077805150062846e-07 -0.049999999945581665 2.2035288688280748e-05 3.092821144487425e-06 -5.990169879774488e-06
6316.576 0.34969392263402777 -1.9950991073304012 1.2323438469637886 -2.2044938227165947 0.69706005574457 1.047445675830569 0.0007998338895991669 -0.1498971751027792 0.37712449527224945 -0.22770745380603163 -0.0017161486596267374 0.0006296690080900236 0.3496468961238861 -1.995155159627096 1.2322492599487305 -2.2042253653155726 0.697037398815155 1.047371506690979 0.0009012137306854129 -0.1504260003566742 0.381577730178833 -0.22767631709575653 -0.006711166352033615 0.0027563718613237143 0.043819100143030976 -0.16976592451748138 0.6148273908101017 0.10794176766580746 1.4991666759559603 -0.7501985788170962 -0.0009722208488544385 -0.0006334037126330362 -0.05056096200313008 0.004000747248701358 -0.004507064609487366 -0.004571907703207518 0.04380578700159399 -0.16977039269123073 0.6148056203815285 0.10787191275026947 1.4992392633900018 -0.7501326763391563 -2.2422016254343087e-06 6.077804085399698e-07 -0.04999999994559893 2.2035288688996646e-05 3.092821142993828e-06 -5.990169879261742e-06
6316.584 0.34970025188929277 -1.9962965237197503 1.235357616005148 -2.2063140246723005 0.6970464025050017 1.0474507240483246 0.0007824987113435385 -0.1494573526504947 0.37631876035574807 -0.22734359801925724 -0.0016971813269908427 0.0006323828527956415 0.34965887665748596 -1.9963410536395472 1.2351884841918945 -2.206012550984518 0.6970973014831543 1.047371506690979 0.0007478156476281583 -0.14649516344070435 0.37815025448799133 -0.22702915966510773 -0.0041705104522407055 0.0020373184233903885 0.0438319008182707 -0.169757239736332 0.6144379749399016 0.10785383328884317 1.4991782606223552 -0.7501601549075186 -0.001843933853140498 -0.0008083547781020415 -0.05027421576701047 0.00337279237470164 -0.005366686467954766 -0.0023130093150434336 0.04380576906398526 -0.1697703878289774 0.6144056203819633 0.10787207299718912 1.4992393576347642 -0.7501325876571384 -2.242201668108858e-06 6.077804050359401e-07 -0.04999999994561507 2.203528868882686e-05 3.0928211434940248e-06 -5.990169879197788e-06
