el-Lennard/Robotik/Modularbeit/Aufgabe4/Simulation_Lenovo.csv
timestamp target_q_0 target_q_1 target_q_2 target_q_3 target_q_4 target_q_5 target_qd_0 target_qd_1 target_qd_2 target_qd_3 target_qd_4 target_qd_5 actual_q_0 actual_q_1 actual_q_2 actual_q_3 actual_q_4 actual_q_5 actual_qd_0 actual_qd_1 actual_qd_2 actual_qd_3 actual_qd_4 actual_qd_5 actual_TCP_pose_0 actual_TCP_pose_1 actual_TCP_pose_2 actual_TCP_pose_3 actual_TCP_pose_4 actual_TCP_pose_5 actual_TCP_speed_0 actual_TCP_speed_1 actual_TCP_speed_2 actual_TCP_speed_3 actual_TCP_speed_4 actual_TCP_speed_5 target_TCP_pose_0 target_TCP_pose_1 target_TCP_pose_2 target_TCP_pose_3 target_TCP_pose_4 target_TCP_pose_5 target_TCP_speed_0 target_TCP_speed_1 target_TCP_speed_2 target_TCP_speed_3 target_TCP_speed_4 target_TCP_speed_5
1599.192 0.3490658503988659 -1.919862177193762 1.0471975511965979 -2.094395102393195 0.6981316804885863 1.0471975803375244 0.0 0.0 0.0 0.0 0.0 0.0 0.3490658402442932 -1.9198620955096644 1.0471975803375244 -2.0943949858294886 0.6981316804885864 1.0471975803375244 0.0 0.0 0.0 0.0 0.0 0.0 0.0441745143973262 -0.17024765714729592 0.6374100137109433 0.10649092153369001 1.499578349427604 -0.7469218243298146 0.0 0.0 0.0 0.0 0.0 0.0 0.04417457062623502 -0.1702476368623024 0.6374100136764694 0.10649077837052924 1.4995785218702289 -0.7469219062806719 0.0 0.0 0.0 0.0 0.0 0.0
1599.1999999999998 0.3490658503988659 -1.919862177193762 1.0471975511965979 -2.094395102393195 0.6981316804885863 1.0471975803375244 0.0 0.0 0.0 0.0 0.0 0.0 0.3490658402442932 -1.9198620955096644 1.0471975803375244 -2.0943949858294886 0.6981316804885864 1.0471975803375244 0.0 0.0 0.0 0.0 0.0 0.0 0.0441745143973262 -0.17024765714729592 0.6374100137109433 0.10649092153369001 1.499578349427604 -0.7469218243298146 0.0 0.0 0.0 0.0 0.0 0.0 0.04417457062623502 -0.1702476368623024 0.6374100136764694 0.10649077837052924 1.4995785218702289 -0.7469219062806719 0.0 0.0 0.0 0.0 0.0 0.0
1599.2079999999999 0.3490658503988659 -1.919862177193762 1.0471975511965979 -2.094395102393195 0.6981316804885863 1.0471975803375244 0.0 0.0 0.0 0.0 0.0 0.0 0.3490658402442932 -1.9198620955096644 1.0471975803375244 -2.0943949858294886 0.6981316804885864 1.0471975803375244 0.0 0.0 0.0 0.0 0.0 0.0 0.0441745143973262 -0.17024765714729592 0.6374100137109433 0.10649092153369001 1.499578349427604 -0.7469218243298146 0.0 0.0 0.0 0.0 0.0 0.0 0.04417457062623502 -0.1702476368623024 0.6374100136764694 0.10649077837052924 1.4995785218702289 -0.7469219062806719 0.0 0.0 0.0 0.0 0.0 0.0
1599.216 0.3490658503988659 -1.919862177193762 1.0471975511965979 -2.094395102393195 0.6981316804885863 1.0471975803375244 0.0 0.0 0.0 0.0 0.0 0.0 0.3490658402442932 -1.9198620955096644 1.0471975803375244 -2.0943949858294886 0.6981316804885864 1.0471975803375244 0.0 0.0 0.0 0.0 0.0 0.0 0.0441745143973262 -0.17024765714729592 0.6374100137109433 0.10649092153369001 1.499578349427604 -0.7469218243298146 0.0 0.0 0.0 0.0 0.0 0.0 0.04417457062623502 -0.1702476368623024 0.6374100136764694 0.10649077837052924 1.4995785218702289 -0.7469219062806719 0.0 0.0 0.0 0.0 0.0 0.0
1599.224 0.3490658503988659 -1.919862177193762 1.0471975511965979 -2.094395102393195 0.6981316804885863 1.0471975803375244 0.0 0.0 0.0 0.0 0.0 0.0 0.3490658402442932 -1.9198620955096644 1.0471975803375244 -2.0943949858294886 0.6981316804885864 1.0471975803375244 0.0 0.0 0.0 0.0 0.0 0.0 0.0441745143973262 -0.17024765714729592 0.6374100137109433 0.10649092153369001 1.499578349427604 -0.7469218243298146 0.0 0.0 0.0 0.0 0.0 0.0 0.04417457062623502 -0.1702476368623024 0.6374100136764694 0.10649077837052924 1.4995785218702289 -0.7469219062806719 0.0 0.0 0.0 0.0 0.0 0.0
1599.232 0.3490658503988659 -1.919862177193762 1.0471975511965979 -2.094395102393195 0.6981316804885863 1.0471975803375244 0.0 0.0 0.0 0.0 0.0 0.0 0.3490658402442932 -1.9198620955096644 1.0471975803375244 -2.0943949858294886 0.6981316804885864 1.0471975803375244 0.0 0.0 0.0 0.0 0.0 0.0 0.0441745143973262 -0.17024765714729592 0.6374100137109433 0.10649092153369001 1.499578349427604 -0.7469218243298146 0.0 0.0 0.0 0.0 0.0 0.0 0.04417457062623502 -0.1702476368623024 0.6374100136764694 0.10649077837052924 1.4995785218702289 -0.7469219062806719 0.0 0.0 0.0 0.0 0.0 0.0
1599.24 0.3490658503988659 -1.919862177193762 1.0471975511965979 -2.094395102393195 0.6981316804885863 1.0471975803375244 0.0 0.0 0.0 0.0 0.0 0.0 0.3490658402442932 -1.9198620955096644 1.0471975803375244 -2.0943949858294886 0.6981316804885864 1.0471975803375244 0.0 0.0 0.0 0.0 0.0 0.0 0.0441745143973262 -0.17024765714729592 0.6374100137109433 0.10649092153369001 1.499578349427604 -0.7469218243298146 0.0 0.0 0.0 0.0 0.0 0.0 0.04417457062623502 -0.1702476368623024 0.6374100136764694 0.10649077837052924 1.4995785218702289 -0.7469219062806719 0.0 0.0 0.0 0.0 0.0 0.0
1599.2479999999998 0.3490658503988659 -1.919862177193762 1.0471975511965979 -2.094395102393195 0.6981316804885863 1.0471975803375244 0.0 0.0 0.0 0.0 0.0 0.0 0.3490658402442932 -1.9198620955096644 1.0471975803375244 -2.0943949858294886 0.6981316804885864 1.0471975803375244 0.0 0.0 0.0 0.0 0.0 0.0 0.0441745143973262 -0.17024765714729592 0.6374100137109433 0.10649092153369001 1.499578349427604 -0.7469218243298146 0.0 0.0 0.0 0.0 0.0 0.0 0.04417457062623502 -0.1702476368623024 0.6374100136764694 0.10649077837052924 1.4995785218702289 -0.7469219062806719 0.0 0.0 0.0 0.0 0.0 0.0
1599.2559999999999 0.3490658503988659 -1.919862177193762 1.0471975511965979 -2.094395102393195 0.6981316804885863 1.0471975803375244 0.0 0.0 0.0 0.0 0.0 0.0 0.3490658402442932 -1.9198620955096644 1.0471975803375244 -2.0943949858294886 0.6981316804885864 1.0471975803375244 0.0 0.0 0.0 0.0 0.0 0.0 0.0441745143973262 -0.17024765714729592 0.6374100137109433 0.10649092153369001 1.499578349427604 -0.7469218243298146 0.0 0.0 0.0 0.0 0.0 0.0 0.04417457062623502 -0.1702476368623024 0.6374100136764694 0.10649077837052924 1.4995785218702289 -0.7469219062806719 0.0 0.0 0.0 0.0 0.0 0.0
1599.264 0.3490658503988659 -1.919862177193762 1.0471975511965979 -2.094395102393195 0.6981316804885863 1.0471975803375244 0.0 0.0 0.0 0.0 0.0 0.0 0.3490658402442932 -1.9198620955096644 1.0471975803375244 -2.0943949858294886 0.6981316804885864 1.0471975803375244 0.0 0.0 0.0 0.0 0.0 0.0 0.0441745143973262 -0.17024765714729592 0.6374100137109433 0.10649092153369001 1.499578349427604 -0.7469218243298146 0.0 0.0 0.0 0.0 0.0 0.0 0.04417457062623502 -0.1702476368623024 0.6374100136764694 0.10649077837052924 1.4995785218702289 -0.7469219062806719 0.0 0.0 0.0 0.0 0.0 0.0
1599.272 0.3490658503988659 -1.919862177193762 1.0471975511965979 -2.094395102393195 0.6981316804885863 1.0471975803375244 0.0 0.0 0.0 0.0 0.0 0.0 0.3490658402442932 -1.9198620955096644 1.0471975803375244 -2.0943949858294886 0.6981316804885864 1.0471975803375244 0.0 0.0 0.0 0.0 0.0 0.0 0.0441745143973262 -0.17024765714729592 0.6374100137109433 0.10649092153369001 1.499578349427604 -0.7469218243298146 0.0 0.0 0.0 0.0 0.0 0.0 0.04417457062623502 -0.1702476368623024 0.6374100136764694 0.10649077837052924 1.4995785218702289 -0.7469219062806719 0.0 0.0 0.0 0.0 0.0 0.0
1599.28 0.3490658503988659 -1.919862177193762 1.0471975511965979 -2.094395102393195 0.6981316804885863 1.0471975803375244 0.0 0.0 0.0 0.0 0.0 0.0 0.3490658402442932 -1.9198620955096644 1.0471975803375244 -2.0943949858294886 0.6981316804885864 1.0471975803375244 0.0 0.0 0.0 0.0 0.0 0.0 0.0441745143973262 -0.17024765714729592 0.6374100137109433 0.10649092153369001 1.499578349427604 -0.7469218243298146 0.0 0.0 0.0 0.0 0.0 0.0 0.04417457062623502 -0.1702476368623024 0.6374100136764694 0.10649077837052924 1.4995785218702289 -0.7469219062806719 0.0 0.0 0.0 0.0 0.0 0.0
1599.288 0.3490658503988659 -1.919862177193762 1.0471975511965979 -2.094395102393195 0.6981316804885863 1.0471975803375244 0.0 0.0 0.0 0.0 0.0 0.0 0.3490658402442932 -1.9198620955096644 1.0471975803375244 -2.0943949858294886 0.6981316804885864 1.0471975803375244 0.0 0.0 0.0 0.0 0.0 0.0 0.0441745143973262 -0.17024765714729592 0.6374100137109433 0.10649092153369001 1.499578349427604 -0.7469218243298146 0.0 0.0 0.0 0.0 0.0 0.0 0.04417457062623502 -0.1702476368623024 0.6374100136764694 0.10649077837052924 1.4995785218702289 -0.7469219062806719 0.0 0.0 0.0 0.0 0.0 0.0
1599.2959999999998 0.3490658503988659 -1.919862177193762 1.0471975511965979 -2.094395102393195 0.6981316804885863 1.0471975803375244 0.0 0.0 0.0 0.0 0.0 0.0 0.3490658402442932 -1.9198620955096644 1.0471975803375244 -2.0943949858294886 0.6981316804885864 1.0471975803375244 0.0 0.0 0.0 0.0 0.0 0.0 0.0441745143973262 -0.17024765714729592 0.6374100137109433 0.10649092153369001 1.499578349427604 -0.7469218243298146 0.0 0.0 0.0 0.0 0.0 0.0 0.04417457062623502 -0.1702476368623024 0.6374100136764694 0.10649077837052924 1.4995785218702289 -0.7469219062806719 0.0 0.0 0.0 0.0 0.0 0.0
1599.3039999999999 0.3490658503988659 -1.919862177193762 1.0471975511965979 -2.094395102393195 0.6981316804885863 1.0471975803375244 0.0 0.0 0.0 0.0 0.0 0.0 0.3490658402442932 -1.9198620955096644 1.0471975803375244 -2.0943949858294886 0.6981316804885864 1.0471975803375244 0.0 0.0 0.0 0.0 0.0 0.0 0.0441745143973262 -0.17024765714729592 0.6374100137109433 0.10649092153369001 1.499578349427604 -0.7469218243298146 0.0 0.0 0.0 0.0 0.0 0.0 0.04417457062623502 -0.1702476368623024 0.6374100136764694 0.10649077837052924 1.4995785218702289 -0.7469219062806719 0.0 0.0 0.0 0.0 0.0 0.0
1599.312 0.3490658503988659 -1.919862177193762 1.0471975511965979 -2.094395102393195 0.6981316804885863 1.0471975803375244 0.0 0.0 0.0 0.0 0.0 0.0 0.3490658402442932 -1.9198620955096644 1.0471975803375244 -2.0943949858294886 0.6981316804885864 1.0471975803375244 0.0 0.0 0.0 0.0 0.0 0.0 0.0441745143973262 -0.17024765714729592 0.6374100137109433 0.10649092153369001 1.499578349427604 -0.7469218243298146 0.0 0.0 0.0 0.0 0.0 0.0 0.04417457062623502 -0.1702476368623024 0.6374100136764694 0.10649077837052924 1.4995785218702289 -0.7469219062806719 0.0 0.0 0.0 0.0 0.0 0.0
1599.32 0.3490658503988659 -1.919862177193762 1.0471975511965979 -2.094395102393195 0.6981316804885863 1.0471975803375244 0.0 0.0 0.0 0.0 0.0 0.0 0.3490658402442932 -1.9198620955096644 1.0471975803375244 -2.0943949858294886 0.6981316804885864 1.0471975803375244 0.0 0.0 0.0 0.0 0.0 0.0 0.0441745143973262 -0.17024765714729592 0.6374100137109433 0.10649092153369001 1.499578349427604 -0.7469218243298146 0.0 0.0 0.0 0.0 0.0 0.0 0.04417457062623502 -0.1702476368623024 0.6374100136764694 0.10649077837052924 1.4995785218702289 -0.7469219062806719 0.0 0.0 0.0 0.0 0.0 0.0
1599.328 0.3490658503988659 -1.919862177193762 1.0471975511965979 -2.094395102393195 0.6981316804885863 1.0471975803375244 0.0 0.0 0.0 0.0 0.0 0.0 0.3490658402442932 -1.9198620955096644 1.0471975803375244 -2.0943949858294886 0.6981316804885864 1.0471975803375244 0.0 0.0 0.0 0.0 0.0 0.0 0.0441745143973262 -0.17024765714729592 0.6374100137109433 0.10649092153369001 1.499578349427604 -0.7469218243298146 0.0 0.0 0.0 0.0 0.0 0.0 0.04417457062623502 -0.1702476368623024 0.6374100136764694 0.10649077837052924 1.4995785218702289 -0.7469219062806719 0.0 0.0 0.0 0.0 0.0 0.0
1599.336 0.3490658503988659 -1.919862177193762 1.0471975511965979 -2.094395102393195 0.6981316804885863 1.0471975803375244 0.0 0.0 0.0 0.0 0.0 0.0 0.3490658402442932 -1.9198620955096644 1.0471975803375244 -2.0943949858294886 0.6981316804885864 1.0471975803375244 0.0 0.0 0.0 0.0 0.0 0.0 0.0441745143973262 -0.17024765714729592 0.6374100137109433 0.10649092153369001 1.499578349427604 -0.7469218243298146 0.0 0.0 0.0 0.0 0.0 0.0 0.04417457062623502 -0.1702476368623024 0.6374100136764694 0.10649077837052924 1.4995785218702289 -0.7469219062806719 0.0 0.0 0.0 0.0 0.0 0.0
1599.3439999999998 0.3490658503988659 -1.919862177193762 1.0471975511965979 -2.094395102393195 0.6981316804885863 1.0471975803375244 0.0 0.0 0.0 0.0 0.0 0.0 0.3490658402442932 -1.9198620955096644 1.0471975803375244 -2.0943949858294886 0.6981316804885864 1.0471975803375244 0.0 0.0 0.0 0.0 0.0 0.0 0.0441745143973262 -0.17024765714729592 0.6374100137109433 0.10649092153369001 1.499578349427604 -0.7469218243298146 0.0 0.0 0.0 0.0 0.0 0.0 0.04417457062623502 -0.1702476368623024 0.6374100136764694 0.10649077837052924 1.4995785218702289 -0.7469219062806719 0.0 0.0 0.0 0.0 0.0 0.0
1599.3519999999999 0.3490658503988659 -1.919862177193762 1.0471975511965979 -2.094395102393195 0.6981316804885863 1.0471975803375244 0.0 0.0 0.0 0.0 0.0 0.0 0.3490658402442932 -1.9198620955096644 1.0471975803375244 -2.0943949858294886 0.6981316804885864 1.0471975803375244 0.0 0.0 0.0 0.0 0.0 0.0 0.0441745143973262 -0.17024765714729592 0.6374100137109433 0.10649092153369001 1.499578349427604 -0.7469218243298146 0.0 0.0 0.0 0.0 0.0 0.0 0.04417457062623502 -0.1702476368623024 0.6374100136764694 0.10649077837052924 1.4995785218702289 -0.7469219062806719 0.0 0.0 0.0 0.0 0.0 0.0
1599.36 0.3490658503988659 -1.919862177193762 1.0471975511965979 -2.094395102393195 0.6981316804885863 1.0471975803375244 0.0 0.0 0.0 0.0 0.0 0.0 0.3490658402442932 -1.9198620955096644 1.0471975803375244 -2.0943949858294886 0.6981316804885864 1.0471975803375244 0.0 0.0 0.0 0.0 0.0 0.0 0.0441745143973262 -0.17024765714729592 0.6374100137109433 0.10649092153369001 1.499578349427604 -0.7469218243298146 0.0 0.0 0.0 0.0 0.0 0.0 0.04417457062623502 -0.1702476368623024 0.6374100136764694 0.10649077837052924 1.4995785218702289 -0.7469219062806719 0.0 0.0 0.0 0.0 0.0 0.0
1599.368 0.3490658503988659 -1.919862177193762 1.0471975511965979 -2.094395102393195 0.6981316804885863 1.0471975803375244 0.0 0.0 0.0 0.0 0.0 0.0 0.3490658402442932 -1.9198620955096644 1.0471975803375244 -2.0943949858294886 0.6981316804885864 1.0471975803375244 0.0 0.0 0.0 0.0 0.0 0.0 0.0441745143973262 -0.17024765714729592 0.6374100137109433 0.10649092153369001 1.499578349427604 -0.7469218243298146 0.0 0.0 0.0 0.0 0.0 0.0 0.04417457062623502 -0.1702476368623024 0.6374100136764694 0.10649077837052924 1.4995785218702289 -0.7469219062806719 0.0 0.0 0.0 0.0 0.0 0.0
1599.376 0.3490658503988659 -1.919862177193762 1.0471975511965979 -2.094395102393195 0.6981316804885863 1.0471975803375244 0.0 0.0 0.0 0.0 0.0 0.0 0.3490658402442932 -1.9198620955096644 1.0471975803375244 -2.0943949858294886 0.6981316804885864 1.0471975803375244 0.0 0.0 0.0 0.0 0.0 0.0 0.0441745143973262 -0.17024765714729592 0.6374100137109433 0.10649092153369001 1.499578349427604 -0.7469218243298146 0.0 0.0 0.0 0.0 0.0 0.0 0.04417457062623502 -0.1702476368623024 0.6374100136764694 0.10649077837052924 1.4995785218702289 -0.7469219062806719 0.0 0.0 0.0 0.0 0.0 0.0
1599.384 0.3490658503988659 -1.919862177193762 1.0471975511965979 -2.094395102393195 0.6981316804885863 1.0471975803375244 0.0 0.0 0.0 0.0 0.0 0.0 0.3490658402442932 -1.9198620955096644 1.0471975803375244 -2.0943949858294886 0.6981316804885864 1.0471975803375244 0.0 0.0 0.0 0.0 0.0 0.0 0.0441745143973262 -0.17024765714729592 0.6374100137109433 0.10649092153369001 1.499578349427604 -0.7469218243298146 0.0 0.0 0.0 0.0 0.0 0.0 0.04417457062623502 -0.1702476368623024 0.6374100136764694 0.10649077837052924 1.4995785218702289 -0.7469219062806719 0.0 0.0 0.0 0.0 0.0 0.0
1599.3919999999998 0.3490658503988659 -1.919862177193762 1.0471975511965979 -2.094395102393195 0.6981316804885863 1.0471975803375244 0.0 0.0 0.0 0.0 0.0 0.0 0.3490658402442932 -1.9198620955096644 1.0471975803375244 -2.0943949858294886 0.6981316804885864 1.0471975803375244 0.0 0.0 0.0 0.0 0.0 0.0 0.0441745143973262 -0.17024765714729592 0.6374100137109433 0.10649092153369001 1.499578349427604 -0.7469218243298146 0.0 0.0 0.0 0.0 0.0 0.0 0.04417457062623502 -0.1702476368623024 0.6374100136764694 0.10649077837052924 1.4995785218702289 -0.7469219062806719 0.0 0.0 0.0 0.0 0.0 0.0
1599.3999999999999 0.3490658503988659 -1.919862177193762 1.0471975511965979 -2.094395102393195 0.6981316804885863 1.0471975803375244 0.0 0.0 0.0 0.0 0.0 0.0 0.3490658402442932 -1.9198620955096644 1.0471975803375244 -2.0943949858294886 0.6981316804885864 1.0471975803375244 0.0 0.0 0.0 0.0 0.0 0.0 0.0441745143973262 -0.17024765714729592 0.6374100137109433 0.10649092153369001 1.499578349427604 -0.7469218243298146 0.0 0.0 0.0 0.0 0.0 0.0 0.04417457062623502 -0.1702476368623024 0.6374100136764694 0.10649077837052924 1.4995785218702289 -0.7469219062806719 0.0 0.0 0.0 0.0 0.0 0.0
1599.408 0.3490658503988659 -1.919862177193762 1.0471975511965979 -2.094395102393195 0.6981316804885863 1.0471975803375244 0.0 0.0 0.0 0.0 0.0 0.0 0.3490658402442932 -1.9198620955096644 1.0471975803375244 -2.0943949858294886 0.6981316804885864 1.0471975803375244 0.0 0.0 0.0 0.0 0.0 0.0 0.0441745143973262 -0.17024765714729592 0.6374100137109433 0.10649092153369001 1.499578349427604 -0.7469218243298146 0.0 0.0 0.0 0.0 0.0 0.0 0.04417457062623502 -0.1702476368623024 0.6374100136764694 0.10649077837052924 1.4995785218702289 -0.7469219062806719 0.0 0.0 0.0 0.0 0.0 0.0
1599.416 0.3490658503988659 -1.919862177193762 1.0471975511965979 -2.094395102393195 0.6981316804885863 1.0471975803375244 0.0 0.0 0.0 0.0 0.0 0.0 0.3490658402442932 -1.9198620955096644 1.0471975803375244 -2.0943949858294886 0.6981316804885864 1.0471975803375244 0.0 0.0 0.0 0.0 0.0 0.0 0.0441745143973262 -0.17024765714729592 0.6374100137109433 0.10649092153369001 1.499578349427604 -0.7469218243298146 0.0 0.0 0.0 0.0 0.0 0.0 0.04417457062623502 -0.1702476368623024 0.6374100136764694 0.10649077837052924 1.4995785218702289 -0.7469219062806719 0.0 0.0 0.0 0.0 0.0 0.0
1599.424 0.3490658503988659 -1.919862177193762 1.0471975511965979 -2.094395102393195 0.6981316804885863 1.0471975803375244 0.0 0.0 0.0 0.0 0.0 0.0 0.3490658402442932 -1.9198620955096644 1.0471975803375244 -2.0943949858294886 0.6981316804885864 1.0471975803375244 0.0 0.0 0.0 0.0 0.0 0.0 0.0441745143973262 -0.17024765714729592 0.6374100137109433 0.10649092153369001 1.499578349427604 -0.7469218243298146 0.0 0.0 0.0 0.0 0.0 0.0 0.04417457062623502 -0.1702476368623024 0.6374100136764694 0.10649077837052924 1.4995785218702289 -0.7469219062806719 0.0 0.0 0.0 0.0 0.0 0.0
1599.432 0.3490658503988659 -1.919862177193762 1.0471975511965979 -2.094395102393195 0.6981316804885863 1.0471975803375244 0.0 0.0 0.0 0.0 0.0 0.0 0.3490658402442932 -1.9198620955096644 1.0471975803375244 -2.0943949858294886 0.6981316804885864 1.0471975803375244 0.0 0.0 0.0 0.0 0.0 0.0 0.0441745143973262 -0.17024765714729592 0.6374100137109433 0.10649092153369001 1.499578349427604 -0.7469218243298146 0.0 0.0 0.0 0.0 0.0 0.0 0.04417457062623502 -0.1702476368623024 0.6374100136764694 0.10649077837052924 1.4995785218702289 -0.7469219062806719 0.0 0.0 0.0 0.0 0.0 0.0
1599.4399999999998 0.3490658503988659 -1.919862177193762 1.0471975511965979 -2.094395102393195 0.6981316804885863 1.0471975803375244 0.0 0.0 0.0 0.0 0.0 0.0 0.3490658402442932 -1.9198620955096644 1.0471975803375244 -2.0943949858294886 0.6981316804885864 1.0471975803375244 0.0 0.0 0.0 0.0 0.0 0.0 0.0441745143973262 -0.17024765714729592 0.6374100137109433 0.10649092153369001 1.499578349427604 -0.7469218243298146 0.0 0.0 0.0 0.0 0.0 0.0 0.04417457062623502 -0.1702476368623024 0.6374100136764694 0.10649077837052924 1.4995785218702289 -0.7469219062806719 0.0 0.0 0.0 0.0 0.0 0.0
1599.4479999999999 0.3490658503988659 -1.919862177193762 1.0471975511965979 -2.094395102393195 0.6981316804885863 1.0471975803375244 0.0 0.0 0.0 0.0 0.0 0.0 0.3490658402442932 -1.9198620955096644 1.0471975803375244 -2.0943949858294886 0.6981316804885864 1.0471975803375244 0.0 0.0 0.0 0.0 0.0 0.0 0.0441745143973262 -0.17024765714729592 0.6374100137109433 0.10649092153369001 1.499578349427604 -0.7469218243298146 0.0 0.0 0.0 0.0 0.0 0.0 0.04417457062623502 -0.1702476368623024 0.6374100136764694 0.10649077837052924 1.4995785218702289 -0.7469219062806719 0.0 0.0 0.0 0.0 0.0 0.0
1599.456 0.3490658503988659 -1.919862177193762 1.0471975511965979 -2.094395102393195 0.6981316804885863 1.0471975803375244 0.0 0.0 0.0 0.0 0.0 0.0 0.3490658402442932 -1.9198620955096644 1.0471975803375244 -2.0943949858294886 0.6981316804885864 1.0471975803375244 0.0 0.0 0.0 0.0 0.0 0.0 0.0441745143973262 -0.17024765714729592 0.6374100137109433 0.10649092153369001 1.499578349427604 -0.7469218243298146 0.0 0.0 0.0 0.0 0.0 0.0 0.04417457062623502 -0.1702476368623024 0.6374100136764694 0.10649077837052924 1.4995785218702289 -0.7469219062806719 0.0 0.0 0.0 0.0 0.0 0.0
1599.464 0.3490658503988659 -1.919862177193762 1.0471975511965979 -2.094395102393195 0.6981316804885863 1.0471975803375244 0.0 0.0 0.0 0.0 0.0 0.0 0.3490658402442932 -1.9198620955096644 1.0471975803375244 -2.0943949858294886 0.6981316804885864 1.0471975803375244 0.0 0.0 0.0 0.0 0.0 0.0 0.0441745143973262 -0.17024765714729592 0.6374100137109433 0.10649092153369001 1.499578349427604 -0.7469218243298146 0.0 0.0 0.0 0.0 0.0 0.0 0.04417457062623502 -0.1702476368623024 0.6374100136764694 0.10649077837052924 1.4995785218702289 -0.7469219062806719 0.0 0.0 0.0 0.0 0.0 0.0
1599.472 0.3490658503988659 -1.919862177193762 1.0471975511965979 -2.094395102393195 0.6981316804885863 1.0471975803375244 0.0 0.0 0.0 0.0 0.0 0.0 0.3490658402442932 -1.9198620955096644 1.0471975803375244 -2.0943949858294886 0.6981316804885864 1.0471975803375244 0.0 0.0 0.0 0.0 0.0 0.0 0.0441745143973262 -0.17024765714729592 0.6374100137109433 0.10649092153369001 1.499578349427604 -0.7469218243298146 0.0 0.0 0.0 0.0 0.0 0.0 0.04417457062623502 -0.1702476368623024 0.6374100136764694 0.10649077837052924 1.4995785218702289 -0.7469219062806719 0.0 0.0 0.0 0.0 0.0 0.0
1599.48 0.3490658503988659 -1.919862177193762 1.0471975511965979 -2.094395102393195 0.6981316804885863 1.0471975803375244 0.0 0.0 0.0 0.0 0.0 0.0 0.3490658402442932 -1.9198620955096644 1.0471975803375244 -2.0943949858294886 0.6981316804885864 1.0471975803375244 0.0 0.0 0.0 0.0 0.0 0.0 0.0441745143973262 -0.17024765714729592 0.6374100137109433 0.10649092153369001 1.499578349427604 -0.7469218243298146 0.0 0.0 0.0 0.0 0.0 0.0 0.04417457062623502 -0.1702476368623024 0.6374100136764694 0.10649077837052924 1.4995785218702289 -0.7469219062806719 0.0 0.0 0.0 0.0 0.0 0.0
1599.4879999999998 0.3490658503988659 -1.919862177193762 1.0471975511965979 -2.094395102393195 0.6981316804885863 1.0471975803375244 0.0 0.0 0.0 0.0 0.0 0.0 0.3490658402442932 -1.9198620955096644 1.0471975803375244 -2.0943949858294886 0.6981316804885864 1.0471975803375244 0.0 0.0 0.0 0.0 0.0 0.0 0.0441745143973262 -0.17024765714729592 0.6374100137109433 0.10649092153369001 1.499578349427604 -0.7469218243298146 0.0 0.0 0.0 0.0 0.0 0.0 0.04417457062623502 -0.1702476368623024 0.6374100136764694 0.10649077837052924 1.4995785218702289 -0.7469219062806719 0.0 0.0 0.0 0.0 0.0 0.0
1599.4959999999999 0.3490658503988659 -1.919862177193762 1.0471975511965979 -2.094395102393195 0.6981316804885863 1.0471975803375244 0.0 0.0 0.0 0.0 0.0 0.0 0.3490658402442932 -1.9198620955096644 1.0471975803375244 -2.0943949858294886 0.6981316804885864 1.0471975803375244 0.0 0.0 0.0 0.0 0.0 0.0 0.0441745143973262 -0.17024765714729592 0.6374100137109433 0.10649092153369001 1.499578349427604 -0.7469218243298146 0.0 0.0 0.0 0.0 0.0 0.0 0.04417457062623502 -0.1702476368623024 0.6374100136764694 0.10649077837052924 1.4995785218702289 -0.7469219062806719 0.0 0.0 0.0 0.0 0.0 0.0
1599.504 0.3490658503988659 -1.919862177193762 1.0471975511965979 -2.094395102393195 0.6981316804885863 1.0471975803375244 0.0 0.0 0.0 0.0 0.0 0.0 0.3490658402442932 -1.9198620955096644 1.0471975803375244 -2.0943949858294886 0.6981316804885864 1.0471975803375244 0.0 0.0 0.0 0.0 0.0 0.0 0.0441745143973262 -0.17024765714729592 0.6374100137109433 0.10649092153369001 1.499578349427604 -0.7469218243298146 0.0 0.0 0.0 0.0 0.0 0.0 0.04417457062623502 -0.1702476368623024 0.6374100136764694 0.10649077837052924 1.4995785218702289 -0.7469219062806719 0.0 0.0 0.0 0.0 0.0 0.0
1599.512 0.3490658503988659 -1.919862177193762 1.0471975511965979 -2.094395102393195 0.6981316804885863 1.0471975803375244 0.0 0.0 0.0 0.0 0.0 0.0 0.3490658402442932 -1.9198620955096644 1.0471975803375244 -2.0943949858294886 0.6981316804885864 1.0471975803375244 0.0 0.0 0.0 0.0 0.0 0.0 0.0441745143973262 -0.17024765714729592 0.6374100137109433 0.10649092153369001 1.499578349427604 -0.7469218243298146 0.0 0.0 0.0 0.0 0.0 0.0 0.04417457062623502 -0.1702476368623024 0.6374100136764694 0.10649077837052924 1.4995785218702289 -0.7469219062806719 0.0 0.0 0.0 0.0 0.0 0.0
1599.52 0.3490658503988659 -1.919862177193762 1.0471975511965979 -2.094395102393195 0.6981316804885863 1.0471975803375244 0.0 0.0 0.0 0.0 0.0 0.0 0.3490658402442932 -1.9198620955096644 1.0471975803375244 -2.0943949858294886 0.6981316804885864 1.0471975803375244 0.0 0.0 0.0 0.0 0.0 0.0 0.0441745143973262 -0.17024765714729592 0.6374100137109433 0.10649092153369001 1.499578349427604 -0.7469218243298146 0.0 0.0 0.0 0.0 0.0 0.0 0.04417457062623502 -0.1702476368623024 0.6374100136764694 0.10649077837052924 1.4995785218702289 -0.7469219062806719 0.0 0.0 0.0 0.0 0.0 0.0
1599.528 0.3490658503988659 -1.919862177193762 1.0471975511965979 -2.094395102393195 0.6981316804885863 1.0471975803375244 0.0 0.0 0.0 0.0 0.0 0.0 0.3490658402442932 -1.9198620955096644 1.0471975803375244 -2.0943949858294886 0.6981316804885864 1.0471975803375244 0.0 0.0 0.0 0.0 0.0 0.0 0.0441745143973262 -0.17024765714729592 0.6374100137109433 0.10649092153369001 1.499578349427604 -0.7469218243298146 0.0 0.0 0.0 0.0 0.0 0.0 0.04417457062623502 -0.1702476368623024 0.6374100136764694 0.10649077837052924 1.4995785218702289 -0.7469219062806719 0.0 0.0 0.0 0.0 0.0 0.0
1599.5359999999998 0.3490658503988659 -1.919862177193762 1.0471975511965979 -2.094395102393195 0.6981316804885863 1.0471975803375244 0.0 0.0 0.0 0.0 0.0 0.0 0.3490658402442932 -1.9198620955096644 1.0471975803375244 -2.0943949858294886 0.6981316804885864 1.0471975803375244 0.0 0.0 0.0 0.0 0.0 0.0 0.0441745143973262 -0.17024765714729592 0.6374100137109433 0.10649092153369001 1.499578349427604 -0.7469218243298146 0.0 0.0 0.0 0.0 0.0 0.0 0.04417457062623502 -0.1702476368623024 0.6374100136764694 0.10649077837052924 1.4995785218702289 -0.7469219062806719 0.0 0.0 0.0 0.0 0.0 0.0
1599.5439999999999 0.3490658503988659 -1.919862177193762 1.0471975511965979 -2.094395102393195 0.6981316804885863 1.0471975803375244 0.0 0.0 0.0 0.0 0.0 0.0 0.3490658402442932 -1.9198620955096644 1.0471975803375244 -2.0943949858294886 0.6981316804885864 1.0471975803375244 0.0 0.0 0.0 0.0 0.0 0.0 0.0441745143973262 -0.17024765714729592 0.6374100137109433 0.10649092153369001 1.499578349427604 -0.7469218243298146 0.0 0.0 0.0 0.0 0.0 0.0 0.04417457062623502 -0.1702476368623024 0.6374100136764694 0.10649077837052924 1.4995785218702289 -0.7469219062806719 0.0 0.0 0.0 0.0 0.0 0.0
1599.552 0.3490658503988659 -1.919862177193762 1.0471975511965979 -2.094395102393195 0.6981316804885863 1.0471975803375244 0.0 0.0 0.0 0.0 0.0 0.0 0.3490658402442932 -1.9198620955096644 1.0471975803375244 -2.0943949858294886 0.6981316804885864 1.0471975803375244 0.0 0.0 0.0 0.0 0.0 0.0 0.0441745143973262 -0.17024765714729592 0.6374100137109433 0.10649092153369001 1.499578349427604 -0.7469218243298146 0.0 0.0 0.0 0.0 0.0 0.0 0.04417457062623502 -0.1702476368623024 0.6374100136764694 0.10649077837052924 1.4995785218702289 -0.7469219062806719 0.0 0.0 0.0 0.0 0.0 0.0
1599.56 0.3490658503988659 -1.919862177193762 1.0471975511965979 -2.094395102393195 0.6981316804885863 1.0471975803375244 0.0 0.0 0.0 0.0 0.0 0.0 0.3490658402442932 -1.9198620955096644 1.0471975803375244 -2.0943949858294886 0.6981316804885864 1.0471975803375244 0.0 0.0 0.0 0.0 0.0 0.0 0.0441745143973262 -0.17024765714729592 0.6374100137109433 0.10649092153369001 1.499578349427604 -0.7469218243298146 0.0 0.0 0.0 0.0 0.0 0.0 0.04417457062623502 -0.1702476368623024 0.6374100136764694 0.10649077837052924 1.4995785218702289 -0.7469219062806719 0.0 0.0 0.0 0.0 0.0 0.0
1599.568 0.3490658503988659 -1.919862177193762 1.0471975511965979 -2.094395102393195 0.6981316804885863 1.0471975803375244 0.0 0.0 0.0 0.0 0.0 0.0 0.3490658402442932 -1.9198620955096644 1.0471975803375244 -2.0943949858294886 0.6981316804885864 1.0471975803375244 0.0 0.0 0.0 0.0 0.0 0.0 0.0441745143973262 -0.17024765714729592 0.6374100137109433 0.10649092153369001 1.499578349427604 -0.7469218243298146 0.0 0.0 0.0 0.0 0.0 0.0 0.04417457062623502 -0.1702476368623024 0.6374100136764694 0.10649077837052924 1.4995785218702289 -0.7469219062806719 0.0 0.0 0.0 0.0 0.0 0.0
1599.576 0.3490658503988659 -1.919862177193762 1.0471975511965979 -2.094395102393195 0.6981316804885863 1.0471975803375244 0.0 0.0 0.0 0.0 0.0 0.0 0.3490658402442932 -1.9198620955096644 1.0471975803375244 -2.0943949858294886 0.6981316804885864 1.0471975803375244 0.0 0.0 0.0 0.0 0.0 0.0 0.0441745143973262 -0.17024765714729592 0.6374100137109433 0.10649092153369001 1.499578349427604 -0.7469218243298146 0.0 0.0 0.0 0.0 0.0 0.0 0.04417457062623502 -0.1702476368623024 0.6374100136764694 0.10649077837052924 1.4995785218702289 -0.7469219062806719 0.0 0.0 0.0 0.0 0.0 0.0
1599.5839999999998 0.3490658503988659 -1.919862177193762 1.0471975511965979 -2.094395102393195 0.6981316804885863 1.0471975803375244 0.0 0.0 0.0 0.0 0.0 0.0 0.3490658402442932 -1.9198620955096644 1.0471975803375244 -2.0943949858294886 0.6981316804885864 1.0471975803375244 0.0 0.0 0.0 0.0 0.0 0.0 0.0441745143973262 -0.17024765714729592 0.6374100137109433 0.10649092153369001 1.499578349427604 -0.7469218243298146 0.0 0.0 0.0 0.0 0.0 0.0 0.04417457062623502 -0.1702476368623024 0.6374100136764694 0.10649077837052924 1.4995785218702289 -0.7469219062806719 0.0 0.0 0.0 0.0 0.0 0.0
1599.5919999999999 0.3490658503988659 -1.919862177193762 1.0471975511965979 -2.094395102393195 0.6981316804885863 1.0471975803375244 0.0 0.0 0.0 0.0 0.0 0.0 0.3490658402442932 -1.9198620955096644 1.0471975803375244 -2.0943949858294886 0.6981316804885864 1.0471975803375244 0.0 0.0 0.0 0.0 0.0 0.0 0.0441745143973262 -0.17024765714729592 0.6374100137109433 0.10649092153369001 1.499578349427604 -0.7469218243298146 0.0 0.0 0.0 0.0 0.0 0.0 0.04417457062623502 -0.1702476368623024 0.6374100136764694 0.10649077837052924 1.4995785218702289 -0.7469219062806719 0.0 0.0 0.0 0.0 0.0 0.0
1599.6 0.3490658503988659 -1.919862177193762 1.0471975511965979 -2.094395102393195 0.6981316804885863 1.0471975803375244 0.0 0.0 0.0 0.0 0.0 0.0 0.3490658402442932 -1.9198620955096644 1.0471975803375244 -2.0943949858294886 0.6981316804885864 1.0471975803375244 0.0 0.0 0.0 0.0 0.0 0.0 0.0441745143973262 -0.17024765714729592 0.6374100137109433 0.10649092153369001 1.499578349427604 -0.7469218243298146 0.0 0.0 0.0 0.0 0.0 0.0 0.04417457062623502 -0.1702476368623024 0.6374100136764694 0.10649077837052924 1.4995785218702289 -0.7469219062806719 0.0 0.0 0.0 0.0 0.0 0.0
1599.608 0.3490658503988659 -1.919862177193762 1.0471975511965979 -2.094395102393195 0.6981316804885863 1.0471975803375244 0.0 0.0 0.0 0.0 0.0 0.0 0.3490658402442932 -1.9198620955096644 1.0471975803375244 -2.0943949858294886 0.6981316804885864 1.0471975803375244 0.0 0.0 0.0 0.0 0.0 0.0 0.0441745143973262 -0.17024765714729592 0.6374100137109433 0.10649092153369001 1.499578349427604 -0.7469218243298146 0.0 0.0 0.0 0.0 0.0 0.0 0.04417457062623502 -0.1702476368623024 0.6374100136764694 0.10649077837052924 1.4995785218702289 -0.7469219062806719 0.0 0.0 0.0 0.0 0.0 0.0
1599.616 0.3490658503988659 -1.919862177193762 1.0471975511965979 -2.094395102393195 0.6981316804885863 1.0471975803375244 0.0 0.0 0.0 0.0 0.0 0.0 0.3490658402442932 -1.9198620955096644 1.0471975803375244 -2.0943949858294886 0.6981316804885864 1.0471975803375244 0.0 0.0 0.0 0.0 0.0 0.0 0.0441745143973262 -0.17024765714729592 0.6374100137109433 0.10649092153369001 1.499578349427604 -0.7469218243298146 0.0 0.0 0.0 0.0 0.0 0.0 0.04417457062623502 -0.1702476368623024 0.6374100136764694 0.10649077837052924 1.4995785218702289 -0.7469219062806719 0.0 0.0 0.0 0.0 0.0 0.0
1599.624 0.3490658503988659 -1.919862177193762 1.0471975511965979 -2.094395102393195 0.6981316804885863 1.0471975803375244 0.0 0.0 0.0 0.0 0.0 0.0 0.3490658402442932 -1.9198620955096644 1.0471975803375244 -2.0943949858294886 0.6981316804885864 1.0471975803375244 0.0 0.0 0.0 0.0 0.0 0.0 0.0441745143973262 -0.17024765714729592 0.6374100137109433 0.10649092153369001 1.499578349427604 -0.7469218243298146 0.0 0.0 0.0 0.0 0.0 0.0 0.04417457062623502 -0.1702476368623024 0.6374100136764694 0.10649077837052924 1.4995785218702289 -0.7469219062806719 0.0 0.0 0.0 0.0 0.0 0.0
1599.6319999999998 0.3490658503988659 -1.919862177193762 1.0471975511965979 -2.094395102393195 0.6981316804885863 1.0471975803375244 0.0 0.0 0.0 0.0 0.0 0.0 0.3490658402442932 -1.9198620955096644 1.0471975803375244 -2.0943949858294886 0.6981316804885864 1.0471975803375244 0.0 0.0 0.0 0.0 0.0 0.0 0.0441745143973262 -0.17024765714729592 0.6374100137109433 0.10649092153369001 1.499578349427604 -0.7469218243298146 0.0 0.0 0.0 0.0 0.0 0.0 0.04417457062623502 -0.1702476368623024 0.6374100136764694 0.10649077837052924 1.4995785218702289 -0.7469219062806719 0.0 0.0 0.0 0.0 0.0 0.0
1599.6399999999999 0.3490658503988659 -1.919862177193762 1.0471975511965979 -2.094395102393195 0.6981316804885863 1.0471975803375244 0.0 0.0 0.0 0.0 0.0 0.0 0.3490658402442932 -1.9198620955096644 1.0471975803375244 -2.0943949858294886 0.6981316804885864 1.0471975803375244 0.0 0.0 0.0 0.0 0.0 0.0 0.0441745143973262 -0.17024765714729592 0.6374100137109433 0.10649092153369001 1.499578349427604 -0.7469218243298146 0.0 0.0 0.0 0.0 0.0 0.0 0.04417457062623502 -0.1702476368623024 0.6374100136764694 0.10649077837052924 1.4995785218702289 -0.7469219062806719 0.0 0.0 0.0 0.0 0.0 0.0
1599.648 0.3490658503988659 -1.919862177193762 1.0471975511965979 -2.094395102393195 0.6981316804885863 1.0471975803375244 0.0 0.0 0.0 0.0 0.0 0.0 0.3490658402442932 -1.9198620955096644 1.0471975803375244 -2.0943949858294886 0.6981316804885864 1.0471975803375244 0.0 0.0 0.0 0.0 0.0 0.0 0.0441745143973262 -0.17024765714729592 0.6374100137109433 0.10649092153369001 1.499578349427604 -0.7469218243298146 0.0 0.0 0.0 0.0 0.0 0.0 0.04417457062623502 -0.1702476368623024 0.6374100136764694 0.10649077837052924 1.4995785218702289 -0.7469219062806719 0.0 0.0 0.0 0.0 0.0 0.0
1599.656 0.3490658503988659 -1.919862177193762 1.0471975511965979 -2.094395102393195 0.6981316804885863 1.0471975803375244 0.0 0.0 0.0 0.0 0.0 0.0 0.3490658402442932 -1.9198620955096644 1.0471975803375244 -2.0943949858294886 0.6981316804885864 1.0471975803375244 0.0 0.0 0.0 0.0 0.0 0.0 0.0441745143973262 -0.17024765714729592 0.6374100137109433 0.10649092153369001 1.499578349427604 -0.7469218243298146 0.0 0.0 0.0 0.0 0.0 0.0 0.04417457062623502 -0.1702476368623024 0.6374100136764694 0.10649077837052924 1.4995785218702289 -0.7469219062806719 0.0 0.0 0.0 0.0 0.0 0.0
1599.664 0.3490658503988659 -1.919862177193762 1.0471975511965979 -2.094395102393195 0.6981316804885863 1.0471975803375244 0.0 0.0 0.0 0.0 0.0 0.0 0.3490658402442932 -1.9198620955096644 1.0471975803375244 -2.0943949858294886 0.6981316804885864 1.0471975803375244 0.0 0.0 0.0 0.0 0.0 0.0 0.0441745143973262 -0.17024765714729592 0.6374100137109433 0.10649092153369001 1.499578349427604 -0.7469218243298146 0.0 0.0 0.0 0.0 0.0 0.0 0.04417457062623502 -0.1702476368623024 0.6374100136764694 0.10649077837052924 1.4995785218702289 -0.7469219062806719 0.0 0.0 0.0 0.0 0.0 0.0
1599.672 0.3490658503988659 -1.919862177193762 1.0471975511965979 -2.094395102393195 0.6981316804885863 1.0471975803375244 0.0 0.0 0.0 0.0 0.0 0.0 0.3490658402442932 -1.9198620955096644 1.0471975803375244 -2.0943949858294886 0.6981316804885864 1.0471975803375244 0.0 0.0 0.0 0.0 0.0 0.0 0.0441745143973262 -0.17024765714729592 0.6374100137109433 0.10649092153369001 1.499578349427604 -0.7469218243298146 0.0 0.0 0.0 0.0 0.0 0.0 0.04417457062623502 -0.1702476368623024 0.6374100136764694 0.10649077837052924 1.4995785218702289 -0.7469219062806719 0.0 0.0 0.0 0.0 0.0 0.0
1599.6799999999998 0.3490658503988659 -1.919862177193762 1.0471975511965979 -2.094395102393195 0.6981316804885863 1.0471975803375244 0.0 0.0 0.0 0.0 0.0 0.0 0.3490658402442932 -1.9198620955096644 1.0471975803375244 -2.0943949858294886 0.6981316804885864 1.0471975803375244 0.0 0.0 0.0 0.0 0.0 0.0 0.0441745143973262 -0.17024765714729592 0.6374100137109433 0.10649092153369001 1.499578349427604 -0.7469218243298146 0.0 0.0 0.0 0.0 0.0 0.0 0.04417457062623502 -0.1702476368623024 0.6374100136764694 0.10649077837052924 1.4995785218702289 -0.7469219062806719 0.0 0.0 0.0 0.0 0.0 0.0
1599.6879999999999 0.3490658503988659 -1.919862177193762 1.0471975511965979 -2.094395102393195 0.6981316804885863 1.0471975803375244 0.0 0.0 0.0 0.0 0.0 0.0 0.3490658402442932 -1.9198620955096644 1.0471975803375244 -2.0943949858294886 0.6981316804885864 1.0471975803375244 0.0 0.0 0.0 0.0 0.0 0.0 0.0441745143973262 -0.17024765714729592 0.6374100137109433 0.10649092153369001 1.499578349427604 -0.7469218243298146 0.0 0.0 0.0 0.0 0.0 0.0 0.04417457062623502 -0.1702476368623024 0.6374100136764694 0.10649077837052924 1.4995785218702289 -0.7469219062806719 0.0 0.0 0.0 0.0 0.0 0.0
1599.696 0.3490658503988659 -1.919862177193762 1.0471975511965979 -2.094395102393195 0.6981316804885863 1.0471975803375244 0.0 0.0 0.0 0.0 0.0 0.0 0.3490658402442932 -1.9198620955096644 1.0471975803375244 -2.0943949858294886 0.6981316804885864 1.0471975803375244 0.0 0.0 0.0 0.0 0.0 0.0 0.0441745143973262 -0.17024765714729592 0.6374100137109433 0.10649092153369001 1.499578349427604 -0.7469218243298146 0.0 0.0 0.0 0.0 0.0 0.0 0.04417457062623502 -0.1702476368623024 0.6374100136764694 0.10649077837052924 1.4995785218702289 -0.7469219062806719 0.0 0.0 0.0 0.0 0.0 0.0
1599.704 0.3490658503988659 -1.919862177193762 1.0471975511965979 -2.094395102393195 0.6981316804885863 1.0471975803375244 0.0 0.0 0.0 0.0 0.0 0.0 0.3490658402442932 -1.9198620955096644 1.0471975803375244 -2.0943949858294886 0.6981316804885864 1.0471975803375244 0.0 0.0 0.0 0.0 0.0 0.0 0.0441745143973262 -0.17024765714729592 0.6374100137109433 0.10649092153369001 1.499578349427604 -0.7469218243298146 0.0 0.0 0.0 0.0 0.0 0.0 0.04417457062623502 -0.1702476368623024 0.6374100136764694 0.10649077837052924 1.4995785218702289 -0.7469219062806719 0.0 0.0 0.0 0.0 0.0 0.0
1599.712 0.3490658503988659 -1.919862177193762 1.0471975511965979 -2.094395102393195 0.6981316804885863 1.0471975803375244 0.0 0.0 0.0 0.0 0.0 0.0 0.3490658402442932 -1.9198620955096644 1.0471975803375244 -2.0943949858294886 0.6981316804885864 1.0471975803375244 0.0 0.0 0.0 0.0 0.0 0.0 0.0441745143973262 -0.17024765714729592 0.6374100137109433 0.10649092153369001 1.499578349427604 -0.7469218243298146 0.0 0.0 0.0 0.0 0.0 0.0 0.04417457062623502 -0.1702476368623024 0.6374100136764694 0.10649077837052924 1.4995785218702289 -0.7469219062806719 0.0 0.0 0.0 0.0 0.0 0.0
1599.72 0.3490658503988659 -1.919862177193762 1.0471975511965979 -2.094395102393195 0.6981316804885863 1.0471975803375244 0.0 0.0 0.0 0.0 0.0 0.0 0.3490658402442932 -1.9198620955096644 1.0471975803375244 -2.0943949858294886 0.6981316804885864 1.0471975803375244 0.0 0.0 0.0 0.0 0.0 0.0 0.0441745143973262 -0.17024765714729592 0.6374100137109433 0.10649092153369001 1.499578349427604 -0.7469218243298146 0.0 0.0 0.0 0.0 0.0 0.0 0.04417457062623502 -0.1702476368623024 0.6374100136764694 0.10649077837052924 1.4995785218702289 -0.7469219062806719 0.0 0.0 0.0 0.0 0.0 0.0
1599.7279999999998 0.3490658503988659 -1.919862177193762 1.0471975511965979 -2.094395102393195 0.6981316804885863 1.0471975803375244 0.0 0.0 0.0 0.0 0.0 0.0 0.3490658402442932 -1.9198620955096644 1.0471975803375244 -2.0943949858294886 0.6981316804885864 1.0471975803375244 0.0 0.0 0.0 0.0 0.0 0.0 0.0441745143973262 -0.17024765714729592 0.6374100137109433 0.10649092153369001 1.499578349427604 -0.7469218243298146 0.0 0.0 0.0 0.0 0.0 0.0 0.04417457062623502 -0.1702476368623024 0.6374100136764694 0.10649077837052924 1.4995785218702289 -0.7469219062806719 0.0 0.0 0.0 0.0 0.0 0.0
1599.7359999999999 0.3490658503988659 -1.919862177193762 1.0471975511965979 -2.094395102393195 0.6981316804885863 1.0471975803375244 0.0 0.0 0.0 0.0 0.0 0.0 0.3490658402442932 -1.9198620955096644 1.0471975803375244 -2.0943949858294886 0.6981316804885864 1.0471975803375244 0.0 0.0 0.0 0.0 0.0 0.0 0.0441745143973262 -0.17024765714729592 0.6374100137109433 0.10649092153369001 1.499578349427604 -0.7469218243298146 0.0 0.0 0.0 0.0 0.0 0.0 0.04417457062623502 -0.1702476368623024 0.6374100136764694 0.10649077837052924 1.4995785218702289 -0.7469219062806719 0.0 0.0 0.0 0.0 0.0 0.0
1599.744 0.3490658503988659 -1.919862177193762 1.0471975511965979 -2.094395102393195 0.6981316804885863 1.0471975803375244 0.0 0.0 0.0 0.0 0.0 0.0 0.3490658402442932 -1.9198620955096644 1.0471975803375244 -2.0943949858294886 0.6981316804885864 1.0471975803375244 0.0 0.0 0.0 0.0 0.0 0.0 0.0441745143973262 -0.17024765714729592 0.6374100137109433 0.10649092153369001 1.499578349427604 -0.7469218243298146 0.0 0.0 0.0 0.0 0.0 0.0 0.04417457062623502 -0.1702476368623024 0.6374100136764694 0.10649077837052924 1.4995785218702289 -0.7469219062806719 0.0 0.0 0.0 0.0 0.0 0.0
1599.752 0.3490658503988659 -1.919862177193762 1.0471975511965979 -2.094395102393195 0.6981316804885863 1.0471975803375244 0.0 0.0 0.0 0.0 0.0 0.0 0.3490658402442932 -1.9198620955096644 1.0471975803375244 -2.0943949858294886 0.6981316804885864 1.0471975803375244 0.0 0.0 0.0 0.0 0.0 0.0 0.0441745143973262 -0.17024765714729592 0.6374100137109433 0.10649092153369001 1.499578349427604 -0.7469218243298146 0.0 0.0 0.0 0.0 0.0 0.0 0.04417457062623502 -0.1702476368623024 0.6374100136764694 0.10649077837052924 1.4995785218702289 -0.7469219062806719 0.0 0.0 0.0 0.0 0.0 0.0
1599.76 0.3490658503988659 -1.919862177193762 1.0471975511965979 -2.094395102393195 0.6981316804885863 1.0471975803375244 0.0 0.0 0.0 0.0 0.0 0.0 0.3490658402442932 -1.9198620955096644 1.0471975803375244 -2.0943949858294886 0.6981316804885864 1.0471975803375244 0.0 0.0 0.0 0.0 0.0 0.0 0.0441745143973262 -0.17024765714729592 0.6374100137109433 0.10649092153369001 1.499578349427604 -0.7469218243298146 0.0 0.0 0.0 0.0 0.0 0.0 0.04417457062623502 -0.1702476368623024 0.6374100136764694 0.10649077837052924 1.4995785218702289 -0.7469219062806719 0.0 0.0 0.0 0.0 0.0 0.0
1599.768 0.3490658503988659 -1.919862177193762 1.0471975511965979 -2.094395102393195 0.6981316804885863 1.0471975803375244 0.0 0.0 0.0 0.0 0.0 0.0 0.3490658402442932 -1.9198620955096644 1.0471975803375244 -2.0943949858294886 0.6981316804885864 1.0471975803375244 0.0 0.0 0.0 0.0 0.0 0.0 0.0441745143973262 -0.17024765714729592 0.6374100137109433 0.10649092153369001 1.499578349427604 -0.7469218243298146 0.0 0.0 0.0 0.0 0.0 0.0 0.04417457062623502 -0.1702476368623024 0.6374100136764694 0.10649077837052924 1.4995785218702289 -0.7469219062806719 0.0 0.0 0.0 0.0 0.0 0.0
1599.7759999999998 0.3490658503988659 -1.919862177193762 1.0471975511965979 -2.094395102393195 0.6981316804885863 1.0471975803375244 0.0 0.0 0.0 0.0 0.0 0.0 0.3490658402442932 -1.9198620955096644 1.0471975803375244 -2.0943949858294886 0.6981316804885864 1.0471975803375244 0.0 0.0 0.0 0.0 0.0 0.0 0.0441745143973262 -0.17024765714729592 0.6374100137109433 0.10649092153369001 1.499578349427604 -0.7469218243298146 0.0 0.0 0.0 0.0 0.0 0.0 0.04417457062623502 -0.1702476368623024 0.6374100136764694 0.10649077837052924 1.4995785218702289 -0.7469219062806719 0.0 0.0 0.0 0.0 0.0 0.0
1599.7839999999999 0.3490658503988659 -1.919862177193762 1.0471975511965979 -2.094395102393195 0.6981316804885863 1.0471975803375244 0.0 0.0 0.0 0.0 0.0 0.0 0.3490658402442932 -1.9198620955096644 1.0471975803375244 -2.0943949858294886 0.6981316804885864 1.0471975803375244 0.0 0.0 0.0 0.0 0.0 0.0 0.0441745143973262 -0.17024765714729592 0.6374100137109433 0.10649092153369001 1.499578349427604 -0.7469218243298146 0.0 0.0 0.0 0.0 0.0 0.0 0.04417457062623502 -0.1702476368623024 0.6374100136764694 0.10649077837052924 1.4995785218702289 -0.7469219062806719 0.0 0.0 0.0 0.0 0.0 0.0
1599.792 0.3490658503988659 -1.919862177193762 1.0471975511965979 -2.094395102393195 0.6981316804885863 1.0471975803375244 0.0 0.0 0.0 0.0 0.0 0.0 0.3490658402442932 -1.9198620955096644 1.0471975803375244 -2.0943949858294886 0.6981316804885864 1.0471975803375244 0.0 0.0 0.0 0.0 0.0 0.0 0.0441745143973262 -0.17024765714729592 0.6374100137109433 0.10649092153369001 1.499578349427604 -0.7469218243298146 0.0 0.0 0.0 0.0 0.0 0.0 0.04417457062623502 -0.1702476368623024 0.6374100136764694 0.10649077837052924 1.4995785218702289 -0.7469219062806719 0.0 0.0 0.0 0.0 0.0 0.0
1599.8 0.3490658503988659 -1.919862177193762 1.0471975511965979 -2.094395102393195 0.6981316804885863 1.0471975803375244 0.0 0.0 0.0 0.0 0.0 0.0 0.3490658402442932 -1.9198620955096644 1.0471975803375244 -2.0943949858294886 0.6981316804885864 1.0471975803375244 0.0 0.0 0.0 0.0 0.0 0.0 0.0441745143973262 -0.17024765714729592 0.6374100137109433 0.10649092153369001 1.499578349427604 -0.7469218243298146 0.0 0.0 0.0 0.0 0.0 0.0 0.04417457062623502 -0.1702476368623024 0.6374100136764694 0.10649077837052924 1.4995785218702289 -0.7469219062806719 0.0 0.0 0.0 0.0 0.0 0.0
1599.808 0.3490658503988659 -1.919862177193762 1.0471975511965979 -2.094395102393195 0.6981316804885863 1.0471975803375244 0.0 0.0 0.0 0.0 0.0 0.0 0.3490658402442932 -1.9198620955096644 1.0471975803375244 -2.0943949858294886 0.6981316804885864 1.0471975803375244 0.0 0.0 0.0 0.0 0.0 0.0 0.0441745143973262 -0.17024765714729592 0.6374100137109433 0.10649092153369001 1.499578349427604 -0.7469218243298146 0.0 0.0 0.0 0.0 0.0 0.0 0.04417457062623502 -0.1702476368623024 0.6374100136764694 0.10649077837052924 1.4995785218702289 -0.7469219062806719 0.0 0.0 0.0 0.0 0.0 0.0
1599.816 0.3490658503988659 -1.919862177193762 1.0471975511965979 -2.094395102393195 0.6981316804885863 1.0471975803375244 0.0 0.0 0.0 0.0 0.0 0.0 0.3490658402442932 -1.9198620955096644 1.0471975803375244 -2.0943949858294886 0.6981316804885864 1.0471975803375244 0.0 0.0 0.0 0.0 0.0 0.0 0.0441745143973262 -0.17024765714729592 0.6374100137109433 0.10649092153369001 1.499578349427604 -0.7469218243298146 0.0 0.0 0.0 0.0 0.0 0.0 0.04417457062623502 -0.1702476368623024 0.6374100136764694 0.10649077837052924 1.4995785218702289 -0.7469219062806719 0.0 0.0 0.0 0.0 0.0 0.0
1599.8239999999998 0.3490658503988659 -1.919862177193762 1.0471975511965979 -2.094395102393195 0.6981316804885863 1.0471975803375244 0.0 0.0 0.0 0.0 0.0 0.0 0.3490658402442932 -1.9198620955096644 1.0471975803375244 -2.0943949858294886 0.6981316804885864 1.0471975803375244 0.0 0.0 0.0 0.0 0.0 0.0 0.0441745143973262 -0.17024765714729592 0.6374100137109433 0.10649092153369001 1.499578349427604 -0.7469218243298146 0.0 0.0 0.0 0.0 0.0 0.0 0.04417457062623502 -0.1702476368623024 0.6374100136764694 0.10649077837052924 1.4995785218702289 -0.7469219062806719 0.0 0.0 0.0 0.0 0.0 0.0
1599.8319999999999 0.3490658503988659 -1.919862177193762 1.0471975511965979 -2.094395102393195 0.6981316804885863 1.0471975803375244 0.0 0.0 0.0 0.0 0.0 0.0 0.3490658402442932 -1.9198620955096644 1.0471975803375244 -2.0943949858294886 0.6981316804885864 1.0471975803375244 0.0 0.0 0.0 0.0 0.0 0.0 0.0441745143973262 -0.17024765714729592 0.6374100137109433 0.10649092153369001 1.499578349427604 -0.7469218243298146 0.0 0.0 0.0 0.0 0.0 0.0 0.04417457062623502 -0.1702476368623024 0.6374100136764694 0.10649077837052924 1.4995785218702289 -0.7469219062806719 0.0 0.0 0.0 0.0 0.0 0.0
1599.84 0.3490658503988659 -1.919862177193762 1.0471975511965979 -2.094395102393195 0.6981316804885863 1.0471975803375244 0.0 0.0 0.0 0.0 0.0 0.0 0.3490658402442932 -1.9198620955096644 1.0471975803375244 -2.0943949858294886 0.6981316804885864 1.0471975803375244 0.0 0.0 0.0 0.0 0.0 0.0 0.0441745143973262 -0.17024765714729592 0.6374100137109433 0.10649092153369001 1.499578349427604 -0.7469218243298146 0.0 0.0 0.0 0.0 0.0 0.0 0.04417457062623502 -0.1702476368623024 0.6374100136764694 0.10649077837052924 1.4995785218702289 -0.7469219062806719 0.0 0.0 0.0 0.0 0.0 0.0
1599.848 0.3490658503988659 -1.919862177193762 1.0471975511965979 -2.094395102393195 0.6981316804885863 1.0471975803375244 0.0 0.0 0.0 0.0 0.0 0.0 0.3490658402442932 -1.9198620955096644 1.0471975803375244 -2.0943949858294886 0.6981316804885864 1.0471975803375244 0.0 0.0 0.0 0.0 0.0 0.0 0.0441745143973262 -0.17024765714729592 0.6374100137109433 0.10649092153369001 1.499578349427604 -0.7469218243298146 0.0 0.0 0.0 0.0 0.0 0.0 0.04417457062623502 -0.1702476368623024 0.6374100136764694 0.10649077837052924 1.4995785218702289 -0.7469219062806719 0.0 0.0 0.0 0.0 0.0 0.0
1599.856 0.3490658503988659 -1.919862177193762 1.0471975511965979 -2.094395102393195 0.6981316804885863 1.0471975803375244 0.0 0.0 0.0 0.0 0.0 0.0 0.3490658402442932 -1.9198620955096644 1.0471975803375244 -2.0943949858294886 0.6981316804885864 1.0471975803375244 0.0 0.0 0.0 0.0 0.0 0.0 0.0441745143973262 -0.17024765714729592 0.6374100137109433 0.10649092153369001 1.499578349427604 -0.7469218243298146 0.0 0.0 0.0 0.0 0.0 0.0 0.04417457062623502 -0.1702476368623024 0.6374100136764694 0.10649077837052924 1.4995785218702289 -0.7469219062806719 0.0 0.0 0.0 0.0 0.0 0.0
1599.864 0.3490658503988659 -1.919862177193762 1.0471975511965979 -2.094395102393195 0.6981316804885863 1.0471975803375244 0.0 0.0 0.0 0.0 0.0 0.0 0.3490658402442932 -1.9198620955096644 1.0471975803375244 -2.0943949858294886 0.6981316804885864 1.0471975803375244 0.0 0.0 0.0 0.0 0.0 0.0 0.0441745143973262 -0.17024765714729592 0.6374100137109433 0.10649092153369001 1.499578349427604 -0.7469218243298146 0.0 0.0 0.0 0.0 0.0 0.0 0.04417457062623502 -0.1702476368623024 0.6374100136764694 0.10649077837052924 1.4995785218702289 -0.7469219062806719 0.0 0.0 0.0 0.0 0.0 0.0
1599.8719999999998 0.3490658503988659 -1.919862177193762 1.0471975511965979 -2.094395102393195 0.6981316804885863 1.0471975803375244 0.0 0.0 0.0 0.0 0.0 0.0 0.3490658402442932 -1.9198620955096644 1.0471975803375244 -2.0943949858294886 0.6981316804885864 1.0471975803375244 0.0 0.0 0.0 0.0 0.0 0.0 0.0441745143973262 -0.17024765714729592 0.6374100137109433 0.10649092153369001 1.499578349427604 -0.7469218243298146 0.0 0.0 0.0 0.0 0.0 0.0 0.04417457062623502 -0.1702476368623024 0.6374100136764694 0.10649077837052924 1.4995785218702289 -0.7469219062806719 0.0 0.0 0.0 0.0 0.0 0.0
1599.8799999999999 0.3490658503988659 -1.919862177193762 1.0471975511965979 -2.094395102393195 0.6981316804885863 1.0471975803375244 0.0 0.0 0.0 0.0 0.0 0.0 0.3490658402442932 -1.9198620955096644 1.0471975803375244 -2.0943949858294886 0.6981316804885864 1.0471975803375244 0.0 0.0 0.0 0.0 0.0 0.0 0.0441745143973262 -0.17024765714729592 0.6374100137109433 0.10649092153369001 1.499578349427604 -0.7469218243298146 0.0 0.0 0.0 0.0 0.0 0.0 0.04417457062623502 -0.1702476368623024 0.6374100136764694 0.10649077837052924 1.4995785218702289 -0.7469219062806719 0.0 0.0 0.0 0.0 0.0 0.0
1599.888 0.3490658503988659 -1.919862177193762 1.0471975511965979 -2.094395102393195 0.6981316804885863 1.0471975803375244 0.0 0.0 0.0 0.0 0.0 0.0 0.3490658402442932 -1.9198620955096644 1.0471975803375244 -2.0943949858294886 0.6981316804885864 1.0471975803375244 0.0 0.0 0.0 0.0 0.0 0.0 0.0441745143973262 -0.17024765714729592 0.6374100137109433 0.10649092153369001 1.499578349427604 -0.7469218243298146 0.0 0.0 0.0 0.0 0.0 0.0 0.04417457062623502 -0.1702476368623024 0.6374100136764694 0.10649077837052924 1.4995785218702289 -0.7469219062806719 0.0 0.0 0.0 0.0 0.0 0.0
1599.896 0.3490658503988659 -1.919862177193762 1.0471975511965979 -2.094395102393195 0.6981316804885863 1.0471975803375244 0.0 0.0 0.0 0.0 0.0 0.0 0.3490658402442932 -1.9198620955096644 1.0471975803375244 -2.0943949858294886 0.6981316804885864 1.0471975803375244 0.0 0.0 0.0 0.0 0.0 0.0 0.0441745143973262 -0.17024765714729592 0.6374100137109433 0.10649092153369001 1.499578349427604 -0.7469218243298146 0.0 0.0 0.0 0.0 0.0 0.0 0.04417457062623502 -0.1702476368623024 0.6374100136764694 0.10649077837052924 1.4995785218702289 -0.7469219062806719 0.0 0.0 0.0 0.0 0.0 0.0
1599.904 0.3490658503988659 -1.919862177193762 1.0471975511965979 -2.094395102393195 0.6981316804885863 1.0471975803375244 0.0 0.0 0.0 0.0 0.0 0.0 0.3490658402442932 -1.9198620955096644 1.0471975803375244 -2.0943949858294886 0.6981316804885864 1.0471975803375244 0.0 0.0 0.0 0.0 0.0 0.0 0.0441745143973262 -0.17024765714729592 0.6374100137109433 0.10649092153369001 1.499578349427604 -0.7469218243298146 0.0 0.0 0.0 0.0 0.0 0.0 0.04417457062623502 -0.1702476368623024 0.6374100136764694 0.10649077837052924 1.4995785218702289 -0.7469219062806719 0.0 0.0 0.0 0.0 0.0 0.0
1599.912 0.3490658503988659 -1.919862177193762 1.0471975511965979 -2.094395102393195 0.6981316804885863 1.0471975803375244 0.0 0.0 0.0 0.0 0.0 0.0 0.3490658402442932 -1.9198620955096644 1.0471975803375244 -2.0943949858294886 0.6981316804885864 1.0471975803375244 0.0 0.0 0.0 0.0 0.0 0.0 0.0441745143973262 -0.17024765714729592 0.6374100137109433 0.10649092153369001 1.499578349427604 -0.7469218243298146 0.0 0.0 0.0 0.0 0.0 0.0 0.04417457062623502 -0.1702476368623024 0.6374100136764694 0.10649077837052924 1.4995785218702289 -0.7469219062806719 0.0 0.0 0.0 0.0 0.0 0.0
1599.9199999999998 0.3490658503988659 -1.919862177193762 1.0471975511965979 -2.094395102393195 0.6981316804885863 1.0471975803375244 0.0 0.0 0.0 0.0 0.0 0.0 0.3490658402442932 -1.9198620955096644 1.0471975803375244 -2.0943949858294886 0.6981316804885864 1.0471975803375244 0.0 0.0 0.0 0.0 0.0 0.0 0.0441745143973262 -0.17024765714729592 0.6374100137109433 0.10649092153369001 1.499578349427604 -0.7469218243298146 0.0 0.0 0.0 0.0 0.0 0.0 0.04417457062623502 -0.1702476368623024 0.6374100136764694 0.10649077837052924 1.4995785218702289 -0.7469219062806719 0.0 0.0 0.0 0.0 0.0 0.0
1599.9279999999999 0.3490658503988659 -1.919862177193762 1.0471975511965979 -2.094395102393195 0.6981316804885863 1.0471975803375244 0.0 0.0 0.0 0.0 0.0 0.0 0.3490658402442932 -1.9198620955096644 1.0471975803375244 -2.0943949858294886 0.6981316804885864 1.0471975803375244 0.0 0.0 0.0 0.0 0.0 0.0 0.0441745143973262 -0.17024765714729592 0.6374100137109433 0.10649092153369001 1.499578349427604 -0.7469218243298146 0.0 0.0 0.0 0.0 0.0 0.0 0.04417457062623502 -0.1702476368623024 0.6374100136764694 0.10649077837052924 1.4995785218702289 -0.7469219062806719 0.0 0.0 0.0 0.0 0.0 0.0
1599.936 0.3490658503988659 -1.919862177193762 1.0471975511965979 -2.094395102393195 0.6981316804885863 1.0471975803375244 0.0 0.0 0.0 0.0 0.0 0.0 0.3490658402442932 -1.9198620955096644 1.0471975803375244 -2.0943949858294886 0.6981316804885864 1.0471975803375244 0.0 0.0 0.0 0.0 0.0 0.0 0.0441745143973262 -0.17024765714729592 0.6374100137109433 0.10649092153369001 1.499578349427604 -0.7469218243298146 0.0 0.0 0.0 0.0 0.0 0.0 0.04417457062623502 -0.1702476368623024 0.6374100136764694 0.10649077837052924 1.4995785218702289 -0.7469219062806719 0.0 0.0 0.0 0.0 0.0 0.0
1599.944 0.3490658503988659 -1.919862177193762 1.0471975511965979 -2.094395102393195 0.6981316804885863 1.0471975803375244 0.0 0.0 0.0 0.0 0.0 0.0 0.3490658402442932 -1.9198620955096644 1.0471975803375244 -2.0943949858294886 0.6981316804885864 1.0471975803375244 0.0 0.0 0.0 0.0 0.0 0.0 0.0441745143973262 -0.17024765714729592 0.6374100137109433 0.10649092153369001 1.499578349427604 -0.7469218243298146 0.0 0.0 0.0 0.0 0.0 0.0 0.04417457062623502 -0.1702476368623024 0.6374100136764694 0.10649077837052924 1.4995785218702289 -0.7469219062806719 0.0 0.0 0.0 0.0 0.0 0.0
1599.952 0.3490658503988659 -1.919862177193762 1.0471975511965979 -2.094395102393195 0.6981316804885863 1.0471975803375244 0.0 0.0 0.0 0.0 0.0 0.0 0.3490658402442932 -1.9198620955096644 1.0471975803375244 -2.0943949858294886 0.6981316804885864 1.0471975803375244 0.0 0.0 0.0 0.0 0.0 0.0 0.0441745143973262 -0.17024765714729592 0.6374100137109433 0.10649092153369001 1.499578349427604 -0.7469218243298146 0.0 0.0 0.0 0.0 0.0 0.0 0.04417457062623502 -0.1702476368623024 0.6374100136764694 0.10649077837052924 1.4995785218702289 -0.7469219062806719 0.0 0.0 0.0 0.0 0.0 0.0
1599.96 0.3490658503988659 -1.919862177193762 1.0471975511965979 -2.094395102393195 0.6981316804885863 1.0471975803375244 0.0 0.0 0.0 0.0 0.0 0.0 0.3490658402442932 -1.9198620955096644 1.0471975803375244 -2.0943949858294886 0.6981316804885864 1.0471975803375244 0.0 0.0 0.0 0.0 0.0 0.0 0.0441745143973262 -0.17024765714729592 0.6374100137109433 0.10649092153369001 1.499578349427604 -0.7469218243298146 0.0 0.0 0.0 0.0 0.0 0.0 0.04417457062623502 -0.1702476368623024 0.6374100136764694 0.10649077837052924 1.4995785218702289 -0.7469219062806719 0.0 0.0 0.0 0.0 0.0 0.0
1599.9679999999998 0.3490658503988659 -1.919862177193762 1.0471975511965979 -2.094395102393195 0.6981316804885863 1.0471975803375244 0.0 0.0 0.0 0.0 0.0 0.0 0.3490658402442932 -1.9198620955096644 1.0471975803375244 -2.0943949858294886 0.6981316804885864 1.0471975803375244 0.0 0.0 0.0 0.0 0.0 0.0 0.0441745143973262 -0.17024765714729592 0.6374100137109433 0.10649092153369001 1.499578349427604 -0.7469218243298146 0.0 0.0 0.0 0.0 0.0 0.0 0.04417457062623502 -0.1702476368623024 0.6374100136764694 0.10649077837052924 1.4995785218702289 -0.7469219062806719 0.0 0.0 0.0 0.0 0.0 0.0
1599.9759999999999 0.3490658503988659 -1.919862177193762 1.0471975511965979 -2.094395102393195 0.6981316804885863 1.0471975803375244 0.0 0.0 0.0 0.0 0.0 0.0 0.3490658402442932 -1.9198620955096644 1.0471975803375244 -2.0943949858294886 0.6981316804885864 1.0471975803375244 0.0 0.0 0.0 0.0 0.0 0.0 0.0441745143973262 -0.17024765714729592 0.6374100137109433 0.10649092153369001 1.499578349427604 -0.7469218243298146 0.0 0.0 0.0 0.0 0.0 0.0 0.04417457062623502 -0.1702476368623024 0.6374100136764694 0.10649077837052924 1.4995785218702289 -0.7469219062806719 0.0 0.0 0.0 0.0 0.0 0.0
1599.984 0.3490658503988659 -1.919862177193762 1.0471975511965979 -2.094395102393195 0.6981316804885863 1.0471975803375244 0.0 0.0 0.0 0.0 0.0 0.0 0.3490658402442932 -1.9198620955096644 1.0471975803375244 -2.0943949858294886 0.6981316804885864 1.0471975803375244 0.0 0.0 0.0 0.0 0.0 0.0 0.0441745143973262 -0.17024765714729592 0.6374100137109433 0.10649092153369001 1.499578349427604 -0.7469218243298146 0.0 0.0 0.0 0.0 0.0 0.0 0.04417457062623502 -0.1702476368623024 0.6374100136764694 0.10649077837052924 1.4995785218702289 -0.7469219062806719 0.0 0.0 0.0 0.0 0.0 0.0
1599.992 0.3490658503988659 -1.919862177193762 1.0471975511965979 -2.094395102393195 0.6981316804885863 1.0471975803375244 0.0 0.0 0.0 0.0 0.0 0.0 0.3490658402442932 -1.9198620955096644 1.0471975803375244 -2.0943949858294886 0.6981316804885864 1.0471975803375244 0.0 0.0 0.0 0.0 0.0 0.0 0.0441745143973262 -0.17024765714729592 0.6374100137109433 0.10649092153369001 1.499578349427604 -0.7469218243298146 0.0 0.0 0.0 0.0 0.0 0.0 0.04417457062623502 -0.1702476368623024 0.6374100136764694 0.10649077837052924 1.4995785218702289 -0.7469219062806719 0.0 0.0 0.0 0.0 0.0 0.0
1600.0 0.3490658503988659 -1.919862177193762 1.0471975511965979 -2.094395102393195 0.6981316804885863 1.0471975803375244 0.0 0.0 0.0 0.0 0.0 0.0 0.3490658402442932 -1.9198620955096644 1.0471975803375244 -2.0943949858294886 0.6981316804885864 1.0471975803375244 0.0 0.0 0.0 0.0 0.0 0.0 0.0441745143973262 -0.17024765714729592 0.6374100137109433 0.10649092153369001 1.499578349427604 -0.7469218243298146 0.0 0.0 0.0 0.0 0.0 0.0 0.04417457062623502 -0.1702476368623024 0.6374100136764694 0.10649077837052924 1.4995785218702289 -0.7469219062806719 0.0 0.0 0.0 0.0 0.0 0.0
1600.008 0.3490658503988659 -1.919862177193762 1.0471975511965979 -2.094395102393195 0.6981316804885863 1.0471975803375244 0.0 0.0 0.0 0.0 0.0 0.0 0.3490658402442932 -1.9198620955096644 1.0471975803375244 -2.0943949858294886 0.6981316804885864 1.0471975803375244 0.0 0.0 0.0 0.0 0.0 0.0 0.0441745143973262 -0.17024765714729592 0.6374100137109433 0.10649092153369001 1.499578349427604 -0.7469218243298146 0.0 0.0 0.0 0.0 0.0 0.0 0.04417457062623502 -0.1702476368623024 0.6374100136764694 0.10649077837052924 1.4995785218702289 -0.7469219062806719 0.0 0.0 0.0 0.0 0.0 0.0
1600.0159999999998 0.3490658503988659 -1.919862177193762 1.0471975511965979 -2.094395102393195 0.6981316804885863 1.0471975803375244 0.0 0.0 0.0 0.0 0.0 0.0 0.3490658402442932 -1.9198620955096644 1.0471975803375244 -2.0943949858294886 0.6981316804885864 1.0471975803375244 0.0 0.0 0.0 0.0 0.0 0.0 0.0441745143973262 -0.17024765714729592 0.6374100137109433 0.10649092153369001 1.499578349427604 -0.7469218243298146 0.0 0.0 0.0 0.0 0.0 0.0 0.04417457062623502 -0.1702476368623024 0.6374100136764694 0.10649077837052924 1.4995785218702289 -0.7469219062806719 0.0 0.0 0.0 0.0 0.0 0.0
1600.024 0.3490658503988659 -1.919862177193762 1.0471975511965979 -2.094395102393195 0.6981316804885863 1.0471975803375244 0.0 0.0 0.0 0.0 0.0 0.0 0.3490658402442932 -1.9198620955096644 1.0471975803375244 -2.0943949858294886 0.6981316804885864 1.0471975803375244 0.0 0.0 0.0 0.0 0.0 0.0 0.0441745143973262 -0.17024765714729592 0.6374100137109433 0.10649092153369001 1.499578349427604 -0.7469218243298146 0.0 0.0 0.0 0.0 0.0 0.0 0.04417457062623502 -0.1702476368623024 0.6374100136764694 0.10649077837052924 1.4995785218702289 -0.7469219062806719 0.0 0.0 0.0 0.0 0.0 0.0
1600.032 0.3490658503988659 -1.919862177193762 1.0471975511965979 -2.094395102393195 0.6981316804885863 1.0471975803375244 0.0 0.0 0.0 0.0 0.0 0.0 0.3490658402442932 -1.9198620955096644 1.0471975803375244 -2.0943949858294886 0.6981316804885864 1.0471975803375244 0.0 0.0 0.0 0.0 0.0 0.0 0.0441745143973262 -0.17024765714729592 0.6374100137109433 0.10649092153369001 1.499578349427604 -0.7469218243298146 0.0 0.0 0.0 0.0 0.0 0.0 0.04417457062623502 -0.1702476368623024 0.6374100136764694 0.10649077837052924 1.4995785218702289 -0.7469219062806719 0.0 0.0 0.0 0.0 0.0 0.0
1600.04 0.3490658503988659 -1.919862177193762 1.0471975511965979 -2.094395102393195 0.6981316804885863 1.0471975803375244 0.0 0.0 0.0 0.0 0.0 0.0 0.3490658402442932 -1.9198620955096644 1.0471975803375244 -2.0943949858294886 0.6981316804885864 1.0471975803375244 0.0 0.0 0.0 0.0 0.0 0.0 0.0441745143973262 -0.17024765714729592 0.6374100137109433 0.10649092153369001 1.499578349427604 -0.7469218243298146 0.0 0.0 0.0 0.0 0.0 0.0 0.04417457062623502 -0.1702476368623024 0.6374100136764694 0.10649077837052924 1.4995785218702289 -0.7469219062806719 0.0 0.0 0.0 0.0 0.0 0.0
1600.048 0.3490658503988659 -1.919862177193762 1.0471975511965979 -2.094395102393195 0.6981316804885863 1.0471975803375244 0.0 0.0 0.0 0.0 0.0 0.0 0.3490658402442932 -1.9198620955096644 1.0471975803375244 -2.0943949858294886 0.6981316804885864 1.0471975803375244 0.0 0.0 0.0 0.0 0.0 0.0 0.0441745143973262 -0.17024765714729592 0.6374100137109433 0.10649092153369001 1.499578349427604 -0.7469218243298146 0.0 0.0 0.0 0.0 0.0 0.0 0.04417457062623502 -0.1702476368623024 0.6374100136764694 0.10649077837052924 1.4995785218702289 -0.7469219062806719 0.0 0.0 0.0 0.0 0.0 0.0
1600.056 0.3490658503988659 -1.919862177193762 1.0471975511965979 -2.094395102393195 0.6981316804885863 1.0471975803375244 0.0 0.0 0.0 0.0 0.0 0.0 0.3490658402442932 -1.9198620955096644 1.0471975803375244 -2.0943949858294886 0.6981316804885864 1.0471975803375244 0.0 0.0 0.0 0.0 0.0 0.0 0.0441745143973262 -0.17024765714729592 0.6374100137109433 0.10649092153369001 1.499578349427604 -0.7469218243298146 0.0 0.0 0.0 0.0 0.0 0.0 0.04417457062623502 -0.1702476368623024 0.6374100136764694 0.10649077837052924 1.4995785218702289 -0.7469219062806719 0.0 0.0 0.0 0.0 0.0 0.0
1600.0639999999999 0.3490658503988659 -1.919862177193762 1.0471975511965979 -2.094395102393195 0.6981316804885863 1.0471975803375244 0.0 0.0 0.0 0.0 0.0 0.0 0.3490658402442932 -1.9198620955096644 1.0471975803375244 -2.0943949858294886 0.6981316804885864 1.0471975803375244 0.0 0.0 0.0 0.0 0.0 0.0 0.0441745143973262 -0.17024765714729592 0.6374100137109433 0.10649092153369001 1.499578349427604 -0.7469218243298146 0.0 0.0 0.0 0.0 0.0 0.0 0.04417457062623502 -0.1702476368623024 0.6374100136764694 0.10649077837052924 1.4995785218702289 -0.7469219062806719 0.0 0.0 0.0 0.0 0.0 0.0
1600.072 0.3490658503988659 -1.919862177193762 1.0471975511965979 -2.094395102393195 0.6981316804885863 1.0471975803375244 0.0 0.0 0.0 0.0 0.0 0.0 0.3490658402442932 -1.9198620955096644 1.0471975803375244 -2.0943949858294886 0.6981316804885864 1.0471975803375244 0.0 0.0 0.0 0.0 0.0 0.0 0.0441745143973262 -0.17024765714729592 0.6374100137109433 0.10649092153369001 1.499578349427604 -0.7469218243298146 0.0 0.0 0.0 0.0 0.0 0.0 0.04417457062623502 -0.1702476368623024 0.6374100136764694 0.10649077837052924 1.4995785218702289 -0.7469219062806719 0.0 0.0 0.0 0.0 0.0 0.0
1600.08 0.3490658503988659 -1.919862177193762 1.0471975511965979 -2.094395102393195 0.6981316804885863 1.0471975803375244 0.0 0.0 0.0 0.0 0.0 0.0 0.3490658402442932 -1.9198620955096644 1.0471975803375244 -2.0943949858294886 0.6981316804885864 1.0471975803375244 0.0 0.0 0.0 0.0 0.0 0.0 0.0441745143973262 -0.17024765714729592 0.6374100137109433 0.10649092153369001 1.499578349427604 -0.7469218243298146 0.0 0.0 0.0 0.0 0.0 0.0 0.04417457062623502 -0.1702476368623024 0.6374100136764694 0.10649077837052924 1.4995785218702289 -0.7469219062806719 0.0 0.0 0.0 0.0 0.0 0.0
1600.088 0.3490658503988659 -1.919862177193762 1.0471975511965979 -2.094395102393195 0.6981316804885863 1.0471975803375244 0.0 0.0 0.0 0.0 0.0 0.0 0.3490658402442932 -1.9198620955096644 1.0471975803375244 -2.0943949858294886 0.6981316804885864 1.0471975803375244 0.0 0.0 0.0 0.0 0.0 0.0 0.0441745143973262 -0.17024765714729592 0.6374100137109433 0.10649092153369001 1.499578349427604 -0.7469218243298146 0.0 0.0 0.0 0.0 0.0 0.0 0.04417457062623502 -0.1702476368623024 0.6374100136764694 0.10649077837052924 1.4995785218702289 -0.7469219062806719 0.0 0.0 0.0 0.0 0.0 0.0
1600.096 0.3490658503988659 -1.919862177193762 1.0471975511965979 -2.094395102393195 0.6981316804885863 1.0471975803375244 0.0 0.0 0.0 0.0 0.0 0.0 0.3490658402442932 -1.9198620955096644 1.0471975803375244 -2.0943949858294886 0.6981316804885864 1.0471975803375244 0.0 0.0 0.0 0.0 0.0 0.0 0.0441745143973262 -0.17024765714729592 0.6374100137109433 0.10649092153369001 1.499578349427604 -0.7469218243298146 0.0 0.0 0.0 0.0 0.0 0.0 0.04417457062623502 -0.1702476368623024 0.6374100136764694 0.10649077837052924 1.4995785218702289 -0.7469219062806719 0.0 0.0 0.0 0.0 0.0 0.0
1600.1039999999998 0.3490658503988659 -1.919862177193762 1.0471975511965979 -2.094395102393195 0.6981316804885863 1.0471975803375244 0.0 0.0 0.0 0.0 0.0 0.0 0.3490658402442932 -1.9198620955096644 1.0471975803375244 -2.0943949858294886 0.6981316804885864 1.0471975803375244 0.0 0.0 0.0 0.0 0.0 0.0 0.0441745143973262 -0.17024765714729592 0.6374100137109433 0.10649092153369001 1.499578349427604 -0.7469218243298146 0.0 0.0 0.0 0.0 0.0 0.0 0.04417457062623502 -0.1702476368623024 0.6374100136764694 0.10649077837052924 1.4995785218702289 -0.7469219062806719 0.0 0.0 0.0 0.0 0.0 0.0
1600.1119999999999 0.3490658503988659 -1.919862177193762 1.0471975511965979 -2.094395102393195 0.6981316804885863 1.0471975803375244 0.0 0.0 0.0 0.0 0.0 0.0 0.3490658402442932 -1.9198620955096644 1.0471975803375244 -2.0943949858294886 0.6981316804885864 1.0471975803375244 0.0 0.0 0.0 0.0 0.0 0.0 0.0441745143973262 -0.17024765714729592 0.6374100137109433 0.10649092153369001 1.499578349427604 -0.7469218243298146 0.0 0.0 0.0 0.0 0.0 0.0 0.04417457062623502 -0.1702476368623024 0.6374100136764694 0.10649077837052924 1.4995785218702289 -0.7469219062806719 0.0 0.0 0.0 0.0 0.0 0.0
1600.12 0.3490658503988659 -1.919862177193762 1.0471975511965979 -2.094395102393195 0.6981316804885863 1.0471975803375244 0.0 0.0 0.0 0.0 0.0 0.0 0.3490658402442932 -1.9198620955096644 1.0471975803375244 -2.0943949858294886 0.6981316804885864 1.0471975803375244 0.0 0.0 0.0 0.0 0.0 0.0 0.0441745143973262 -0.17024765714729592 0.6374100137109433 0.10649092153369001 1.499578349427604 -0.7469218243298146 0.0 0.0 0.0 0.0 0.0 0.0 0.04417457062623502 -0.1702476368623024 0.6374100136764694 0.10649077837052924 1.4995785218702289 -0.7469219062806719 0.0 0.0 0.0 0.0 0.0 0.0
1600.128 0.3490658503988659 -1.919862177193762 1.0471975511965979 -2.094395102393195 0.6981316804885863 1.0471975803375244 0.0 0.0 0.0 0.0 0.0 0.0 0.3490658402442932 -1.9198620955096644 1.0471975803375244 -2.0943949858294886 0.6981316804885864 1.0471975803375244 0.0 0.0 0.0 0.0 0.0 0.0 0.0441745143973262 -0.17024765714729592 0.6374100137109433 0.10649092153369001 1.499578349427604 -0.7469218243298146 0.0 0.0 0.0 0.0 0.0 0.0 0.04417457062623502 -0.1702476368623024 0.6374100136764694 0.10649077837052924 1.4995785218702289 -0.7469219062806719 0.0 0.0 0.0 0.0 0.0 0.0
1600.136 0.3490658503988659 -1.919862177193762 1.0471975511965979 -2.094395102393195 0.6981316804885863 1.0471975803375244 0.0 0.0 0.0 0.0 0.0 0.0 0.3490658402442932 -1.9198620955096644 1.0471975803375244 -2.0943949858294886 0.6981316804885864 1.0471975803375244 0.0 0.0 0.0 0.0 0.0 0.0 0.0441745143973262 -0.17024765714729592 0.6374100137109433 0.10649092153369001 1.499578349427604 -0.7469218243298146 0.0 0.0 0.0 0.0 0.0 0.0 0.04417457062623502 -0.1702476368623024 0.6374100136764694 0.10649077837052924 1.4995785218702289 -0.7469219062806719 0.0 0.0 0.0 0.0 0.0 0.0
1600.144 0.3490658503988659 -1.919862177193762 1.0471975511965979 -2.094395102393195 0.6981316804885863 1.0471975803375244 0.0 0.0 0.0 0.0 0.0 0.0 0.3490658402442932 -1.9198620955096644 1.0471975803375244 -2.0943949858294886 0.6981316804885864 1.0471975803375244 0.0 0.0 0.0 0.0 0.0 0.0 0.0441745143973262 -0.17024765714729592 0.6374100137109433 0.10649092153369001 1.499578349427604 -0.7469218243298146 0.0 0.0 0.0 0.0 0.0 0.0 0.04417457062623502 -0.1702476368623024 0.6374100136764694 0.10649077837052924 1.4995785218702289 -0.7469219062806719 0.0 0.0 0.0 0.0 0.0 0.0
1600.1519999999998 0.3490658503988659 -1.919862177193762 1.0471975511965979 -2.094395102393195 0.6981316804885863 1.0471975803375244 0.0 0.0 0.0 0.0 0.0 0.0 0.3490658402442932 -1.9198620955096644 1.0471975803375244 -2.0943949858294886 0.6981316804885864 1.0471975803375244 0.0 0.0 0.0 0.0 0.0 0.0 0.0441745143973262 -0.17024765714729592 0.6374100137109433 0.10649092153369001 1.499578349427604 -0.7469218243298146 0.0 0.0 0.0 0.0 0.0 0.0 0.04417457062623502 -0.1702476368623024 0.6374100136764694 0.10649077837052924 1.4995785218702289 -0.7469219062806719 0.0 0.0 0.0 0.0 0.0 0.0
1600.1599999999999 0.3490658503988659 -1.919862177193762 1.0471975511965979 -2.094395102393195 0.6981316804885863 1.0471975803375244 0.0 0.0 0.0 0.0 0.0 0.0 0.3490658402442932 -1.9198620955096644 1.0471975803375244 -2.0943949858294886 0.6981316804885864 1.0471975803375244 0.0 0.0 0.0 0.0 0.0 0.0 0.0441745143973262 -0.17024765714729592 0.6374100137109433 0.10649092153369001 1.499578349427604 -0.7469218243298146 0.0 0.0 0.0 0.0 0.0 0.0 0.04417457062623502 -0.1702476368623024 0.6374100136764694 0.10649077837052924 1.4995785218702289 -0.7469219062806719 0.0 0.0 0.0 0.0 0.0 0.0
1600.168 0.3490658503988659 -1.919862177193762 1.0471975511965979 -2.094395102393195 0.6981316804885863 1.0471975803375244 0.0 0.0 0.0 0.0 0.0 0.0 0.3490658402442932 -1.9198620955096644 1.0471975803375244 -2.0943949858294886 0.6981316804885864 1.0471975803375244 0.0 0.0 0.0 0.0 0.0 0.0 0.0441745143973262 -0.17024765714729592 0.6374100137109433 0.10649092153369001 1.499578349427604 -0.7469218243298146 0.0 0.0 0.0 0.0 0.0 0.0 0.04417457062623502 -0.1702476368623024 0.6374100136764694 0.10649077837052924 1.4995785218702289 -0.7469219062806719 0.0 0.0 0.0 0.0 0.0 0.0
1600.176 0.3490658503988659 -1.919862177193762 1.0471975511965979 -2.094395102393195 0.6981316804885863 1.0471975803375244 0.0 0.0 0.0 0.0 0.0 0.0 0.3490658402442932 -1.9198620955096644 1.0471975803375244 -2.0943949858294886 0.6981316804885864 1.0471975803375244 0.0 0.0 0.0 0.0 0.0 0.0 0.0441745143973262 -0.17024765714729592 0.6374100137109433 0.10649092153369001 1.499578349427604 -0.7469218243298146 0.0 0.0 0.0 0.0 0.0 0.0 0.04417457062623502 -0.1702476368623024 0.6374100136764694 0.10649077837052924 1.4995785218702289 -0.7469219062806719 0.0 0.0 0.0 0.0 0.0 0.0
1600.184 0.3490658503988659 -1.919862177193762 1.0471975511965979 -2.094395102393195 0.6981316804885863 1.0471975803375244 0.0 0.0 0.0 0.0 0.0 0.0 0.3490658402442932 -1.9198620955096644 1.0471975803375244 -2.0943949858294886 0.6981316804885864 1.0471975803375244 0.0 0.0 0.0 0.0 0.0 0.0 0.0441745143973262 -0.17024765714729592 0.6374100137109433 0.10649092153369001 1.499578349427604 -0.7469218243298146 0.0 0.0 0.0 0.0 0.0 0.0 0.04417457062623502 -0.1702476368623024 0.6374100136764694 0.10649077837052924 1.4995785218702289 -0.7469219062806719 0.0 0.0 0.0 0.0 0.0 0.0
1600.192 0.3490658503988659 -1.919862177193762 1.0471975511965979 -2.094395102393195 0.6981316804885863 1.0471975803375244 0.0 0.0 0.0 0.0 0.0 0.0 0.3490658402442932 -1.9198620955096644 1.0471975803375244 -2.0943949858294886 0.6981316804885864 1.0471975803375244 0.0 0.0 0.0 0.0 0.0 0.0 0.0441745143973262 -0.17024765714729592 0.6374100137109433 0.10649092153369001 1.499578349427604 -0.7469218243298146 0.0 0.0 0.0 0.0 0.0 0.0 0.04417457062623502 -0.1702476368623024 0.6374100136764694 0.10649077837052924 1.4995785218702289 -0.7469219062806719 0.0 0.0 0.0 0.0 0.0 0.0
1600.1999999999998 0.3490658503988659 -1.919862177193762 1.0471975511965979 -2.094395102393195 0.6981316804885863 1.0471975803375244 0.0 0.0 0.0 0.0 0.0 0.0 0.3490658402442932 -1.9198620955096644 1.0471975803375244 -2.0943949858294886 0.6981316804885864 1.0471975803375244 0.0 0.0 0.0 0.0 0.0 0.0 0.0441745143973262 -0.17024765714729592 0.6374100137109433 0.10649092153369001 1.499578349427604 -0.7469218243298146 0.0 0.0 0.0 0.0 0.0 0.0 0.04417457062623502 -0.1702476368623024 0.6374100136764694 0.10649077837052924 1.4995785218702289 -0.7469219062806719 0.0 0.0 0.0 0.0 0.0 0.0
1600.2079999999999 0.3490658503988659 -1.919862177193762 1.0471975511965979 -2.094395102393195 0.6981316804885863 1.0471975803375244 0.0 0.0 0.0 0.0 0.0 0.0 0.3490658402442932 -1.9198620955096644 1.0471975803375244 -2.0943949858294886 0.6981316804885864 1.0471975803375244 0.0 0.0 0.0 0.0 0.0 0.0 0.0441745143973262 -0.17024765714729592 0.6374100137109433 0.10649092153369001 1.499578349427604 -0.7469218243298146 0.0 0.0 0.0 0.0 0.0 0.0 0.04417457062623502 -0.1702476368623024 0.6374100136764694 0.10649077837052924 1.4995785218702289 -0.7469219062806719 0.0 0.0 0.0 0.0 0.0 0.0
1600.216 0.3490658503988659 -1.919862177193762 1.0471975511965979 -2.094395102393195 0.6981316804885863 1.0471975803375244 0.0 0.0 0.0 0.0 0.0 0.0 0.3490658402442932 -1.9198620955096644 1.0471975803375244 -2.0943949858294886 0.6981316804885864 1.0471975803375244 0.0 0.0 0.0 0.0 0.0 0.0 0.0441745143973262 -0.17024765714729592 0.6374100137109433 0.10649092153369001 1.499578349427604 -0.7469218243298146 0.0 0.0 0.0 0.0 0.0 0.0 0.04417457062623502 -0.1702476368623024 0.6374100136764694 0.10649077837052924 1.4995785218702289 -0.7469219062806719 0.0 0.0 0.0 0.0 0.0 0.0
1600.224 0.3490658503988659 -1.919862177193762 1.0471975511965979 -2.094395102393195 0.6981316804885863 1.0471975803375244 0.0 0.0 0.0 0.0 0.0 0.0 0.3490658402442932 -1.9198620955096644 1.0471975803375244 -2.0943949858294886 0.6981316804885864 1.0471975803375244 0.0 0.0 0.0 0.0 0.0 0.0 0.0441745143973262 -0.17024765714729592 0.6374100137109433 0.10649092153369001 1.499578349427604 -0.7469218243298146 0.0 0.0 0.0 0.0 0.0 0.0 0.04417457062623502 -0.1702476368623024 0.6374100136764694 0.10649077837052924 1.4995785218702289 -0.7469219062806719 0.0 0.0 0.0 0.0 0.0 0.0
1600.232 0.3490658503988659 -1.919862177193762 1.0471975511965979 -2.094395102393195 0.6981316804885863 1.0471975803375244 0.0 0.0 0.0 0.0 0.0 0.0 0.3490658402442932 -1.9198620955096644 1.0471975803375244 -2.0943949858294886 0.6981316804885864 1.0471975803375244 0.0 0.0 0.0 0.0 0.0 0.0 0.0441745143973262 -0.17024765714729592 0.6374100137109433 0.10649092153369001 1.499578349427604 -0.7469218243298146 0.0 0.0 0.0 0.0 0.0 0.0 0.04417457062623502 -0.1702476368623024 0.6374100136764694 0.10649077837052924 1.4995785218702289 -0.7469219062806719 0.0 0.0 0.0 0.0 0.0 0.0
1600.24 0.3490658503988659 -1.919862177193762 1.0471975511965979 -2.094395102393195 0.6981316804885863 1.0471975803375244 0.0 0.0 0.0 0.0 0.0 0.0 0.3490658402442932 -1.9198620955096644 1.0471975803375244 -2.0943949858294886 0.6981316804885864 1.0471975803375244 0.0 0.0 0.0 0.0 0.0 0.0 0.0441745143973262 -0.17024765714729592 0.6374100137109433 0.10649092153369001 1.499578349427604 -0.7469218243298146 0.0 0.0 0.0 0.0 0.0 0.0 0.04417457062623502 -0.1702476368623024 0.6374100136764694 0.10649077837052924 1.4995785218702289 -0.7469219062806719 0.0 0.0 0.0 0.0 0.0 0.0
1600.2479999999998 0.3490658503988659 -1.919862177193762 1.0471975511965979 -2.094395102393195 0.6981316804885863 1.0471975803375244 0.0 0.0 0.0 0.0 0.0 0.0 0.3490658402442932 -1.9198620955096644 1.0471975803375244 -2.0943949858294886 0.6981316804885864 1.0471975803375244 0.0 0.0 0.0 0.0 0.0 0.0 0.0441745143973262 -0.17024765714729592 0.6374100137109433 0.10649092153369001 1.499578349427604 -0.7469218243298146 0.0 0.0 0.0 0.0 0.0 0.0 0.04417457062623502 -0.1702476368623024 0.6374100136764694 0.10649077837052924 1.4995785218702289 -0.7469219062806719 0.0 0.0 0.0 0.0 0.0 0.0
1600.2559999999999 0.3490658503988659 -1.919862177193762 1.0471975511965979 -2.094395102393195 0.6981316804885863 1.0471975803375244 0.0 0.0 0.0 0.0 0.0 0.0 0.3490658402442932 -1.9198620955096644 1.0471975803375244 -2.0943949858294886 0.6981316804885864 1.0471975803375244 0.0 0.0 0.0 0.0 0.0 0.0 0.0441745143973262 -0.17024765714729592 0.6374100137109433 0.10649092153369001 1.499578349427604 -0.7469218243298146 0.0 0.0 0.0 0.0 0.0 0.0 0.04417457062623502 -0.1702476368623024 0.6374100136764694 0.10649077837052924 1.4995785218702289 -0.7469219062806719 0.0 0.0 0.0 0.0 0.0 0.0
1600.264 0.3490658503988659 -1.919862177193762 1.0471975511965979 -2.094395102393195 0.6981316804885863 1.0471975803375244 0.0 0.0 0.0 0.0 0.0 0.0 0.3490658402442932 -1.9198620955096644 1.0471975803375244 -2.0943949858294886 0.6981316804885864 1.0471975803375244 0.0 0.0 0.0 0.0 0.0 0.0 0.0441745143973262 -0.17024765714729592 0.6374100137109433 0.10649092153369001 1.499578349427604 -0.7469218243298146 0.0 0.0 0.0 0.0 0.0 0.0 0.04417457062623502 -0.1702476368623024 0.6374100136764694 0.10649077837052924 1.4995785218702289 -0.7469219062806719 0.0 0.0 0.0 0.0 0.0 0.0
1600.272 0.3490658503988659 -1.919862177193762 1.0471975511965979 -2.094395102393195 0.6981316804885863 1.0471975803375244 0.0 0.0 0.0 0.0 0.0 0.0 0.3490658402442932 -1.9198620955096644 1.0471975803375244 -2.0943949858294886 0.6981316804885864 1.0471975803375244 0.0 0.0 0.0 0.0 0.0 0.0 0.0441745143973262 -0.17024765714729592 0.6374100137109433 0.10649092153369001 1.499578349427604 -0.7469218243298146 0.0 0.0 0.0 0.0 0.0 0.0 0.04417457062623502 -0.1702476368623024 0.6374100136764694 0.10649077837052924 1.4995785218702289 -0.7469219062806719 0.0 0.0 0.0 0.0 0.0 0.0
1600.28 0.3490658503988659 -1.919862177193762 1.0471975511965979 -2.094395102393195 0.6981316804885863 1.0471975803375244 0.0 0.0 0.0 0.0 0.0 0.0 0.3490658402442932 -1.9198620955096644 1.0471975803375244 -2.0943949858294886 0.6981316804885864 1.0471975803375244 0.0 0.0 0.0 0.0 0.0 0.0 0.0441745143973262 -0.17024765714729592 0.6374100137109433 0.10649092153369001 1.499578349427604 -0.7469218243298146 0.0 0.0 0.0 0.0 0.0 0.0 0.04417457062623502 -0.1702476368623024 0.6374100136764694 0.10649077837052924 1.4995785218702289 -0.7469219062806719 0.0 0.0 0.0 0.0 0.0 0.0
1600.288 0.3490658503988659 -1.919862177193762 1.0471975511965979 -2.094395102393195 0.6981316804885863 1.0471975803375244 0.0 0.0 0.0 0.0 0.0 0.0 0.3490658402442932 -1.9198620955096644 1.0471975803375244 -2.0943949858294886 0.6981316804885864 1.0471975803375244 0.0 0.0 0.0 0.0 0.0 0.0 0.0441745143973262 -0.17024765714729592 0.6374100137109433 0.10649092153369001 1.499578349427604 -0.7469218243298146 0.0 0.0 0.0 0.0 0.0 0.0 0.04417457062623502 -0.1702476368623024 0.6374100136764694 0.10649077837052924 1.4995785218702289 -0.7469219062806719 0.0 0.0 0.0 0.0 0.0 0.0
1600.2959999999998 0.3490658503988659 -1.919862177193762 1.0471975511965979 -2.094395102393195 0.6981316804885863 1.0471975803375244 0.0 0.0 0.0 0.0 0.0 0.0 0.3490658402442932 -1.9198620955096644 1.0471975803375244 -2.0943949858294886 0.6981316804885864 1.0471975803375244 0.0 0.0 0.0 0.0 0.0 0.0 0.0441745143973262 -0.17024765714729592 0.6374100137109433 0.10649092153369001 1.499578349427604 -0.7469218243298146 0.0 0.0 0.0 0.0 0.0 0.0 0.04417457062623502 -0.1702476368623024 0.6374100136764694 0.10649077837052924 1.4995785218702289 -0.7469219062806719 0.0 0.0 0.0 0.0 0.0 0.0
1600.3039999999999 0.3490658503988659 -1.919862177193762 1.0471975511965979 -2.094395102393195 0.6981316804885863 1.0471975803375244 0.0 0.0 0.0 0.0 0.0 0.0 0.3490658402442932 -1.9198620955096644 1.0471975803375244 -2.0943949858294886 0.6981316804885864 1.0471975803375244 0.0 0.0 0.0 0.0 0.0 0.0 0.0441745143973262 -0.17024765714729592 0.6374100137109433 0.10649092153369001 1.499578349427604 -0.7469218243298146 0.0 0.0 0.0 0.0 0.0 0.0 0.04417457062623502 -0.1702476368623024 0.6374100136764694 0.10649077837052924 1.4995785218702289 -0.7469219062806719 0.0 0.0 0.0 0.0 0.0 0.0
1600.312 0.3490658503988659 -1.919862177193762 1.0471975511965979 -2.094395102393195 0.6981316804885863 1.0471975803375244 0.0 0.0 0.0 0.0 0.0 0.0 0.3490658402442932 -1.9198620955096644 1.0471975803375244 -2.0943949858294886 0.6981316804885864 1.0471975803375244 0.0 0.0 0.0 0.0 0.0 0.0 0.0441745143973262 -0.17024765714729592 0.6374100137109433 0.10649092153369001 1.499578349427604 -0.7469218243298146 0.0 0.0 0.0 0.0 0.0 0.0 0.04417457062623502 -0.1702476368623024 0.6374100136764694 0.10649077837052924 1.4995785218702289 -0.7469219062806719 0.0 0.0 0.0 0.0 0.0 0.0
1600.32 0.3490658503988659 -1.919862177193762 1.0471975511965979 -2.094395102393195 0.6981316804885863 1.0471975803375244 0.0 0.0 0.0 0.0 0.0 0.0 0.3490658402442932 -1.9198620955096644 1.0471975803375244 -2.0943949858294886 0.6981316804885864 1.0471975803375244 0.0 0.0 0.0 0.0 0.0 0.0 0.0441745143973262 -0.17024765714729592 0.6374100137109433 0.10649092153369001 1.499578349427604 -0.7469218243298146 0.0 0.0 0.0 0.0 0.0 0.0 0.04417457062623502 -0.1702476368623024 0.6374100136764694 0.10649077837052924 1.4995785218702289 -0.7469219062806719 0.0 0.0 0.0 0.0 0.0 0.0
1600.328 0.3490658503988659 -1.919862177193762 1.0471975511965979 -2.094395102393195 0.6981316804885863 1.0471975803375244 0.0 0.0 0.0 0.0 0.0 0.0 0.3490658402442932 -1.9198620955096644 1.0471975803375244 -2.0943949858294886 0.6981316804885864 1.0471975803375244 0.0 0.0 0.0 0.0 0.0 0.0 0.0441745143973262 -0.17024765714729592 0.6374100137109433 0.10649092153369001 1.499578349427604 -0.7469218243298146 0.0 0.0 0.0 0.0 0.0 0.0 0.04417457062623502 -0.1702476368623024 0.6374100136764694 0.10649077837052924 1.4995785218702289 -0.7469219062806719 0.0 0.0 0.0 0.0 0.0 0.0
1600.336 0.3490658503988659 -1.919862177193762 1.0471975511965979 -2.094395102393195 0.6981316804885863 1.0471975803375244 0.0 0.0 0.0 0.0 0.0 0.0 0.3490658402442932 -1.9198620955096644 1.0471975803375244 -2.0943949858294886 0.6981316804885864 1.0471975803375244 0.0 0.0 0.0 0.0 0.0 0.0 0.0441745143973262 -0.17024765714729592 0.6374100137109433 0.10649092153369001 1.499578349427604 -0.7469218243298146 0.0 0.0 0.0 0.0 0.0 0.0 0.04417457062623502 -0.1702476368623024 0.6374100136764694 0.10649077837052924 1.4995785218702289 -0.7469219062806719 0.0 0.0 0.0 0.0 0.0 0.0
1600.3439999999998 0.3490658503988659 -1.919862177193762 1.0471975511965979 -2.094395102393195 0.6981316804885863 1.0471975803375244 0.0 0.0 0.0 0.0 0.0 0.0 0.3490658402442932 -1.9198620955096644 1.0471975803375244 -2.0943949858294886 0.6981316804885864 1.0471975803375244 0.0 0.0 0.0 0.0 0.0 0.0 0.0441745143973262 -0.17024765714729592 0.6374100137109433 0.10649092153369001 1.499578349427604 -0.7469218243298146 0.0 0.0 0.0 0.0 0.0 0.0 0.04417457062623502 -0.1702476368623024 0.6374100136764694 0.10649077837052924 1.4995785218702289 -0.7469219062806719 0.0 0.0 0.0 0.0 0.0 0.0
1600.3519999999999 0.3490658503988659 -1.919862177193762 1.0471975511965979 -2.094395102393195 0.6981316804885863 1.0471975803375244 0.0 0.0 0.0 0.0 0.0 0.0 0.3490658402442932 -1.9198620955096644 1.0471975803375244 -2.0943949858294886 0.6981316804885864 1.0471975803375244 0.0 0.0 0.0 0.0 0.0 0.0 0.0441745143973262 -0.17024765714729592 0.6374100137109433 0.10649092153369001 1.499578349427604 -0.7469218243298146 0.0 0.0 0.0 0.0 0.0 0.0 0.04417457062623502 -0.1702476368623024 0.6374100136764694 0.10649077837052924 1.4995785218702289 -0.7469219062806719 0.0 0.0 0.0 0.0 0.0 0.0
1600.36 0.3490658503988659 -1.919862177193762 1.0471975511965979 -2.094395102393195 0.6981316804885863 1.0471975803375244 0.0 0.0 0.0 0.0 0.0 0.0 0.3490658402442932 -1.9198620955096644 1.0471975803375244 -2.0943949858294886 0.6981316804885864 1.0471975803375244 0.0 0.0 0.0 0.0 0.0 0.0 0.0441745143973262 -0.17024765714729592 0.6374100137109433 0.10649092153369001 1.499578349427604 -0.7469218243298146 0.0 0.0 0.0 0.0 0.0 0.0 0.04417457062623502 -0.1702476368623024 0.6374100136764694 0.10649077837052924 1.4995785218702289 -0.7469219062806719 0.0 0.0 0.0 0.0 0.0 0.0
1600.368 0.3490658503988659 -1.919862177193762 1.0471975511965979 -2.094395102393195 0.6981316804885863 1.0471975803375244 0.0 0.0 0.0 0.0 0.0 0.0 0.3490658402442932 -1.9198620955096644 1.0471975803375244 -2.0943949858294886 0.6981316804885864 1.0471975803375244 0.0 0.0 0.0 0.0 0.0 0.0 0.0441745143973262 -0.17024765714729592 0.6374100137109433 0.10649092153369001 1.499578349427604 -0.7469218243298146 0.0 0.0 0.0 0.0 0.0 0.0 0.04417457062623502 -0.1702476368623024 0.6374100136764694 0.10649077837052924 1.4995785218702289 -0.7469219062806719 0.0 0.0 0.0 0.0 0.0 0.0
1600.376 0.3490658503988659 -1.919862177193762 1.0471975511965979 -2.094395102393195 0.6981316804885863 1.0471975803375244 0.0 0.0 0.0 0.0 0.0 0.0 0.3490658402442932 -1.9198620955096644 1.0471975803375244 -2.0943949858294886 0.6981316804885864 1.0471975803375244 0.0 0.0 0.0 0.0 0.0 0.0 0.0441745143973262 -0.17024765714729592 0.6374100137109433 0.10649092153369001 1.499578349427604 -0.7469218243298146 0.0 0.0 0.0 0.0 0.0 0.0 0.04417457062623502 -0.1702476368623024 0.6374100136764694 0.10649077837052924 1.4995785218702289 -0.7469219062806719 0.0 0.0 0.0 0.0 0.0 0.0
1600.384 0.3490658503988659 -1.919862177193762 1.0471975511965979 -2.094395102393195 0.6981316804885863 1.0471975803375244 0.0 0.0 0.0 0.0 0.0 0.0 0.3490658402442932 -1.9198620955096644 1.0471975803375244 -2.0943949858294886 0.6981316804885864 1.0471975803375244 0.0 0.0 0.0 0.0 0.0 0.0 0.0441745143973262 -0.17024765714729592 0.6374100137109433 0.10649092153369001 1.499578349427604 -0.7469218243298146 0.0 0.0 0.0 0.0 0.0 0.0 0.04417457062623502 -0.1702476368623024 0.6374100136764694 0.10649077837052924 1.4995785218702289 -0.7469219062806719 0.0 0.0 0.0 0.0 0.0 0.0
1600.3919999999998 0.3490658503988659 -1.919862177193762 1.0471975511965979 -2.094395102393195 0.6981316804885863 1.0471975803375244 0.0 0.0 0.0 0.0 0.0 0.0 0.3490658402442932 -1.9198620955096644 1.0471975803375244 -2.0943949858294886 0.6981316804885864 1.0471975803375244 0.0 0.0 0.0 0.0 0.0 0.0 0.0441745143973262 -0.17024765714729592 0.6374100137109433 0.10649092153369001 1.499578349427604 -0.7469218243298146 0.0 0.0 0.0 0.0 0.0 0.0 0.04417457062623502 -0.1702476368623024 0.6374100136764694 0.10649077837052924 1.4995785218702289 -0.7469219062806719 0.0 0.0 0.0 0.0 0.0 0.0
1600.3999999999999 0.3490658503988659 -1.919862177193762 1.0471975511965979 -2.094395102393195 0.6981316804885863 1.0471975803375244 0.0 0.0 0.0 0.0 0.0 0.0 0.3490658402442932 -1.9198620955096644 1.0471975803375244 -2.0943949858294886 0.6981316804885864 1.0471975803375244 0.0 0.0 0.0 0.0 0.0 0.0 0.0441745143973262 -0.17024765714729592 0.6374100137109433 0.10649092153369001 1.499578349427604 -0.7469218243298146 0.0 0.0 0.0 0.0 0.0 0.0 0.04417457062623502 -0.1702476368623024 0.6374100136764694 0.10649077837052924 1.4995785218702289 -0.7469219062806719 0.0 0.0 0.0 0.0 0.0 0.0
1600.408 0.3490658503988659 -1.919862177193762 1.0471975511965979 -2.094395102393195 0.6981316804885863 1.0471975803375244 0.0 0.0 0.0 0.0 0.0 0.0 0.3490658402442932 -1.9198620955096644 1.0471975803375244 -2.0943949858294886 0.6981316804885864 1.0471975803375244 0.0 0.0 0.0 0.0 0.0 0.0 0.0441745143973262 -0.17024765714729592 0.6374100137109433 0.10649092153369001 1.499578349427604 -0.7469218243298146 0.0 0.0 0.0 0.0 0.0 0.0 0.04417457062623502 -0.1702476368623024 0.6374100136764694 0.10649077837052924 1.4995785218702289 -0.7469219062806719 0.0 0.0 0.0 0.0 0.0 0.0
1600.416 0.3490658503988659 -1.919862177193762 1.0471975511965979 -2.094395102393195 0.6981316804885863 1.0471975803375244 0.0 0.0 0.0 0.0 0.0 0.0 0.3490658402442932 -1.9198620955096644 1.0471975803375244 -2.0943949858294886 0.6981316804885864 1.0471975803375244 0.0 0.0 0.0 0.0 0.0 0.0 0.0441745143973262 -0.17024765714729592 0.6374100137109433 0.10649092153369001 1.499578349427604 -0.7469218243298146 0.0 0.0 0.0 0.0 0.0 0.0 0.04417457062623502 -0.1702476368623024 0.6374100136764694 0.10649077837052924 1.4995785218702289 -0.7469219062806719 0.0 0.0 0.0 0.0 0.0 0.0
1600.424 0.3490658503988659 -1.919862177193762 1.0471975511965979 -2.094395102393195 0.6981316804885863 1.0471975803375244 0.0 0.0 0.0 0.0 0.0 0.0 0.3490658402442932 -1.9198620955096644 1.0471975803375244 -2.0943949858294886 0.6981316804885864 1.0471975803375244 0.0 0.0 0.0 0.0 0.0 0.0 0.0441745143973262 -0.17024765714729592 0.6374100137109433 0.10649092153369001 1.499578349427604 -0.7469218243298146 0.0 0.0 0.0 0.0 0.0 0.0 0.04417457062623502 -0.1702476368623024 0.6374100136764694 0.10649077837052924 1.4995785218702289 -0.7469219062806719 0.0 0.0 0.0 0.0 0.0 0.0
1600.432 0.3490658503988659 -1.919862177193762 1.0471975511965979 -2.094395102393195 0.6981316804885863 1.0471975803375244 0.0 0.0 0.0 0.0 0.0 0.0 0.3490658402442932 -1.9198620955096644 1.0471975803375244 -2.0943949858294886 0.6981316804885864 1.0471975803375244 0.0 0.0 0.0 0.0 0.0 0.0 0.0441745143973262 -0.17024765714729592 0.6374100137109433 0.10649092153369001 1.499578349427604 -0.7469218243298146 0.0 0.0 0.0 0.0 0.0 0.0 0.04417457062623502 -0.1702476368623024 0.6374100136764694 0.10649077837052924 1.4995785218702289 -0.7469219062806719 0.0 0.0 0.0 0.0 0.0 0.0
1600.4399999999998 0.3490658503988659 -1.919862177193762 1.0471975511965979 -2.094395102393195 0.6981316804885863 1.0471975803375244 0.0 0.0 0.0 0.0 0.0 0.0 0.3490658402442932 -1.9198620955096644 1.0471975803375244 -2.0943949858294886 0.6981316804885864 1.0471975803375244 0.0 0.0 0.0 0.0 0.0 0.0 0.0441745143973262 -0.17024765714729592 0.6374100137109433 0.10649092153369001 1.499578349427604 -0.7469218243298146 0.0 0.0 0.0 0.0 0.0 0.0 0.04417457062623502 -0.1702476368623024 0.6374100136764694 0.10649077837052924 1.4995785218702289 -0.7469219062806719 0.0 0.0 0.0 0.0 0.0 0.0
1600.4479999999999 0.3490658503988659 -1.919862177193762 1.0471975511965979 -2.094395102393195 0.6981316804885863 1.0471975803375244 0.0 0.0 0.0 0.0 0.0 0.0 0.3490658402442932 -1.9198620955096644 1.0471975803375244 -2.0943949858294886 0.6981316804885864 1.0471975803375244 0.0 0.0 0.0 0.0 0.0 0.0 0.0441745143973262 -0.17024765714729592 0.6374100137109433 0.10649092153369001 1.499578349427604 -0.7469218243298146 0.0 0.0 0.0 0.0 0.0 0.0 0.04417457062623502 -0.1702476368623024 0.6374100136764694 0.10649077837052924 1.4995785218702289 -0.7469219062806719 0.0 0.0 0.0 0.0 0.0 0.0
1600.456 0.3490658503988659 -1.919862177193762 1.0471975511965979 -2.094395102393195 0.6981316804885863 1.0471975803375244 0.0 0.0 0.0 0.0 0.0 0.0 0.3490658402442932 -1.9198620955096644 1.0471975803375244 -2.0943949858294886 0.6981316804885864 1.0471975803375244 0.0 0.0 0.0 0.0 0.0 0.0 0.0441745143973262 -0.17024765714729592 0.6374100137109433 0.10649092153369001 1.499578349427604 -0.7469218243298146 0.0 0.0 0.0 0.0 0.0 0.0 0.04417457062623502 -0.1702476368623024 0.6374100136764694 0.10649077837052924 1.4995785218702289 -0.7469219062806719 0.0 0.0 0.0 0.0 0.0 0.0
1600.464 0.3490658503988659 -1.919862177193762 1.0471975511965979 -2.094395102393195 0.6981316804885863 1.0471975803375244 0.0 0.0 0.0 0.0 0.0 0.0 0.3490658402442932 -1.9198620955096644 1.0471975803375244 -2.0943949858294886 0.6981316804885864 1.0471975803375244 0.0 0.0 0.0 0.0 0.0 0.0 0.0441745143973262 -0.17024765714729592 0.6374100137109433 0.10649092153369001 1.499578349427604 -0.7469218243298146 0.0 0.0 0.0 0.0 0.0 0.0 0.04417457062623502 -0.1702476368623024 0.6374100136764694 0.10649077837052924 1.4995785218702289 -0.7469219062806719 0.0 0.0 0.0 0.0 0.0 0.0
1600.472 0.3490658503988659 -1.919862177193762 1.0471975511965979 -2.094395102393195 0.6981316804885863 1.0471975803375244 0.0 0.0 0.0 0.0 0.0 0.0 0.3490658402442932 -1.9198620955096644 1.0471975803375244 -2.0943949858294886 0.6981316804885864 1.0471975803375244 0.0 0.0 0.0 0.0 0.0 0.0 0.0441745143973262 -0.17024765714729592 0.6374100137109433 0.10649092153369001 1.499578349427604 -0.7469218243298146 0.0 0.0 0.0 0.0 0.0 0.0 0.04417457062623502 -0.1702476368623024 0.6374100136764694 0.10649077837052924 1.4995785218702289 -0.7469219062806719 0.0 0.0 0.0 0.0 0.0 0.0
1600.48 0.3490658503988659 -1.919862177193762 1.0471975511965979 -2.094395102393195 0.6981316804885863 1.0471975803375244 0.0 0.0 0.0 0.0 0.0 0.0 0.3490658402442932 -1.9198620955096644 1.0471975803375244 -2.0943949858294886 0.6981316804885864 1.0471975803375244 0.0 0.0 0.0 0.0 0.0 0.0 0.0441745143973262 -0.17024765714729592 0.6374100137109433 0.10649092153369001 1.499578349427604 -0.7469218243298146 0.0 0.0 0.0 0.0 0.0 0.0 0.04417457062623502 -0.1702476368623024 0.6374100136764694 0.10649077837052924 1.4995785218702289 -0.7469219062806719 0.0 0.0 0.0 0.0 0.0 0.0
1600.4879999999998 0.3490658503988659 -1.919862177193762 1.0471975511965979 -2.094395102393195 0.6981316804885863 1.0471975803375244 0.0 0.0 0.0 0.0 0.0 0.0 0.3490658402442932 -1.9198620955096644 1.0471975803375244 -2.0943949858294886 0.6981316804885864 1.0471975803375244 0.0 0.0 0.0 0.0 0.0 0.0 0.0441745143973262 -0.17024765714729592 0.6374100137109433 0.10649092153369001 1.499578349427604 -0.7469218243298146 0.0 0.0 0.0 0.0 0.0 0.0 0.04417457062623502 -0.1702476368623024 0.6374100136764694 0.10649077837052924 1.4995785218702289 -0.7469219062806719 0.0 0.0 0.0 0.0 0.0 0.0
1600.4959999999999 0.3490658503988659 -1.919862177193762 1.0471975511965979 -2.094395102393195 0.6981316804885863 1.0471975803375244 0.0 0.0 0.0 0.0 0.0 0.0 0.3490658402442932 -1.9198620955096644 1.0471975803375244 -2.0943949858294886 0.6981316804885864 1.0471975803375244 0.0 0.0 0.0 0.0 0.0 0.0 0.0441745143973262 -0.17024765714729592 0.6374100137109433 0.10649092153369001 1.499578349427604 -0.7469218243298146 0.0 0.0 0.0 0.0 0.0 0.0 0.04417457062623502 -0.1702476368623024 0.6374100136764694 0.10649077837052924 1.4995785218702289 -0.7469219062806719 0.0 0.0 0.0 0.0 0.0 0.0
1600.504 0.3490658503988659 -1.919862177193762 1.0471975511965979 -2.094395102393195 0.6981316804885863 1.0471975803375244 0.0 0.0 0.0 0.0 0.0 0.0 0.3490658402442932 -1.9198620955096644 1.0471975803375244 -2.0943949858294886 0.6981316804885864 1.0471975803375244 0.0 0.0 0.0 0.0 0.0 0.0 0.0441745143973262 -0.17024765714729592 0.6374100137109433 0.10649092153369001 1.499578349427604 -0.7469218243298146 0.0 0.0 0.0 0.0 0.0 0.0 0.04417457062623502 -0.1702476368623024 0.6374100136764694 0.10649077837052924 1.4995785218702289 -0.7469219062806719 0.0 0.0 0.0 0.0 0.0 0.0
1600.512 0.3490658503988659 -1.919862177193762 1.0471975511965979 -2.094395102393195 0.6981316804885863 1.0471975803375244 0.0 0.0 0.0 0.0 0.0 0.0 0.3490658402442932 -1.9198620955096644 1.0471975803375244 -2.0943949858294886 0.6981316804885864 1.0471975803375244 0.0 0.0 0.0 0.0 0.0 0.0 0.0441745143973262 -0.17024765714729592 0.6374100137109433 0.10649092153369001 1.499578349427604 -0.7469218243298146 0.0 0.0 0.0 0.0 0.0 0.0 0.04417457062623502 -0.1702476368623024 0.6374100136764694 0.10649077837052924 1.4995785218702289 -0.7469219062806719 0.0 0.0 0.0 0.0 0.0 0.0
1600.52 0.3490658503988659 -1.919862177193762 1.0471975511965979 -2.094395102393195 0.6981316804885863 1.0471975803375244 0.0 0.0 0.0 0.0 0.0 0.0 0.3490658402442932 -1.9198620955096644 1.0471975803375244 -2.0943949858294886 0.6981316804885864 1.0471975803375244 0.0 0.0 0.0 0.0 0.0 0.0 0.0441745143973262 -0.17024765714729592 0.6374100137109433 0.10649092153369001 1.499578349427604 -0.7469218243298146 0.0 0.0 0.0 0.0 0.0 0.0 0.04417457062623502 -0.1702476368623024 0.6374100136764694 0.10649077837052924 1.4995785218702289 -0.7469219062806719 0.0 0.0 0.0 0.0 0.0 0.0
1600.528 0.3490658503988659 -1.919862177193762 1.0471975511965979 -2.094395102393195 0.6981316804885863 1.0471975803375244 0.0 0.0 0.0 0.0 0.0 0.0 0.3490658402442932 -1.9198620955096644 1.0471975803375244 -2.0943949858294886 0.6981316804885864 1.0471975803375244 0.0 0.0 0.0 0.0 0.0 0.0 0.0441745143973262 -0.17024765714729592 0.6374100137109433 0.10649092153369001 1.499578349427604 -0.7469218243298146 0.0 0.0 0.0 0.0 0.0 0.0 0.04417457062623502 -0.1702476368623024 0.6374100136764694 0.10649077837052924 1.4995785218702289 -0.7469219062806719 0.0 0.0 0.0 0.0 0.0 0.0
1600.5359999999998 0.3490658503988659 -1.919862177193762 1.0471975511965979 -2.094395102393195 0.6981316804885863 1.0471975803375244 0.0 0.0 0.0 0.0 0.0 0.0 0.3490658402442932 -1.9198620955096644 1.0471975803375244 -2.0943949858294886 0.6981316804885864 1.0471975803375244 0.0 0.0 0.0 0.0 0.0 0.0 0.0441745143973262 -0.17024765714729592 0.6374100137109433 0.10649092153369001 1.499578349427604 -0.7469218243298146 0.0 0.0 0.0 0.0 0.0 0.0 0.04417457062623502 -0.1702476368623024 0.6374100136764694 0.10649077837052924 1.4995785218702289 -0.7469219062806719 0.0 0.0 0.0 0.0 0.0 0.0
1600.5439999999999 0.3490658503988659 -1.919862177193762 1.0471975511965979 -2.094395102393195 0.6981316804885863 1.0471975803375244 0.0 0.0 0.0 0.0 0.0 0.0 0.3490658402442932 -1.9198620955096644 1.0471975803375244 -2.0943949858294886 0.6981316804885864 1.0471975803375244 0.0 0.0 0.0 0.0 0.0 0.0 0.0441745143973262 -0.17024765714729592 0.6374100137109433 0.10649092153369001 1.499578349427604 -0.7469218243298146 0.0 0.0 0.0 0.0 0.0 0.0 0.04417457062623502 -0.1702476368623024 0.6374100136764694 0.10649077837052924 1.4995785218702289 -0.7469219062806719 0.0 0.0 0.0 0.0 0.0 0.0
1600.552 0.3490658503988659 -1.919862177193762 1.0471975511965979 -2.094395102393195 0.6981316804885863 1.0471975803375244 0.0 0.0 0.0 0.0 0.0 0.0 0.3490658402442932 -1.9198620955096644 1.0471975803375244 -2.0943949858294886 0.6981316804885864 1.0471975803375244 0.0 0.0 0.0 0.0 0.0 0.0 0.0441745143973262 -0.17024765714729592 0.6374100137109433 0.10649092153369001 1.499578349427604 -0.7469218243298146 0.0 0.0 0.0 0.0 0.0 0.0 0.04417457062623502 -0.1702476368623024 0.6374100136764694 0.10649077837052924 1.4995785218702289 -0.7469219062806719 0.0 0.0 0.0 0.0 0.0 0.0
1600.56 0.3490658503988659 -1.919862177193762 1.0471975511965979 -2.094395102393195 0.6981316804885863 1.0471975803375244 0.0 0.0 0.0 0.0 0.0 0.0 0.3490658402442932 -1.9198620955096644 1.0471975803375244 -2.0943949858294886 0.6981316804885864 1.0471975803375244 0.0 0.0 0.0 0.0 0.0 0.0 0.0441745143973262 -0.17024765714729592 0.6374100137109433 0.10649092153369001 1.499578349427604 -0.7469218243298146 0.0 0.0 0.0 0.0 0.0 0.0 0.04417457062623502 -0.1702476368623024 0.6374100136764694 0.10649077837052924 1.4995785218702289 -0.7469219062806719 0.0 0.0 0.0 0.0 0.0 0.0
