el-Lennard/Robotik/Lösung/Modularbeit Code/A2_movel_act.csv
x,y,z,rx,ry,rz,vx,vy,vz,vrx,vry,vrz,q1,q2,q3,q4,q5,q6,qd1,qd2,qd3,qd4,qd5,qd6
-0.44333419410159736,-0.38403026640468585,0.13821726080312555,1.8715567317050172,-1.07466286261885,-0.6215808866163445,1.5336941896887657e-05,8.948373467904956e-06,-3.4422905856756215e-06,7.24298481366328e-05,-0.00012423915672316486,-2.573871096782018e-07,0.5236042737960815,-1.0472272078143519,1.570878505706787,9.703636169433594e-05,1.5707645416259766,-5.990663637334137e-05,0.0,0.0,-0.0,0.00014381069922819734,0.0,0.0
-0.44335829075399835,-0.3840306254179901,0.13820721925575413,1.8715054060589338,-1.0746304055019922,-0.6216038545884099,1.5336974167833136e-05,8.947903638366499e-06,-3.443365613144956e-06,7.24268828400238e-05,-0.00012424088542901964,-2.573759773562883e-07,0.5235803127288818,-1.0471914450274866,1.5708541870117188,2.5033950805664062e-05,1.5707405805587769,-7.230440248662262e-05,0.0,0.0,-0.0,0.00014381069922819734,0.0,0.0
-0.4433470456406385,-0.3840217516197986,0.13824268339037774,1.8714355149157929,-1.0746377736577635,-0.6216397937340217,0.002565000163428185,0.0014971583397785776,0.0033545312200373508,-0.0014280107559188912,0.002493014914901887,-2.2369498789506265e-05,0.5235803127288818,-1.0472753683673304,1.5708904266357422,1.3113021850585938e-05,1.5707645416259766,-4.7985707418263246e-05,0.0,-0.010635600425302982,0.0076187714003026485,0.00014381069922819734,0.0,0.0
-0.44331383585356343,-0.38400926735804475,0.13822845120730048,1.871469517145941,-1.0747268568623578,-0.6216815599478775,0.0034806745180329217,0.0014026618090883518,-4.645705415120154e-05,0.005110437244559089,-0.0015157067323872217,-0.004368280539596932,0.5236042737960815,-1.0473111311541956,1.570986270904541,1.3113021850585938e-05,1.5708603858947754,-2.366701234990387e-05,0.001981391804292798,-0.006199839059263468,0.009945308789610863,0.00014381069922819734,0.007310377433896065,0.0
-0.443269641143745,-0.3840121016823499,0.13821825172474553,1.8715164642237037,-1.0747793116762674,-0.6216312406060489,0.00676946301161342,0.0013611891058074386,0.0018817651656602176,0.00396553275572455,-0.0011932644549497583,-0.0002349813524131078,0.523652195930481,-1.047347370778219,1.5710701942443848,3.707408905029297e-05,1.570896029472351,2.3968450477696024e-05,0.0046786414459347725,-0.013805827125906944,0.016694825142621994,0.00014381069922819734,0.005632585845887661,0.0
-0.44320729965926675,-0.3839997862635232,0.13823416661726848,1.8715678989865163,-1.0747942413229699,-0.6215712381024376,0.009954399470642774,-0.0009381094734747767,0.003577742095732589,-0.0016854154079978603,-0.0020581434595491666,0.005043287009812981,0.5236881971359253,-1.047467056904928,1.571213722229004,7.30752944946289e-05,1.570896029472351,4.793690095539205e-05,0.010610033757984638,-0.018203239887952805,0.018995795398950577,0.00014381069922819734,0.003523362334817648,0.0049375006929039955
-0.44316224258046616,-0.3839974549046646,0.13828940754065114,1.8713230337145748,-1.0747443499159792,-0.6217971060223734,0.008728118368181744,0.0008240782713933274,0.00022920973233856958,-0.004473986823795901,0.014245857591422535,-0.01355533148145584,0.5237480998039246,-1.0476592222796839,1.5713820457458496,-0.00016624132265263825,1.571063756942749,8.388957940042019e-05,0.009472331963479519,-0.017615213990211487,0.028992237523198128,-0.025909895077347755,0.021595574915409088,0.008628642186522484
-0.4430485314698364,-0.38399966581423073,0.13830548714998736,1.871424531158982,-1.0746799600331602,-0.6217520834711661,0.01675155991974382,-0.0021254639143802583,0.002802148926356248,0.000978114755955218,-0.0014315333271575305,0.010292280530920253,0.5238559246063232,-1.0478385130511683,1.5716218948364258,-0.00016624132265263825,1.5710997581481934,7.190534961409867e-05,0.01889353059232235,-0.026013758033514023,0.033913757652044296,-0.006159891840070486,0.007454188074916601,0.0041705104522407055
-0.442892651603544,-0.3840047395308119,0.13829088561506975,1.8714231988543917,-1.0747705781328603,-0.6217197589125693,0.016161611516660904,-0.00013565815495867472,0.0009987177899502093,-0.017730469141548324,0.010199827370409451,-0.014564617195463994,0.524023711681366,-1.0480425993548792,1.571993350982666,-0.00028640428651982575,1.5712674856185913,0.000215716048842296,0.01757686398923397,-0.029516346752643585,0.04628787189722061,-0.03446663171052933,0.022722091525793076,0.02485528402030468
-0.44270811060120185,-0.3840306959149551,0.13831252689138362,1.8715179754995228,-1.074589439316688,-0.6216217478151278,0.025957614712714624,-0.0015385344230888836,0.0016531608226650744,0.0030086650841633852,-0.009507946055781865,0.015479963133745377,0.5242274403572083,-1.0483182112323206,1.5723767280578613,-0.00038224855531865387,1.571291446685791,0.000215716048842296,0.02616715617477894,-0.03804272413253784,0.05627153068780899,-0.008484832011163235,0.008077368140220642,0.007190535310655832
-0.44251852043672174,-0.3840274337655678,0.1383079441876092,1.8714621318793725,-1.07460907116378,-0.6216845519226122,0.02697463442407864,-0.00015403050759977893,0.0007980545241530094,-0.017221256674288386,0.00496253680592439,-0.025707793245491783,0.5244191884994507,-1.0486176649676722,1.5728802680969238,-0.0006340185748499039,1.5715068578720093,0.0003239485959056765,0.029823143035173416,-0.04447266086935997,0.07083156704902649,-0.03923635557293892,0.04184891656041145,0.038421425968408585
-0.4422423598028134,-0.3840249496939201,0.1382960184911931,1.8716456918418576,-1.0745608666754953,-0.6215271472200155,0.035321147500968875,-0.0006547590456047426,0.0008637378151417227,0.0016928518162863037,0.0003403410947795194,0.01680636376496017,0.5246708989143372,-1.0490010420428675,1.5735273361206055,-0.0007417837726038101,1.571602702140808,0.00039585394551977515,0.03416942432522774,-0.054724764078855515,0.0863247737288475,-0.031015174463391304,0.01577123999595642,0.007190535310655832
-0.4419723275609579,-0.3840451360262011,0.13834840261994064,1.8714640361193016,-1.0744877586751955,-0.6216574155809531,0.042062154444998716,-0.000569420860404117,0.0009204315480440564,-0.011519920291926574,-0.005741444074327685,-0.0006278700557802372,0.5249824523925781,-1.049493137990133,1.5741868019104004,-0.0011132399188440445,1.5719143152236938,0.0005516488454304636,0.042082205414772034,-0.06525810062885284,0.10333917289972305,-0.038852859288454056,0.030463900417089462,0.03238137811422348
-0.44161021140630413,-0.3840181208705974,0.13835312569123032,1.8715804353456806,-1.0744154769869076,-0.6216568418335594,0.048078874533537624,0.0013829880379933879,-0.0006403884836113455,0.01625856202680097,0.01134015453731277,-0.0037964070578734126,0.5252937078475952,-1.0500801245318812,1.5751218795776367,-0.0014007727252405289,1.5721535682678223,0.0006115699652582407,0.047924116253852844,-0.07483270019292831,0.12351102381944656,-0.05018993467092514,0.05457616224884987,0.008628642186522484
-0.44117560022678914,-0.38401247842390246,0.13833879559246812,1.8716489009071489,-1.0744966317239528,-0.6216424098552022,0.056791164857817454,7.076600602861324e-06,0.0007847999995033466,-0.01405046472159167,-0.003935322549157412,-0.009019241421483797,0.5257251262664795,-1.0507152716266077,1.576188564300537,-0.0017364660846155289,1.5725606679916382,0.0008400192600674927,0.05705130472779274,-0.08879192173480988,0.1420721858739853,-0.056829195469617844,0.05002215504646301,0.0451325923204422
-0.4406956445537823,-0.38401406900901525,0.13835578357179198,1.8716120897434696,-1.0743659961671126,-0.621801580385814,0.06600440538020874,0.0006925973309671933,-0.0006635688664066177,0.015517147084425385,0.009645622268449311,0.009924443084639287,0.526216447353363,-1.0514939467059534,1.5774106979370117,-0.0022996107684534195,1.5730277299880981,0.000971845758613199,0.06518140435218811,-0.10139613598585129,0.1665136218070984,-0.06550577282905579,0.05685316398739815,0.01164866704493761
-0.44012234379777593,-0.38399808949899,0.13836885205242824,1.871662664062854,-1.0744226592742854,-0.6217781256571198,0.07186308989760576,0.0007875419522800355,-0.0014038920132117111,0.00028738038023048626,-0.005910082484486455,-0.0037784755437746675,0.5267677307128906,-1.0523932615863245,1.5788259506225586,-0.0027430693255823257,1.5735186338424683,0.0012598417233675718,0.07125341147184372,-0.10818399488925934,0.17922009527683258,-0.065601646900177,0.06344448775053024,0.0397157222032547
-0.4395308551864603,-0.3839833880683237,0.13834024992255095,1.8717948573316463,-1.0743726741704458,-0.6218462105365912,0.07804902269825069,0.00044506987734885197,-0.001183381241413241,0.00913053693470902,0.005128748875415836,0.0002974225230306226,0.5273429751396179,-1.0532682577716272,1.5803241729736328,-0.0032952467547815445,1.5740455389022827,0.0014276208821684122,0.07871878147125244,-0.11832105368375778,0.1952885389328003,-0.07657919824123383,0.07298393547534943,0.02996056340634823
-0.43887663027954654,-0.38400136680504054,0.1383515465405307,1.8717889814860447,-1.0743285019528976,-0.621911459903365,0.08090262319752337,0.004438449569362379,0.0008680100906106553,0.006802164579780411,0.00896013746765588,-0.0031706320749839857,0.5280377268791199,-1.0542634169207972,1.5819063186645508,-0.003917996083394826,1.5746684074401855,0.0017276009311899543,0.07539515942335129,-0.13148772716522217,0.2107817530632019,-0.08336227387189865,0.07305584102869034,0.030080405995249748
-0.4381542274774843,-0.3840056364830091,0.138376458667626,1.8717694779082439,-1.0742511597924365,-0.6219048294455596,0.0925118307856401,-0.0005447101902980337,4.036455480936832e-05,-0.0036773104130971915,-0.002066851611868214,0.0030438190947944983,0.5287683606147766,-1.0554021040545862,1.5836806297302246,-0.004601303731099904,1.575255274772644,0.0020635337568819523,0.09381570667028427,-0.14056377112865448,0.22748935222625732,-0.08669388294219971,0.07629157602787018,0.04882373288273811
-0.4373881380806378,-0.3840084161707245,0.1383555883334214,1.8718150845272024,-1.0742771317092952,-0.621861678181862,0.09759876057847827,-0.0002337871333450403,-0.0007746746491898825,-0.0038680985358568384,0.002076078431320849,-0.003456560628228817,0.5295473337173462,-1.0565288702594202,1.5855622291564941,-0.00529653230776006,1.5759140253067017,0.0024593877606093884,0.09975988417863846,-0.14815698564052582,0.24231784045696259,-0.09752762317657471,0.08803611993789673,0.053353771567344666
-0.4365835508697912,-0.38400202789954596,0.13835078522121605,1.8717199723627966,-1.0743660231529275,-0.6218786677493578,0.10488462814001497,-0.0004831771134177978,-0.003397305160826542,-0.011228365149535048,-0.012413804403412419,-0.0065057936171836195,0.5303622484207153,-1.057763401662008,1.5875763893127441,-0.006111447011129201,1.5766682624816895,0.002951115369796753,0.10716134309768677,-0.1537560075521469,0.25834792852401733,-0.09908557683229446,0.09021724760532379,0.0704193115234375
-0.4357580685842223,-0.3839829404409489,0.13830985149802838,1.871644705735998,-1.0746379030783972,-0.6217460966051729,0.10135699268691511,-0.0012095193887256843,-0.0034458629068485447,-0.011440027302484189,-0.007683570748499555,-0.010190688416899914,0.5311768054962158,-1.058974568043844,1.5896492004394531,-0.006878677998678029,1.5774109363555908,0.003587402869015932,0.10580632835626602,-0.14783740043640137,0.2490801364183426,-0.0998765379190445,0.09335711598396301,0.06967628747224808
-0.4349526292316538,-0.3840155541376025,0.13831032892215125,1.8715625964869531,-1.0746723695745435,-0.621691582886913,0.10103095046761953,-0.0014012628832164346,0.0004678845331857351,-0.008094576471086586,0.0028654904475928604,9.121349625631006e-05,0.532051682472229,-1.0601609388934534,1.5915675163269043,-0.007645908986226857,1.5781415700912476,0.004103098995983601,0.10529500246047974,-0.1533469557762146,0.2467791587114334,-0.09949304163455963,0.08813199400901794,0.057140786200761795
-0.4341583910591425,-0.3840229193319158,0.13834322140862182,1.8714164518088066,-1.07458760090563,-0.6217704287284623,0.10107673547058928,-0.001812489140932791,0.0013242072433626193,-0.005861753386183721,0.008217436832667905,0.006911056079644425,0.532878577709198,-1.0614312330829065,1.5935335159301758,-0.008508984242574513,1.5788599252700806,0.004510937258601189,0.10572962462902069,-0.1545613557100296,0.24628062546253204,-0.10126670449972153,0.08494418859481812,0.04990231618285179
-0.433346449967132,-0.38401945899736994,0.13831971769762266,1.8714548630208674,-1.0745849623923454,-0.6217583830164762,0.10176036611590392,-0.0002281796702898797,-0.00026691199620701287,0.0047779948006181835,0.002534043726560787,0.0041947238897564465,0.5337051153182983,-1.0626300016986292,1.5955352783203125,-0.009275738392965138,1.5795665979385376,0.004906791262328625,0.1048731580376625,-0.1532319039106369,0.24796800315380096,-0.09395632892847061,0.0896659716963768,0.04542021453380585
-0.43252526364938604,-0.3840080651090358,0.13829010968289818,1.871552871184017,-1.0746247256902397,-0.6217286782334401,0.10210381756791848,-0.000732906889580942,-0.0016302183195468234,0.004650573607725861,0.001647758309377665,0.0060320499535699325,0.5345316529273987,-1.0638287703143519,1.5975489616394043,-0.009983364735738576,1.5802853107452393,0.005302645266056061,0.10606198757886887,-0.1510971039533615,0.24836428463459015,-0.09575396031141281,0.08882708102464676,0.045587994158267975
-0.43169752495968033,-0.3840177832069058,0.13828225316417225,1.8715719820588352,-1.0745277121810735,-0.6217230640220199,0.10104748887130334,-6.935843717916758e-05,-0.0007592654593704412,0.006354211119260149,0.006983431604483822,-0.0011389127468878144,0.5353944897651672,-1.0650628248797815,1.5995631217956543,-0.010786835347310841,1.5809799432754517,0.005674530752003193,0.10548675060272217,-0.15176182985305786,0.24697090685367584,-0.09735984355211258,0.09664079546928406,0.04525243490934372
-0.43092061295632766,-0.38399430372408094,0.1382754585807468,1.8715369217392859,-1.0745698078622559,-0.6218310281777023,0.10086152103094265,-0.0005072282274402472,0.0003734215109809322,-0.003232865145630301,-0.001326110389137894,0.0028070284448345334,0.5361734628677368,-1.0662615934955042,1.6015162467956543,-0.011565510426656544,1.581746220588684,0.006058025639504194,0.10470697283744812,-0.15187688171863556,0.24346832931041718,-0.09141567349433899,0.08628642559051514,0.053713299334049225
-0.43009695612940657,-0.38400483963458687,0.13827547563500814,1.8714979403428376,-1.0746256394080984,-0.6217038553288831,0.10021585851745651,-0.0007377976381385966,0.0010672316677501784,-0.017337765107552618,-0.002013326384369272,-0.006553144610828281,0.5370360016822815,-1.067484203969137,1.603482723236084,-0.012284580861226857,1.5824289321899414,0.006586455274373293,0.10502655059099197,-0.15255439281463623,0.24280360341072083,-0.09652095288038254,0.0884435847401619,0.06934072822332382
-0.4293047194981626,-0.3839932206470391,0.13827072256555367,1.8713487127515929,-1.0747676648614433,-0.6217052413362186,0.10065853153521151,0.00011482431259394259,-0.001263369044219964,-0.008293458443127365,-0.00528911451969365,-0.009404927362126982,0.537850558757782,-1.0686948935138147,1.6054482460021973,-0.01308757463564092,1.5831955671310425,0.007138104178011417,0.10519273579120636,-0.14956313371658325,0.2442353069782257,-0.09347695857286453,0.09410014003515244,0.0655776783823967
-0.4284872489081535,-0.3840028624977845,0.13825394848388703,1.871266480969896,-1.0748300282758516,-0.6216103318803454,0.09994923300345952,-0.00116348823061853,-0.0006155620132172741,-0.005692276088436199,0.0012580321196724933,0.0017374445194318702,0.5387133955955505,-1.0698931852923792,1.6074256896972656,-0.013879124318258107,1.5839018821716309,0.007678143214434385,0.10580632835626602,-0.14847655594348907,0.24071994423866272,-0.09541840106248856,0.08779643476009369,0.05546299368143082
-0.4276954346754182,-0.38402657410529245,0.13829232320001078,1.871204379970023,-1.0747250633392966,-0.6216343121576401,0.09977415494825227,-0.00019920100956429373,-0.0020140572578651664,0.0065765435547129325,-0.0007346415520723612,-0.0002163788174062535,0.5395762324333191,-1.0711162726031702,1.6092839241027832,-0.0146105925189417,1.584608554840088,0.008073622360825539,0.10529500246047974,-0.14568983018398285,0.23968450725078583,-0.08918660879135132,0.09378854930400848,0.04796086996793747
-0.42689356089385305,-0.3840247416760998,0.13825602051063218,1.8712945449888905,-1.074753539319749,-0.6216156905480135,0.1008111084219116,-0.0007321641852266568,-0.0009573245708720174,0.00813362194160374,0.0008802780852928856,0.010199899504425375,0.5404148101806641,-1.0722549597369593,1.6112136840820312,-0.015305821095601857,1.5853391885757446,0.008469476364552975,0.1062537357211113,-0.14800357818603516,0.24015748500823975,-0.08798818290233612,0.0866699144244194,0.041369546204805374
-0.42608239742427445,-0.3840118080348076,0.13823341511913753,1.87142818218883,-1.074691665848894,-0.6216207099059247,0.09978581592755119,-0.0005501915307198735,-0.0005289246092885629,0.008622056689130256,0.007032886621949317,0.0035960988876090824,0.5412417054176331,-1.0734418074237269,1.6131796836853027,-0.01600057283510381,1.586033582687378,0.008781815879046917,0.10639435052871704,-0.14783740043640137,0.23884081840515137,-0.09179916977882385,0.09431585669517517,0.04163319990038872
-0.4253016371792105,-0.38401438215527034,0.13825975842318436,1.8713766109087082,-1.074639066474035,-0.621758221179018,0.0995604387218929,-0.0006977768581443202,0.0014125687462958148,0.005045038662221439,0.006200585543015509,0.003057435465414947,0.5420802235603333,-1.0746524969684046,1.6150493621826172,-0.016743961964742482,1.5868241786956787,0.009141717106103897,0.10647105425596237,-0.14972931146621704,0.23601573705673218,-0.08813199400901794,0.09309346228837967,0.04496481269598007
-0.42451673084755503,-0.38403042503037793,0.13827288277980385,1.8713252237868498,-1.0745175976789596,-0.6217901554225614,0.09916820778555088,-0.00039158211398356534,0.0010864344357846727,0.0023535609313553585,0.00715196813933534,-0.001151205323503924,0.5429307222366333,-1.0758393446551722,1.6169195175170898,-0.017523113881246388,1.5875184535980225,0.00951360259205103,0.1062537357211113,-0.14934581518173218,0.2363736629486084,-0.09098424017429352,0.0956580862402916,0.04851214587688446
-0.4237071863924044,-0.38403807906915427,0.1382742087695771,1.8713064153008212,-1.07451890284895,-0.6218237226816788,0.10055456913557476,-9.305723184331244e-05,-2.2986687812088802e-05,-0.0029231721054234702,-0.0031447808344794055,-0.006578718149402418,0.5438055396080017,-1.0770381132708948,1.6188368797302246,-0.01825410524477178,1.5882971286773682,0.009945409372448921,0.10744257271289825,-0.14891119301319122,0.23838062584400177,-0.08712531626224518,0.09644904732704163,0.06035256013274193
-0.4228868961112682,-0.38405044920646036,0.13827036715284505,1.871308534273971,-1.0745858418828358,-0.6217239137923316,0.10152141178957119,-0.0011207131212937415,-0.00020025653061927012,-0.012285901016916553,-0.012837836236783244,-0.0014133854393256415,0.5446923971176147,-1.0782244841205042,1.6207432746887207,-0.0189135710345667,1.5890274047851562,0.010461105033755302,0.10869532078504562,-0.14810584485530853,0.23719178140163422,-0.08314655721187592,0.08652611076831818,0.06970025599002838
-0.4220775480100925,-0.3840671738008487,0.1383097866731614,1.8712150129422689,-1.0745338479091249,-0.621627789693284,0.10018320747211698,-0.00013395680667438066,0.00012534844657123906,-0.0044982452059165665,0.0014338665264896702,-0.005271932781702557,0.5455672740936279,-1.0794709364520472,1.6226248741149902,-0.019620720540181935,1.5896861553192139,0.01095320750027895,0.107583187520504,-0.1491284966468811,0.23830391466617584,-0.0915115475654602,0.09596967697143555,0.05886651575565338
-0.4212820575226419,-0.38407671147262723,0.13829264485952464,1.8712079945143967,-1.0745898977563142,-0.6216571612202992,0.10119400515716932,-0.0010232178056567487,0.0006682314736692313,-7.705348082060609e-05,0.00014171725775855362,0.0041192262556406616,0.546441376209259,-1.0806096235858362,1.624495029449463,-0.02032787004579717,1.5904890298843384,0.011409357190132141,0.10938561707735062,-0.14934581518173218,0.23664210736751556,-0.08631039410829544,0.09093630313873291,0.052395034581422806
-0.420458303570705,-0.38409081317800314,0.1382917180009882,1.8712953866216213,-1.0744526365366291,-0.6216814903337129,0.10042875336395864,2.8639718107341713e-05,-0.0013306423324808538,0.0077247801185294715,0.0029018986667385706,0.001862953470006836,0.5473401546478271,-1.0818083922015589,1.6264123916625977,-0.021035019551412404,1.5912193059921265,0.01173293124884367,0.10803060233592987,-0.1464696079492569,0.2377542406320572,-0.08865930140018463,0.09577792882919312,0.045827679336071014
-0.4196563562249464,-0.38409660932657985,0.13828934259385928,1.8713096720779037,-1.0744284027709532,-0.6217306341588591,0.10026742300556797,0.00010191823235438779,-0.0022490262637835374,0.010064114907740743,-0.0031727210575228197,0.004267305065590674,0.5482150316238403,-1.0829828421222132,1.6282949447631836,-0.021742169057027638,1.5919979810714722,0.012129159644246101,0.10755762457847595,-0.14370843768119812,0.23547883331775665,-0.08271512389183044,0.0926859974861145,0.04542021453380585
-0.4188454073248251,-0.38408746010879774,0.13829049914113462,1.87139267528622,-1.0744121313922723,-0.6217841618408435,0.10011033853674152,0.0002432432792643345,-0.00167444348601239,0.00483571443048942,0.00012170523525563762,0.005618451038842131,0.5490775108337402,-1.0841816107379358,1.6302003860473633,-0.022389713917867482,1.5927761793136597,0.012488686479628086,0.10699516534805298,-0.1454852968454361,0.236833855509758,-0.08777246624231339,0.0896659716963768,0.04683435335755348
-0.41804373119984745,-0.3841030719806475,0.13827901614562826,1.8714382925592004,-1.0742970289644105,-0.621811537387829,0.10026947691622198,0.001153995195946719,-0.0019281253503238374,0.005895811962703133,-0.0030761515841524686,1.6072616281635754e-05,0.5499639511108398,-1.08533221880068,1.632070541381836,-0.023120705281392873,1.5935068130493164,0.012836603447794914,0.10661166906356812,-0.14558756351470947,0.23738352954387665,-0.0848243460059166,0.09378854930400848,0.05011802911758423
-0.4172111788837167,-0.384096288025965,0.1382318374242934,1.8715278534119952,-1.0743707364603954,-0.6217352766507257,0.0999568962814854,0.0014309593688163994,0.0006293664548170808,-0.0073498574505244454,-0.00665591375409557,-0.004497909702140465,0.5508508086204529,-1.0864828268634241,1.6340360641479492,-0.02380401292909795,1.5942610502243042,0.013304737396538258,0.10562736541032791,-0.14934581518173218,0.23583677411079407,-0.08309862017631531,0.0902412161231041,0.06330067664384842
-0.41642428435616075,-0.38405569260818284,0.13820015823887472,1.8714630653201554,-1.074564248375514,-0.6216716984371915,0.09938621386078181,0.0020651104272218206,-0.0007624881349477348,-0.01253851647254782,-0.009552005750646728,-0.014918174989609678,0.5516414046287537,-1.0876453558551233,1.6359782218933105,-0.024523083363668263,1.5949918031692505,0.01385676022619009,0.10519273579120636,-0.14726215600967407,0.2365526258945465,-0.08587896078824997,0.09592173993587494,0.0734393298625946
-0.41562194223836313,-0.38405041204145796,0.13818547410572174,1.8714560071020345,-1.0746932617014464,-0.6215761879556749,0.09945269389722251,0.0015817033462336048,0.0001838553165934582,-0.008133580166058703,-0.00837667803102794,-0.0027750464875655537,0.5525042414665222,-1.0887959639178675,1.637847900390625,-0.025158230458394826,1.5957340002059937,0.01439642533659935,0.10497541725635529,-0.147735133767128,0.23422609269618988,-0.08197209984064102,0.08738896995782852,0.06349242478609085
-0.4148133910714629,-0.3840736118236761,0.1381906864853037,1.871461159098345,-1.0746349477353676,-0.6215187551080584,0.09877652675403673,0.0012762044727526894,0.00040060855592215336,0.0032317128675382265,-0.0005812142567246589,-0.00031335490223362295,0.553415060043335,-1.0899584929095667,1.6396818161010742,-0.025829617177144826,1.5964527130126953,0.014840216375887394,0.10587023943662643,-0.14636734127998352,0.23133708536624908,-0.08134891837835312,0.09292568266391754,0.05078914761543274
-0.41403404324207593,-0.38405511935412606,0.1381912541498746,1.8714759246335921,-1.0746527057199824,-0.6215640337452704,0.0985236361413744,0.0006476583090406997,0.0014518203256252925,0.004404613683219698,0.008336633426114778,0.0028188030104780853,0.5542415976524353,-1.0911214987384241,1.6415276527404785,-0.026489082966939748,1.5972073078155518,0.015236069448292255,0.10699516534805298,-0.147735133767128,0.23072350025177002,-0.08643023669719696,0.09405220299959183,0.04484497010707855
-0.413223665670601,-0.38408213567707905,0.13820653359850013,1.8715189154629286,-1.0744980531167925,-0.6215572843920688,0.09920155506648465,0.00125528659815686,0.002310552903695905,0.004896903348188444,0.0043436421160202646,0.00367439961636205,0.5551639795303345,-1.0922959486590784,1.6433496475219727,-0.027159992848531544,1.5979256629943848,0.015596345998346806,0.10668836534023285,-0.14972931146621704,0.2308896780014038,-0.08089352399110794,0.09218265861272812,0.0457318052649498
-0.4124332229913368,-0.3840677770627304,0.138209213912669,1.8715294119424761,-1.0745005289441416,-0.6216178384441248,0.09841438572891337,7.920079631022101e-05,0.002318916879689303,-0.011358159718541816,0.001559394148127606,-0.007750253273248034,0.556014895439148,-1.0934713522540491,1.645207405090332,-0.027831379567281544,1.598704218864441,0.01599220000207424,0.10855470597743988,-0.14783740043640137,0.22812850773334503,-0.08568721264600754,0.09606555104255676,0.065601646900177
-0.4116271384809722,-0.3840993423119261,0.1382557666299934,1.8713904830745902,-1.07440333901499,-0.6216194998339138,0.09912802188500629,0.00013334284194921727,-0.00010592754460490954,-0.0020455231761008566,-0.001267604553284108,0.0037565896174216185,0.5569496154785156,-1.0946934858905237,1.647017478942871,-0.028562370930806935,1.5994585752487183,0.016471942886710167,0.10837574303150177,-0.14451377093791962,0.22943240404129028,-0.08326639980077744,0.08916264027357101,0.054192665964365005
-0.4108600228868711,-0.3840765644102417,0.13827059646191295,1.8713854711553788,-1.0744465090879136,-0.6216468045683387,0.09861019144399583,0.0007053671949279721,7.195480827767516e-05,-0.0045817282701980586,-0.003858776600124396,-0.006754538505384294,0.5577638149261475,-1.0958564917193812,1.648815631866455,-0.02917367616762334,1.6002014875411987,0.01689176633954048,0.10832460969686508,-0.14406636357307434,0.22798790037631989,-0.08113320916891098,0.09644904732704163,0.06248575076460838
-0.4100789914408453,-0.38407686444589434,0.13825196340343082,1.871335766607275,-1.0744844247178438,-0.62160143626155,0.09927752863159311,-0.0003117422461740788,-2.9739273361604536e-05,-0.0025634606262019966,0.00080198193790261,0.0011581750335174813,0.5586267113685608,-1.0969708601581019,1.6506376266479492,-0.02988130251039678,1.6009318828582764,0.01738349348306656,0.11031878739595413,-0.1441047191619873,0.22842252254486084,-0.08456069231033325,0.09342902153730392,0.05589442700147629
-0.409263078507026,-0.3840826978786328,0.1382492767777452,1.8714166442345548,-1.0744349905780162,-0.62158454220619,0.09885273879126524,0.000702411158563849,0.0016012715601814833,0.0032279493230438078,0.002967096611002154,-0.0024448875707694454,0.5595374703407288,-1.0981338659869593,1.6524834632873535,-0.030504528676168263,1.6016864776611328,0.017779720947146416,0.10941118001937866,-0.14626507461071014,0.22673514485359192,-0.07952731847763062,0.09877398610115051,0.05201153829693794
-0.4084867040299392,-0.38408764814041274,0.13825283854173775,1.8713946050257475,-1.0744253454231167,-0.6216079740060344,0.09992459785213696,-6.686749177199115e-06,0.0002866351655264839,-0.002507684249234969,0.0007491518370111548,0.003173010390006236,0.5604123473167419,-1.0992606321917933,1.6542572975158691,-0.031163517628804982,1.6024527549743652,0.018211528658866882,0.11077897995710373,-0.14553643763065338,0.22943240404129028,-0.08400941640138626,0.0920867845416069,0.055103469640016556
-0.4076839091293527,-0.3840674575936255,0.13823756849184884,1.8714503733512278,-1.0745101552653302,-0.6215588697482772,0.10020489179356375,0.001018396548265798,0.00013546870743921737,-0.0011845997978905606,-0.0018667113410430654,-0.0004627107981742158,0.5612744688987732,-1.1004112402545374,1.6561155319213867,-0.03176290193666631,1.6032073497772217,0.01867966167628765,0.11008869111537933,-0.14626507461071014,0.23068514466285706,-0.08151669800281525,0.0944836363196373,0.056829195469617844
-0.40688638312676423,-0.3840462809389756,0.1382395336456132,1.8714449452287456,-1.074512268570771,-0.621622729223268,0.10091069420147647,0.0016293512666387929,-0.0006657655383844046,0.0038178005065186635,-0.005079069908471248,-0.003381913146525691,0.5621373057365417,-1.1015976111041468,1.6579852104187012,-0.03244620958437139,1.6039975881576538,0.019087500870227814,0.11074063181877136,-0.14563868939876556,0.2315799742937088,-0.0776098445057869,0.09882192313671112,0.05644570291042328
-0.4060895659734773,-0.3840355750394553,0.13822674726471257,1.871455600700949,-1.07457082284105,-0.6215791909729232,0.10092401880034983,0.0003445933594757912,-0.0010649672209254505,-0.0006623524226381655,-0.0039780333489805066,0.002776999253799369,0.5630121827125549,-1.102736775075094,1.6598191261291504,-0.03308135667909795,1.6047521829605103,0.01956724375486374,0.11212121695280075,-0.1441047191619873,0.2304294854402542,-0.0812770202755928,0.09309346228837967,0.056829195469617844
-0.4052852019578213,-0.38401851701980616,0.13822078070821783,1.8714654806545485,-1.074570994460418,-0.621576950250624,0.09990778371846863,0.0012059320195805937,-0.000299208026578997,-0.001875964155992317,0.0005543170450513953,-0.004829223788622425,0.5638866424560547,-1.1039107481585901,1.6616888046264648,-0.03375274339784795,1.605506420135498,0.019999423995614052,0.11100907623767853,-0.14528076350688934,0.23017382621765137,-0.08420116454362869,0.09942113608121872,0.05886651575565338
-0.40450040701269324,-0.38399465433609287,0.1382309319425806,1.8714279169239645,-1.074635729935315,-0.6215974419320534,0.09965138451483585,0.0008117062266347283,-0.00035984244294076976,-0.00548397022889522,-0.005054920466395052,-0.00113514301108264,0.5647371411323547,-1.1050856749164026,1.6635112762451172,-0.03438789049257451,1.6062849760055542,0.020467184484004974,0.11062557995319366,-0.14370843768119812,0.22748935222625732,-0.08015049993991852,0.09285377711057663,0.062078285962343216
-0.4036970735691986,-0.3839848291195795,0.1382364592292132,1.871436050125676,-1.0746253018549863,-0.6215702331144903,0.09923517128695215,-0.0002087566455571484,0.0008104744099347645,0.0013107156024889308,0.005793057636563213,0.0008375509043193931,0.5656239986419678,-1.106260124837057,1.6653447151184082,-0.03502351442445928,1.607027292251587,0.020910974591970444,0.11296490579843521,-0.14396409690380096,0.22466427087783813,-0.08285893499851227,0.09896573424339294,0.05225122347474098
-0.4029033713309711,-0.3839677999171468,0.13824324079846573,1.8714761314537862,-1.0746450735683237,-0.6216936913000939,0.10076119697664938,-0.0003845646616711199,-0.0020023391625049675,0.0069943223026887325,-0.0051277128112498654,0.0029715280456776814,0.5665104389190674,-1.1074231306659144,1.6671547889709473,-0.03563434282411748,1.6078897714614868,0.021294845268130302,0.11488237977027893,-0.13960504531860352,0.22523951530456543,-0.07545268535614014,0.09822271019220352,0.05309011787176132
-0.40209937096235354,-0.3839578887359057,0.13826225288602276,1.8715430390990992,-1.0746717923077964,-0.6216917230548842,0.10055139274601563,-0.0008413664957261937,-0.0014376001393853804,0.0007870893601129511,-3.0424931260139565e-06,-0.0043810092646500015,0.5674092769622803,-1.1085975805865687,1.6689410209655762,-0.03616172472109014,1.6086803674697876,0.021727025508880615,0.11664646118879318,-0.1405126452445984,0.22538013756275177,-0.08204400539398193,0.10488594323396683,0.05980128422379494
-0.4012904810994385,-0.3839708035791916,0.13826359497351376,1.8714957625412045,-1.0746475669226812,-0.6217248041961332,0.10088709136815918,-0.0015775710444021892,-0.000737300224843033,-0.0010334712040734814,-0.0011334397741528876,0.005620163393569508,0.5683556199073792,-1.1097481886493128,1.670750617980957,-0.036856953297750294,1.6095069646835327,0.022194785997271538,0.11695325374603271,-0.14104953408241272,0.22393563389778137,-0.08017446845769882,0.09541840106248856,0.05680522695183754
-0.40049882750208365,-0.3839775579560574,0.1382197052712547,1.8715153570711611,-1.0746957198040368,-0.6216425739834394,0.1014443946215074,-0.001540419546718368,0.00018627847664214706,-0.001191168667928351,0.0008531732266479526,0.003304925011084283,0.5692664384841919,-1.110802952443258,1.672536849975586,-0.037516419087545216,1.6102612018585205,0.022698871791362762,0.11825713515281677,-0.14310762286186218,0.22439582645893097,-0.08024637401103973,0.09901367127895355,0.057811904698610306
-0.3996880913946606,-0.3839841632093668,0.1382200752116376,1.871545813985708,-1.0747152040022137,-0.621674783079463,0.10089350404998612,-0.0018797891730773031,0.00030457868368032254,-0.002237645449513201,0.004348051749424368,0.0035670030905324904,0.5702127814292908,-1.1119416395770472,1.6743226051330566,-0.038115803395406544,1.6111116409301758,0.02315427176654339,0.11858949810266495,-0.14250682294368744,0.2232069969177246,-0.08314655721187592,0.09958891570568085,0.05697300657629967
-0.39890059890601975,-0.3839990662098135,0.1382382126861531,1.8714259511550217,-1.0746521513978788,-0.6217537111405617,0.10114912815126129,-0.0018364818376334453,0.000559361133685852,-0.0047275218172571284,-0.0036063719964030995,-0.0003173608040379153,0.5711472034454346,-1.1130927244769495,1.6760849952697754,-0.03884727159609014,1.6119378805160522,0.023610422387719154,0.1191391795873642,-0.14181652665138245,0.22080375254154205,-0.07574030756950378,0.10021208971738815,0.06473878771066666
-0.39811153216494155,-0.3840134733789902,0.13822324168970107,1.871512062788834,-1.0747334347802546,-0.6215959169671494,0.09077295560860599,-0.0012923958729429525,-0.0011720331063434627,0.005236131896495466,-0.0044505906352031895,0.0013541876491549032,0.5720700025558472,-1.1141474882708948,1.6777749061584473,-0.03932649294008428,1.612668514251709,0.024138476699590683,0.10694403201341629,-0.1241118311882019,0.19773012399673462,-0.06478672474622726,0.09218265861272812,0.05098089575767517
-0.39740875469142234,-0.38403281044522064,0.13824645487208428,1.8715368481227534,-1.074630752757559,-0.62160617193558,0.08376830267940487,-0.0026020366656150317,0.0009692957858060893,-0.0011642233184319326,0.005343850041526998,0.008708156382437108,0.5729085206985474,-1.1151540915118616,1.6792850494384766,-0.03984195390810186,1.6133508682250977,0.024486394599080086,0.10030956566333771,-0.11764354258775711,0.1818278580904007,-0.06732738018035889,0.0800785943865776,0.044030044227838516
-0.39679253031222195,-0.3840503404063573,0.1382805496763186,1.8714444894595719,-1.0745045749775999,-0.6216899105591048,0.07547821400389332,-0.0014940135696024052,0.002118770723542549,-0.0025631350517995935,0.010348467473019415,0.0010297376450007986,0.5736515522003174,-1.1160772482501429,1.6806392669677734,-0.04040509859193975,1.6139856576919556,0.024798357859253883,0.09023642539978027,-0.10956458002328873,0.16597671806812286,-0.06459497660398483,0.0788082629442215,0.041489388793706894
-0.39622773822684254,-0.384065088337946,0.1383197588409429,1.8713481279496356,-1.0744532830068072,-0.6217446681844793,0.06984472404387025,-0.001170140055902495,0.0030158463796650025,-0.0034771756063998113,0.006238679826011544,0.0023756226779527503,0.5743342638015747,-1.1169284025775355,1.6818618774414062,-0.04087239900697881,1.6145844459533691,0.02513391710817814,0.08282218128442764,-0.10257218778133392,0.15199193358421326,-0.05471997335553169,0.06972422450780869,0.0397157222032547
-0.39569361146271864,-0.38406540542942846,0.13832174763024618,1.8713620440710383,-1.0744564866165771,-0.6217599714636898,0.06323116669947208,-0.00046988017597146114,0.0023800539428419196,-0.006301387813711177,0.005653423718751355,0.0008290478820427161,0.5749574303627014,-1.117683235798971,1.6830368041992188,-0.041268173848287404,1.6151354312896729,0.025433896109461784,0.07402735948562622,-0.09356004744768143,0.13979677855968475,-0.052634719759225845,0.062126222997903824,0.038421425968408585
-0.3952332050398529,-0.38406591441738247,0.1383528603167495,1.8712492452879506,-1.0744734522213568,-0.621774158690285,0.056174150603516465,0.0004713067900178123,-0.00012466173577327998,-0.0014564725212763592,0.0021867773226537657,-0.004103856504845592,0.5754963755607605,-1.1183903853045862,1.6840553283691406,-0.04165202776064092,1.615614414215088,0.02575821988284588,0.06518140435218811,-0.08027832955121994,0.12615713477134705,-0.04688229039311409,0.059849221259355545,0.03458647429943085
-0.39482073259934247,-0.38406244435288117,0.13831848320968765,1.8712403418488701,-1.0745196656667682,-0.621783661444962,0.049844597705767206,0.0008559187332342924,-0.0010855071104196382,0.0017176488697308381,-0.0027044814537042945,-0.0010077398963818235,0.5759757161140442,-1.1189301649676722,1.6850028038024902,-0.04203540483583623,1.6160573959350586,0.026022247970104218,0.05673172324895859,-0.06951490044593811,0.11176328361034393,-0.03767840564250946,0.049854379147291183,0.02883404679596424
-0.39444612073208224,-0.384049852726603,0.13831835650763993,1.8712143452267616,-1.0745215883185288,-0.6217257639809872,0.04412218001807408,0.00030268681878724144,-0.0029384915772497962,-9.40306416212823e-05,-0.010554913286406285,0.004534659118088584,0.5763831734657288,-1.119481388722555,1.6858654022216797,-0.04234677950014287,1.6163690090179443,0.026261931285262108,0.04975211247801781,-0.05735810101032257,0.0978807583451271,-0.03043993189930916,0.03612045571208,0.027611656114459038
-0.39410428372647754,-0.3840685813584876,0.13827304441456134,1.8713323481959951,-1.0745539808965996,-0.6215885215313165,0.0382119371355967,0.00038700002387477914,-0.0030913836831391772,0.001185301971229357,-0.011890476028670221,0.003081487193290393,0.5768026113510132,-1.119852368031637,1.686572551727295,-0.04253846803774053,1.6166566610336304,0.02649000659584999,0.043002594262361526,-0.04844822734594345,0.08427946269512177,-0.0240643247961998,0.03171025961637497,0.024687504395842552
-0.393838351698684,-0.3840628521644713,0.13822018920552184,1.8713889021331025,-1.0746014500269372,-0.6215413699877457,0.03154018149389576,0.00025843083904724307,-0.0034919493332344884,0.004772125061771921,-0.009530084313800183,0.0062744192522344875,0.5771018862724304,-1.1201522986041468,1.6871957778930664,-0.0427783171283167,1.6169079542160034,0.02665778622031212,0.035358257591724396,-0.03840065374970436,0.0697961300611496,-0.020061593502759933,0.02449575625360012,0.01555552426725626
-0.3936167353310732,-0.3840510194039319,0.1381973564902988,1.8714651783548344,-1.0746927670360977,-0.6214857846425632,0.023575482665346724,0.0008351665875788705,-0.0028178646330283977,0.0013500747725676138,-0.004508043089855742,-0.005854878372735364,0.5773415565490723,-1.1204279104815882,1.6876873970031738,-0.04287416139711553,1.6171236038208008,0.02681395411491394,0.026870230212807655,-0.029631396755576134,0.05452023446559906,-0.019534287974238396,0.027611656114459038,0.017496969550848007
-0.3934403473883783,-0.3840592479089035,0.13815193620702315,1.8715412660046726,-1.0746679149320562,-0.6214544743212844,0.017190726582515685,-0.0001494173462267041,-0.0027563449255286776,-0.002762499384655878,-0.006197548180324493,0.0008399414735956925,0.5775572657585144,-1.1205957571612757,1.6880831718444824,-0.04304200807680303,1.6172794103622437,0.026885859668254852,0.019762786105275154,-0.01980113610625267,0.03898867964744568,-0.01483647059649229,0.013494237326085567,0.014381070621311665
-0.3933316929684897,-0.3840600641883422,0.1381538021083393,1.8715976280646407,-1.0746740408978823,-0.6214725101321018,0.011464651452984092,0.00041020962050432997,-0.002286295503254386,0.0074095522986418,-0.0008538853105967961,-0.006160575824893998,0.5776891112327576,-1.1207392851458948,1.6882987022399902,-0.043065849934713185,1.6174108982086182,0.026921812444925308,0.01413819007575512,-0.01242524478584528,0.02605210803449154,-0.008580705150961876,0.020421119406819344,0.005177185405045748
-0.39325847903036815,-0.3840625946489095,0.1381517142866505,1.871638386851732,-1.0746187403797656,-0.6214561947068139,0.004958571968629942,-0.00022729183338239704,0.001047915397694795,-0.0024505194801008254,0.007674176497684311,-0.004172544010670443,0.5777729749679565,-1.1208356062518519,1.6884546279907227,-0.0431140104876917,1.617446780204773,0.026921812444925308,0.0070435283705592155,-0.00942119862884283,0.01213123183697462,-0.010282465256750584,0.010785803198814392,0.0037390782963484526
-0.39324855186415386,-0.3840584300260085,0.13815578299682665,1.871652942681078,-1.0746094833391202,-0.6214274423932195,0.00323174857224576,-0.0004614389529931719,-0.0008641429590582073,-0.003777177584151856,-0.0015987492298058245,0.0032520009971131977,0.5777729749679565,-1.120859448109762,1.6884784698486328,-0.04310161272157842,1.6174228191375732,0.026921812444925308,0.003758253064006567,-0.0031318773981183767,0.007529288996011019,-0.0049614692106842995,-0.0015819177497178316,0.0037390782963484526
-0.3933062242966465,-0.3840487002313971,0.13817052002452018,1.8715565416809763,-1.0746547343164237,-0.6215080978417032,-0.004447092969402429,0.0011865038552923172,0.0037227513584860645,-0.007904076652259394,0.005278695950148561,-0.00692597712338002,0.5777010917663574,-1.1208232084857386,1.688382625579834,-0.0431140104876917,1.6174348592758179,0.026921812444925308,-0.0065961177460849285,-0.0018791265320032835,-0.007721036672592163,0.0010066749528050423,-0.0015819177497178316,0.003403519978746772
