el-Lennard/Robotik/Lösung/Modularbeit Code/A2_movel.csv
x,y,z,rx,ry,rz,vx,vy,vz,vrx,vry,vrz,q1,q2,q3,q4,q5,q6,qd1,qd2,qd3,qd4,qd5,qd6
-0.44335753907982367,-0.38404553770767796,0.13823235985658971,1.8713833824031338,-1.0746671498220774,-0.6216457453715061,0.0014399995815842469,-1.7131574393433027e-07,-1.0843121019197104e-06,1.5819081760393193e-06,-3.24610350280072e-06,3.0010252076401547e-06,0.523613112197881,-1.0472196853643574,1.570832352027524,-1.3839044493479946e-05,1.5708086835250288,7.120908769768501e-06,0.001433692992949073,-0.002213389013692902,0.003602457738518035,-0.0013838622628114194,0.0012357015546769269,0.0007121074480701255
-0.4433437150838485,-0.38404553935228736,0.1382323494471933,1.8713834232808364,-1.0746671392750025,-0.6216457113264986,0.0023519993165639556,-2.798156572321374e-07,-1.7710431001398063e-06,2.5837833537290097e-06,-5.3019690539659594e-06,4.901674505870942e-06,0.5236268759550717,-1.0472409336430353,1.5708669350179558,-2.7123733429945673e-05,1.5708205465230005,1.3957292996334516e-05,0.002341802156591596,-0.003615114994887678,0.00588380882777912,-0.002260176067707351,0.0020184020491193513,0.0011631608013575668
-0.44332176309021143,-0.3840455419639121,0.13823233291745818,1.871383488193112,-1.0746671225266358,-0.6216456572642876,0.0035839989585887875,-4.26385792677746e-07,-2.6987323427546745e-06,3.937193682046177e-06,-8.079190939422722e-06,7.469218294368441e-06,0.5236487335429816,-1.0472746740711738,1.5709218490443657,-4.8217729709421064e-05,1.5708393856054748,2.4813845620045278e-05,0.0035687111367685796,-0.005508535999656296,0.008965306740507308,-0.003443757703888057,0.003075876872086811,0.0017725612702126018
-0.44328899509974173,-0.38404554586230183,0.13823230824333355,1.8713835850884024,-1.0746670975261572,-0.6216455765650075,0.005183998493631794,-6.167365390714829e-07,-3.903523568528309e-06,5.694869433435935e-06,-1.1685972608997241e-05,1.080369074735253e-05,0.5236813634700186,-1.0473250363914381,1.5710038141705822,-7.970133009482794e-05,1.5708675093865145,4.102097835927417e-05,0.00516242711165028,-0.007967249043975682,0.012966602408825354,-0.004980458403342194,0.004449503914364125,0.00256415483390212
-0.4432423391133049,-0.3840455514129379,0.13823227311162167,1.8713837230506383,-1.0746670619297665,-0.6216454616630986,0.0071999979078479544,-8.565784933217598e-07,-5.421560510976258e-06,7.909540880030822e-06,-1.6230517512181653e-05,1.5005126038025295e-05,0.5237278287830724,-1.0473967387189091,1.5711205067151566,-0.00012452102766680184,1.5709075579189267,6.410011210571157e-05,0.007171108381380202,-0.011064724324602768,0.01800704748541306,-0.006915936666925172,0.00618079163147625,0.0035618632878630634
-0.4431783391318965,-0.38404555902698617,0.13823222491997245,1.8713839122992395,-1.0746670131006897,-0.6216453040473009,0.009679997187233273,-1.1516221614339171e-06,-7.288986910060735e-06,1.06339382942933e-05,-2.182102909978334e-05,2.0173558340347113e-05,0.5237915784976414,-1.0474950863414518,1.5712805564204946,-0.00018598768865629722,1.5709625039298423,9.576439442972789e-05,0.009643131914693343,-0.01487424870216324,0.024205561004529298,-0.00929557235420104,0.008311437399976574,0.004789718139742446
-0.44309315515664005,-0.3840455691612427,0.1382321607768869,1.871384164189115,-1.0746669481091715,-0.6216450942606564,0.012671996317812063,-1.507578040090647e-06,-9.541946499725077e-06,1.3920791949137944e-05,-2.856571082141251e-05,2.640902182723297e-05,0.5238764496281261,-1.0476259700185295,1.5714935424387697,-0.00026777396678934196,1.5710356545747985,0.0001379197182902726,0.012627178719387499,-0.01946885445413778,0.03168046132816475,-0.012164358360738854,0.01088340127041966,0.006271903459169358
-0.44298256318876195,-0.3840455823182931,0.13823207750171695,1.8713844912106556,-1.074666863732475,-0.6216448219005055,0.016223995285653034,-1.9301567939166396e-06,-1.2216583016373688e-05,1.7822832115176913e-05,-3.6572766126622986e-05,3.381155067252919e-05,0.5239866699684151,-1.0477958636548577,1.571769987843466,-0.00037391076703574555,1.5711306538399983,0.00019266611738919868,0.01617233923807328,-0.02492123162356429,0.0405492594641207,-0.01556676731942726,0.013938997016947322,0.008032808794853793
-0.4428419552296388,-0.38404559904631896,0.1382319716246633,1.8713849069897406,-1.0746667564548806,-0.6216444756184829,0.020383994076802203,-2.4250687638750695e-06,-1.5349040198909395e-05,2.2392789067872225e-05,-4.5950398466870074e-05,4.248117904976159e-05,0.5241268617907561,-1.0480118212120217,1.5721213523444004,-0.0005087825502778642,1.5712514857378412,0.0002622996226650516,0.020328241045918252,-0.0313036223177742,0.050928409928217344,-0.0195465907939926,0.017521002447407636,0.010097093315202317
-0.4426663392806482,-0.38404561993922814,0.13823183938677702,1.8713854262877283,-1.0746666224676786,-0.6216440431205131,0.025199992677449948,-2.998024562535749e-06,-1.897546178223471e-05,2.7683393077659532e-05,-5.680681129023417e-05,5.251794113240917e-05,0.5243020466494979,-1.048281472708128,1.5725600228537882,-0.0006771212502876267,1.5714024784568557,0.000349314673883775,0.025145201233117462,-0.03868769534270911,0.06293301542661656,-0.024146748471243772,0.021672791028033565,0.012489762388443579
-0.44245033934341094,-0.38404564563657084,0.13823167673995898,1.8713860650014507,-1.0746664576691667,-0.6216435111668077,0.030719991073380717,-3.654734662227449e-06,-2.3131991501496732e-05,3.374737441496842e-05,-6.925020804699963e-05,6.402187109247771e-05,0.5245176514957679,-1.04861301914279,1.5730993015216543,-0.000883998554630061,1.5715883096439391,0.0004564071902489477,0.0306744059802743,-0.04714439960502812,0.07667648177952258,-0.02940906491188544,0.0264384869831177,0.01523625788998717
-0.4421881954195586,-0.38404567682364704,0.13823147934696112,1.87138684016321,-1.0746662576646406,-0.6216428655718581,0.03699198925086656,-4.4009097004237576e-06,-2.785477309038594e-05,4.0637463353955516e-05,-8.338879218621441e-05,7.70930031042897e-05,0.5247795163298665,-1.0490152261724095,1.5737533908308552,-0.0011348162818132224,1.5718140130146634,0.0005864784146266876,0.03696812001608748,-0.056743794765935385,0.09227011968015604,-0.03537401148200921,0.03186314618405311,0.01836256362722957
-0.4418737635108865,-0.3840457142313995,0.13823124258138386,1.8713877699407788,-1.0746660177663925,-0.6216420912044229,0.044063987195783985,-5.242260047065475e-06,-3.3179950286216716e-05,4.840639016606002e-05,-9.933076715822921e-05,9.18313713409221e-05,0.5250939036403689,-1.0494974163487552,1.5745373753154306,-0.00143529456824254,1.5720849865064908,0.000742639657499621,0.044079928852787865,-0.06755485768748068,0.10982269008748977,-0.0420804111601732,0.037992965316686084,0.021895327390466804
-0.44150051561933484,-0.38404575863644164,0.1382309615276781,1.8713888736373785,-1.074665732993691,-0.6216411719875269,0.051983984894215095,-6.18449623167291e-06,-3.914366681919168e-05,5.7106885119898726e-05,-0.0001171843364092609,0.000108337009972247,0.5254675099031064,-1.0500694597224687,1.575467199441326,-0.0017914575604098815,1.5724070022105345,0.0009282180794132123,0.05206501697680556,-0.07964526328542551,0.12943989030867262,-0.049565104004529216,0.044875522055138284,0.025862001299326445
-0.4410615397468024,-0.3840458108610918,0.13823063098114446,1.8713901716916854,-1.074665398072784,-0.6216400908984395,0.06079998233241905,-7.233328855734568e-06,-4.5782066419865955e-05,6.679167848757175e-05,-0.0001370577033892647,0.00012670995317314374,0.5259074794397208,-1.0507417626022333,1.5765596411659366,-0.002209616290337557,1.5727862183402446,0.0011467636646714516,0.06098048549441697,-0.09308113846964608,0.1512237781061704,-0.057862571158568334,0.05256004924287255,0.030291002300570063
-0.4405495398955014,-0.38404587177335636,0.1382302454479345,1.8713916856778054,-1.07466500743687,-0.6216388299686703,0.0671999804722803,-7.994731837816561e-06,-5.060123125316135e-05,7.382238146017711e-05,-0.00015148483003935356,0.00014004784296338738,0.5264214209649399,-1.051525254250076,1.5778322806727374,-0.0026963483957320733,1.5732291935206437,0.0014020575547271346,0.06751020299267323,-0.10278741706972587,0.1669258395083733,-0.06381382416824966,0.05818832993213992,0.033535138009860035
-0.4399863400590767,-0.38404593877683574,0.13822982136140388,1.8713933510618692,-1.0746645777365476,-0.6216374429450954,0.07359997861220295,-8.756134792206431e-06,-5.542039606230698e-05,8.085308442112166e-05,-0.0001659119566786403,0.000153385732744718,0.5269877320021515,-1.0523862881379067,1.5792302824073723,-0.0032305261352165715,1.5737173087623062,0.0016833707791485387,0.07407341445040605,-0.11246626939834518,0.1825633303699188,-0.06972332434797407,0.06384554015138315,0.03679611416423273
-0.43937194023745696,-0.38404601187157633,0.13822935872155268,1.8713951678436858,-1.0746641089715845,-0.6216359298274792,0.07999997675211966,-9.517537794556664e-06,-6.023956086417542e-05,8.788378737841288e-05,-0.00018033908331434312,0.00016672362252277695,0.5276066937719839,-1.053324634571048,1.5807531057379343,-0.0038117997742590504,1.574250806954684,0.001990844766261127,0.08067344295214879,-0.12211512597881904,0.198130239496611,-0.07558714575613638,0.06953454816202552,0.04007561029309674
-0.4387063404307881,-0.3840460910575313,0.13822885752838088,1.8713971360230464,-1.0746636011417252,-0.6216342906155622,0.08639997489167305,-1.0278940613143496e-05,-6.50587256590571e-05,9.491449033138116e-05,-0.00019476620994542115,0.00018006151229799094,0.5282786142245209,-1.0543400433390122,1.582400162082707,-0.00443978822038904,1.5748299540560886,0.002324634463358587,0.08731364833808353,-0.13173142738211738,0.21362059098802078,-0.08140137495065547,0.07525825339066555,0.04337532693794421
-0.43798954063899515,-0.3840461763346979,0.1382283177818884,1.8713992555997265,-1.0746630542466948,-0.6216325253090651,0.09279997303159347,-1.1040343482034674e-05,-6.987789044690039e-05,0.00010194519328148716,-0.0002091933365715795,0.00019339940206979794,0.5290038283468719,-1.0554322437968082,1.5841708152007936,-0.005114079125450921,1.575455039354415,0.0026849085127473903,0.09399743059095313,-0.14131262443141804,0.22902844626593075,-0.08716211153225166,0.08101958928346319,0.04669698764517101
-0.4372215408620534,-0.3840462677031359,0.13822773948207617,1.8714015265734814,-1.0746624682861963,-0.6216306339076879,0.09919997117150556,-1.1801746414980863e-05,-7.46970552272027e-05,0.00010897589622474446,-0.00022362046319333168,0.00020673729183703568,0.52978269849798,-1.056600944947217,1.5860643814979534,-0.005834228991681734,1.5761263757508006,0.0030718494438801394,0.10072823326333279,-0.15085617823967948,0.2443479058490706,-0.09286546855600786,0.0868215261898843,0.050042340998063296
-0.43642260776072594,-0.38404636275040127,0.13822713788929378,1.871403889015369,-1.074661858722661,-0.6216286663232963,0.09999997093851806,-1.1896921439922758e-05,-7.52994507181714e-05,0.00010985473403667817,-0.00022542385396605996,0.00020840452801716008,0.5305949822958478,-1.0578150589029311,1.588030312008296,-0.00658085696032451,1.5768265160552446,0.0034754032082439813,0.10180164945175624,-0.15186101241196176,0.24582049164128794,-0.09329186405738153,0.0877471824960183,0.0505773072840709
-0.43562258577102575,-0.3840464579284718,0.13822653547696676,1.8714062546316919,-1.0746612483215308,-0.6216266961177961,0.10000330427015304,-1.189732408389439e-05,-7.530195887929156e-05,0.0001098576913581839,-0.00022542309117142348,0.0002084069909475579,0.5314104666374547,-1.0590291333645965,1.589994938625908,-0.007325921741360375,1.5775294185314919,0.003880560769787326,0.10206730972530068,-0.15165426422528752,0.24533082715084725,-0.09297229725890593,0.08797659820454244,0.05071103739569045
-0.43482256007758696,-0.38404655310694535,0.13822593306185316,1.8714086202508602,-1.0746606379143362,-0.6216247259117094,0.10000319315934321,-1.1897310640835752e-05,-7.53018753061414e-05,0.00010985765910567769,-0.000225423124396891,0.00020840700249931052,0.5322280561336431,-1.0602415198557633,1.5919555945914825,-0.00806840961251698,1.5782341388995484,0.004286778420253082,0.10233027546870511,-0.15144250775848886,0.24483347591192578,-0.092649785597881,0.08820367405336209,0.05084349035640484
-0.43402253539651703,-0.3840466482853648,0.13822533064750045,1.8714109858685566,-1.0746600275055493,-0.6216227557033469,0.10000306352984019,-1.1897295182623061e-05,-7.530177780008213e-05,0.00010985762046622494,-0.00022542316412907382,0.00020840701579670148,0.5330477524811981,-1.0614522129846176,1.5939122745527416,-0.008808318375066904,1.5789406785217406,0.0046940574927475075,0.10259403574484435,-0.15123094094043707,0.2443368540143453,-0.0923275303403648,0.08843142308603605,0.05097639959550018
-0.43322251171874565,-0.38404674346360385,0.13822472823390283,1.8714133514847746,-1.074659417095178,-0.6216207854927007,0.10000293896218135,-1.1897279994805573e-05,-7.530168409876882e-05,0.00010985758191598555,-0.00022542320365995586,0.00020840702830656269,0.5338695622055556,-1.062661214476476,1.5958649846833215,-0.00954565020233833,1.579649042928764,0.005102401724963528,0.10285861679007596,-0.15101959196433065,0.2438410076304733,-0.09200554736376693,0.08865986773338928,0.051109778993965585
-0.43242248900403757,-0.38404683864176203,0.13822412582102975,1.8714157170995116,-1.074658806683228,-0.621618815279776,0.10000281941101556,-1.1897265708984803e-05,-7.530159417265405e-05,0.00010985754346277965,-0.00022542324297711303,0.00020840704001709454,0.5346934918813101,-1.0638685260432839,1.5978137311398342,-0.010280407247823753,1.5803592376918618,0.0055118148857303175,0.10312402072745695,-0.15080845319724615,0.24334592500785718,-0.09168383053674149,0.08888900958729024,0.05124363044824273
-0.43162246721366426,-0.38404693381977084,0.13822352340885177,1.871418082712766,-1.0746581962697042,-0.6216168450645787,0.10000270467516606,-1.189725182734831e-05,-7.530150786932167e-05,0.0001098575051137543,-0.00022542328207239906,0.00020840705093546838,0.5355195480989378,-1.065074149334463,1.5997585199826858,-0.011012591615191525,1.5810712683940487,0.005922300758539103,0.10339024951290021,-0.15059751679688554,0.24285159409811455,-0.09136237362869778,0.08911885009243296,0.05137795578142216
-0.4308224463103624,-0.3840470289977393,0.13822292099734113,1.8714204483245336,-1.0746575858546117,-0.6216148748471146,0.1000025945609905,-1.1897238692759609e-05,-7.530142504146158e-05,0.00010985746686948544,-0.00022542332093971468,0.00020840706107102397,0.5363477374645963,-1.0662780859368688,1.601699357176342,-0.011742205358485691,1.5817851406299146,0.006333863141522609,0.1036573051056375,-0.15038677495564917,0.24235800295129326,-0.09104117045918214,0.08934939069357842,0.05151275682820773
-0.4300224262584039,-0.38404712417552356,0.13822231858647047,1.8714228139348128,-1.0746569754379556,-0.621612904627388,0.10000248888217206,-1.1897225760145758e-05,-7.53013455500983e-05,0.00010985742873684257,-0.00022542335956856133,0.00020840707043270554,0.5371780666001299,-1.0674803373750752,1.6036362485901332,-0.012469250482536332,1.5825008600056076,0.006746505847537539,0.10392518946498336,-0.15017621990220373,0.24186513971825233,-0.09072021489861179,0.0895806328327277,0.051648035433385996
-0.42922240702348274,-0.38404721935326236,0.1382217161762148,1.871425179543599,-1.0746563650197398,-0.6216109344054068,0.10000238746007105,-1.1897213748092439e-05,-7.53012692589958e-05,0.0001098573907162767,-0.0002254233979524442,0.00020840707902611624,0.538010542143097,-1.0686809051116493,1.6055691999990285,-0.01319372894335391,1.5832184321388347,0.007160232704259367,0.10419390455432445,-0.14996584389821535,0.24137299264524387,-0.0903995008659973,0.08981257795254387,0.05178379345394241
-0.4284223885727126,-0.38404731453087554,0.13822111376654878,1.8714275451508908,-1.074655754599969,-0.6216089641811756,0.10000229012315609,-1.1897201963545683e-05,-7.530119604260663e-05,0.00010985735281854314,-0.00022542343608775162,0.00020840708686365242,0.5388451707467682,-1.0698797905474287,1.607498217084426,-0.01391564264852363,1.583937862658837,0.007575047554262847,0.10446345233588042,-0.1497556392407502,0.24088155007762482,-0.0900790223301835,0.09004522749177821,0.05192003275652366
-0.4276223708745068,-0.3840474097084716,0.13822051135744912,1.8714299107566845,-1.0746551441786487,-0.6216069939547005,0.10000219670699634,-1.1897190806923148e-05,-7.530112577466114e-05,0.00010985731504214308,-0.00022542347396486626,0.0002084070939525791,0.5396819590801459,-1.071076995021781,1.6094233054349014,-0.01463499345758823,1.584659157206383,0.007990954255114244,0.10473383477494524,-0.14954559825805475,0.24039080045279151,-0.08975877330689273,0.09027858288891846,0.05205675521968788
-0.42682235389850565,-0.3840475048858894,0.13821990894889238,1.8714322763609788,-1.0746545337557825,-0.6216050237259876,0.10000210705365824,-1.1897179736028764e-05,-7.530105833833032e-05,0.00010985727739366152,-0.0002254235115761588,0.00020840710030144843,0.540520913827961,-1.072272519812861,1.611344470546961,-0.0153517831824308,1.585382321433743,0.008407956679453054,0.1050050538357112,-0.14933571331100232,0.2399007323023706,-0.08943874785938444,0.09051264557853936,0.052193962731904714
-0.42602233761571895,-0.38404760006326205,0.13821930654085726,1.871434641963769,-1.0746539233313752,-0.6216030534950433,0.1000020210113436,-1.189716955674832e-05,-7.530099361665891e-05,0.00010985723987592955,-0.00022542354891650143,0.00020840710591890285,0.5413620416906872,-1.0734663661378478,1.6132617178257502,-0.016066013587634487,1.5861073610046774,0.008826058715083655,0.10527711148469711,-0.14912597678858341,0.23941133424494135,-0.08911894009556495,0.09074741699423965,0.05233165719339225
-0.42522232199813337,-0.3840476952405866,0.1382187041333226,1.8714370075650542,-1.0746533129054299,-0.621601083261873,0.10000193843510105,-1.189715960276519e-05,-7.530093150318061e-05,0.00010985720249592767,-0.00022542358597876788,0.0002084071108160515,0.5422053493845332,-1.0746585351531976,1.6151750525857982,-0.01677768639085553,1.586834281594405,0.009245264265055881,0.10555000968662824,-0.14891638111253394,0.23892259499305005,-0.08879934417030812,0.09098289856503688,0.05246984051414883
-0.4244223070189821,-0.38404779041776294,0.13821810172626742,1.8714393731648322,-1.0746527024779533,-0.6215991130264815,0.10000185918486422,-1.1897149889698218e-05,-7.53008718919877e-05,0.00010985716525364203,-0.00022542362275783032,0.00020840711499985065,0.5430508436414382,-1.075849027954864,1.617084480051702,-0.017486803263176753,1.587563088889576,0.009665577247749182,0.10582375040596903,-0.14870691873071407,0.23843450334264965,-0.08847995428140648,0.0912190917166702,0.05260851461485082
-0.42362229265254614,-0.38404788559488867,0.13821749931967384,1.8714417387630977,-1.0746520920489466,-0.6215971427888778,0.10000178312679879,-1.1897140917141235e-05,-7.53008146780476e-05,0.00010985712815365922,-0.00022542365924351632,0.00020840711847772836,0.543898531209077,-1.0770378455785234,1.6189900053588122,-0.01819336582945663,1.5882937885882518,0.010087001596961931,0.10609833560790852,-0.14849758211881622,0.2379470481755824,-0.0881607646702354,0.09145599787241958,0.05274768142743816
-0.42282227887418034,-0.38404798077197033,0.13821689691352274,1.87144410435985,-1.0746514816184147,-0.6215951725490647,0.10000171013230993,-1.1897132198033016e-05,-7.530075977212872e-05,0.00010985709120327203,-0.0002254236954350626,0.00020840712126376712,0.5447484188508421,-1.0782249889997937,1.620891633553924,-0.018897375668673888,1.5890263863998633,0.010509541261989887,0.1063737672546753,-0.1482883637804483,0.2374602184596812,-0.0878417696216948,0.0916936184498708,0.05288734289338763
-0.42202226566015044,-0.38404807594900575,0.13821629450779588,1.8714464699550868,-1.0746508711863614,-0.6215932023070504,0.10000164007817182,-1.1897123699199433e-05,-7.530070707875769e-05,0.00010985705440388904,-0.00022542373132449986,0.00020840712336111025,0.5456005133458368,-1.0794104591344462,1.6227893695959394,-0.01959883431427123,1.5897608880451812,0.010933200207711677,0.1066500473081008,-0.1480792562447818,0.23697400324465046,-0.08752296346233565,0.09193195486311886,0.05302750096511719
-0.42122225298773885,-0.3840481711258947,0.13821569210247667,1.8714488355488033,-1.0746502607527901,-0.6215912320628401,0.10000157284571345,-1.1897115431303701e-05,-7.530065650654119e-05,0.00010985701775841072,-0.0002254237669057045,0.00020840712478316717,0.5464548214888614,-1.080594256838605,1.6246832183565123,-0.020297743254479528,1.5904972992562783,0.011357982414671286,0.10692717772791728,-0.14787025206536858,0.2364883916602029,-0.08720434055958469,0.09217100852124385,0.053168157605237625
-0.42042224083512963,-0.3840482663027475,0.1382150896975478,1.8714512011410007,-1.0746496503177054,-0.62158926181644,0.10000150832134667,-1.189710789627381e-05,-7.530060797246041e-05,0.00010985698127476823,-0.00022542380217403443,0.0002084071255367033,0.5473113500904049,-1.0817763829089362,1.6265731846206852,-0.020994103932645558,1.5912356257764964,0.011783891879164432,0.10720516047297593,-0.14766134381970644,0.2360033729152134,-0.08688589532121628,0.09241078082934652,0.053309314787282396
-0.4196222291813875,-0.3840483614796128,0.13821448729299476,1.871453566731674,-1.0746490398811095,-0.6215872915678565,0.10000144639599162,-1.1897100541449223e-05,-7.530056139010019e-05,0.00010985694495058845,-0.00022542383712235298,0.00020840712563194308,0.548170105976616,-1.0829568380828531,1.6284592730875334,-0.021687917747556185,1.5919758733603955,0.01221093261331523,0.10748399749784707,-0.14745252411015247,0.2355189362990368,-0.08656762219570535,0.09265127318555448,0.05345097449412437
-0.41882221800642006,-0.3840484566563447,0.13821388488880168,1.8714559323208224,-1.0746484294430065,-0.6215853213170949,0.10000138696497181,-1.1897093124528474e-05,-7.53005166869829e-05,0.00010985690879414256,-0.00022542387174828357,0.00020840712507743872,0.5490310959892833,-1.0841356230386916,1.6303414883707825,-0.02237918605375455,1.5927180477737104,0.012639108645158756,0.10776369075498997,-0.14724378556135626,0.23503507117719175,-0.0862495156703364,0.0928924869828789,0.053593138719172796
-0.41802220729095757,-0.384048551833055,0.13821328248495435,1.8714582979084413,-1.074647819003399,-0.6215833510641621,0.10000132992782562,-1.189708637464378e-05,-7.530047378362126e-05,0.00010985687280560402,-0.00022542390604505386,0.00020840712388209628,0.5498943269858245,-1.085312738395884,1.6322198349994006,-0.02306791016184473,1.5934621547933145,0.01306842401872881,0.10804424219553481,-0.1470351208183883,0.23455176698844868,-0.0859315702700676,0.0931344236098512,0.05373580946689208
-0.4172221970164868,-0.3840486470096831,0.13821268008143867,1.871460663494531,-1.0746472085622911,-0.621581380809064,0.10000127518820427,-1.1897079732460888e-05,-7.530043260911136e-05,0.00010985683699238358,-0.0002254239400076817,0.0002084071220560639,0.5507598058392481,-1.0864881847151375,1.634094317418213,-0.023754091338798133,1.5942082002071607,0.01349888279413307,0.10832565376514859,-0.14682652254952178,0.23406901324890342,-0.085613780558758,0.09337708444690718,0.05387898875084021
-0.41642218716519447,-0.38404874218627705,0.13821207767824104,1.871463029079088,-1.0746465981196849,-0.6215794105518069,0.10000122265354124,-1.1897073501297664e-05,-7.530039309276998e-05,0.00010985680135454368,-0.00022542397363101846,0.0002084071196078001,0.5516275394381323,-1.0876619624985953,1.6359649399884797,-0.02443773080825551,1.594956189814235,0.01393048904763753,0.10860792740728452,-0.14661798344204857,0.23358679954536662,-0.08529614113660827,0.09362047086916613,0.054022678595430466
-0.4156221777200794,-0.38404883736280554,0.13821147527534916,1.8714653946621096,-1.0746459876755838,-0.6215774402923961,0.10000117223477076,-1.1897067440801504e-05,-7.530035516647396e-05,0.00010985676589570642,-0.00022542400691226427,0.00020840711654660643,0.552497534686588,-1.0888340721899983,1.6378317069884745,-0.025118829750814697,1.5957061294244985,0.014363246871744334,0.10889106506027305,-0.146409496203495,0.2331051155371512,-0.08497864664065952,0.09386458424387549,0.054166881034587555
-0.414822168664818,-0.3840489325393394,0.1382108728727507,1.871467760243593,-1.0746453772299902,-0.6215754700308389,0.10000112384688639,-1.1897061707959465e-05,-7.530031876922773e-05,0.00010985673062165885,-0.00022542403984555232,0.00020840711288199268,0.5533697985042332,-1.09000451417484,1.6396946226140552,-0.025797389304329066,1.5964580248588358,0.014797160375275686,0.10917506865943975,-0.1462010535605687,0.2326239509543029,-0.08466129174395216,0.09410942593220965,0.05431159811292849
-0.41402215998361264,-0.3840490277158208,0.13821027047043327,1.871470125823539,-1.0746447667829084,-0.6215734997671407,0.10000107740827038,-1.189705594811864e-05,-7.530028383888779e-05,0.00010985669553634919,-0.0002254240724280758,0.0002084071086228094,0.554244337826152,-1.09117328878052,1.6415536909792299,-0.026473410564185507,1.5972118819489936,0.0152322336834519,0.10945994013469176,-0.1459926482591132,0.23214329559727118,-0.08434407115516797,0.0943549972871395,0.05445683188468574
-0.4132221516614627,-0.3840491228921602,0.1382096680683857,1.871472491401943,-1.0746441563343394,-0.6215715295013075,0.10000103283993442,-1.1897050450564082e-05,-7.530025031390041e-05,0.00010985666063766802,-0.00022542410465277093,0.00020840710377848654,0.5551211596028593,-1.0923403962764784,1.6434089161166874,-0.02714689458358599,1.59796770653752,0.015668470937972558,0.1097456814114985,-0.14578427306081812,0.23166313933181285,-0.08402697961671625,0.09460129965424807,0.0546025844143246
-0.4124221436839074,-0.38404921806857345,0.13820906566659805,1.8714748569788024,-1.0746435458842856,-0.6215695592333471,0.10000099006687573,-1.1897045663032573e-05,-7.53002181378907e-05,0.00010985662593335915,-0.0002254241365184026,0.0002084070983571218,0.556000270800269,-1.093505836874339,1.645260301978344,-0.027817842373819346,1.5987255044777096,0.016105876297100682,0.11003229441138031,-0.14557592074543627,0.23118347209225665,-0.08371001190565212,0.09484833437211682,0.05474885777690444
-0.41162213603705294,-0.3840493132449117,0.13820846326505848,1.8714772225541179,-1.0746429354327514,-0.6215675889632631,0.10000094901679026,-1.1897040505959231e-05,-7.530018726172283e-05,0.00010985659142573323,-0.0002254241680213591,0.0002084070923719407,0.5568816783996328,-1.094669610728051,1.6471078524358962,-0.028486254904541042,1.5994852816335214,0.016544453935733276,0.11031978104744616,-0.14536758411100034,0.23070428388184205,-0.08339316283377751,0.09509610276841408,0.05489565405597587
-0.4108221287075305,-0.38404940842121227,0.13820786086375797,1.8714795881278845,-1.0746423249797368,-0.6215656186910636,0.10000090962020922,-1.1897035724307003e-05,-7.530015762592514e-05,0.00010985655711649028,-0.0002254241991550554,0.00020840708582611778,0.5577653893975121,-1.0958317179340096,1.6489515712813174,-0.02915213310403253,1.600247043879526,0.016984208045489554,0.11060814323022017,-0.1451592559687313,0.23022556476432526,-0.08307642724414471,0.0953446061649219,0.055042975346635444
-0.4100221216826365,-0.38404950359748247,0.13820725846268667,1.8714819537001008,-1.0746417145252452,-0.6215636484167544,0.10000087181028788,-1.1897031130782468e-05,-7.530012918544372e-05,0.00010985652301104265,-0.00022542422991919317,0.00020840707873381534,0.5586514108057234,-1.0969921585311786,1.65079146222738,-0.02981547785946148,1.6010107971008272,0.017425142834786526,0.1108973828623853,-0.14495092914621419,0.22974730486933054,-0.0827598000131976,0.0955938458729238,0.05519082375300968
-0.4092221149501055,-0.3840495987737109,0.13820665606183544,1.8714843192707658,-1.0746411040692785,-0.6215616781403416,0.10000083552350914,-1.1897026689346057e-05,-7.530010189112745e-05,0.00010985648911166629,-0.00022542426030911292,0.00020840707110262105,0.5595397496512929,-1.0981509325012189,1.6526275289081722,-0.03047629001714558,1.6017765471929943,0.017867262528920565,0.11118750184134579,-0.14474259648659138,0.22926949439051975,-0.08244327604961603,0.09584382319539833,0.05533920138967788
-0.40842210849805916,-0.38404969394986466,0.13820605366119498,1.8714866848398786,-1.0746404936118397,-0.6215597078618303,0.10000080069854506,-1.1897022456529217e-05,-7.530007569689268e-05,0.00010985645542117145,-0.000225424290320856,0.00020840706294201344,0.5604304129764043,-1.0993080397685988,1.6544597748795904,-0.031134570382801208,1.6025443000619868,0.018310571370146664,0.11147850205769971,-0.14453425084643676,0.2287921235824973,-0.08212685029325938,0.09609453942565342,0.055488110381037195
-0.4076221023152691,-0.38404978912602866,0.13820545126075678,1.8714890504074362,-1.0746398831529298,-0.6215577375812281,0.10000076727600408,-1.1897018597240652e-05,-7.530005055678193e-05,0.00010985642193957895,-0.00022542431995185852,0.00020840705425995837,0.5613234078383419,-1.1004634802006992,1.6562882036198208,-0.03179031972179569,1.6033140616240742,0.01875507361775626,0.11177038539473333,-0.14432588509507885,0.22831518275946272,-0.08181051771440111,0.09634599584685029,0.055637552861187156
-0.4068220963909285,-0.3840498843021187,0.1382048488605133,1.8714914159734362,-1.0746392726925509,-0.6215557672985402,0.10000073519974476,-1.1897014686692456e-05,-7.530002642770109e-05,0.00010985638867190561,-0.00022542434919945592,0.00020840704506725968,0.5622187413094334,-1.1016172536079338,1.6581128185298433,-0.032443538759390655,1.6040858378057563,0.01920077354815591,0.1120631537285518,-0.14411749211712385,0.22783866229916624,-0.08149427331505127,0.09659819373207189,0.05578753097411661
-0.4060220907145454,-0.38404997947824826,0.13820424646045654,1.8714937815378758,-1.0746386622307043,-0.6215537970137738,0.10000070441573274,-1.1897011145635926e-05,-7.530000327226787e-05,0.00010985635562062168,-0.000225424378059641,0.00020840703537220936,0.5631164204770002,-1.1027693597438422,1.6599336229338972,-0.03309422818098895,1.6048596345436885,0.019647675454950848,0.11235680892913519,-0.14390906480823173,0.22736255263618277,-0.08117811212633386,0.09685113434520387,0.055938046874380636
-0.4052220852761971,-0.3840500746542705,0.1382036440605785,1.871496147100757,-1.0746380517673935,-0.6215518267269331,0.10000067487150849,-1.1897007407564442e-05,-7.529998105059356e-05,0.00010985632279161134,-0.00022542440653192802,0.00020840702518482024,0.5640164524432817,-1.1039197983051903,1.6617506200799543,-0.03374238863236467,1.6056354577845857,0.02009578364901689,0.11265135285631422,-0.1437005960768123,0.2268868442644232,-0.080862029209261,0.09710481893740419,0.056089102725216146
-0.40442208006624647,-0.38405016983034473,0.138203041660872,1.871498512662075,-1.074637441302618,-0.6215498564380263,0.1000006465174577,-1.1897004205936438e-05,-7.529995972234904e-05,0.0001098562901812386,-0.00022542443461063058,0.00020840701451241284,0.5649188443253903,-1.1050685689320625,1.6635638131401735,-0.03438802071990388,1.6064133134851513,0.020545102458588337,0.11294678736503692,-0.14349207884196516,0.22641152773390055,-0.08054601965337052,0.0973592487516245,0.05624070070132514
-0.40362207507549697,-0.384050265006351,0.13820243926133036,1.8715008782218294,-1.0746368308363812,-0.6215478861470582,0.1000006193053956,-1.1897000743962114e-05,-7.529993925172999e-05,0.00010985625779712932,-0.00022542446229651195,0.00020840700336633572,0.5658236032552275,-1.1062156712079592,1.66537320521137,-0.035031125010831055,1.607193207611972,0.020995636229327885,0.1132431142986148,-0.14328350603536802,0.22593659365357352,-0.08023007857767889,0.09761442501671826,0.05639284298561656
-0.4028220702951925,-0.3840503601823134,0.1382018368619476,1.8715032437800174,-1.0746362203686823,-0.6215459158540354,0.10000059318933942,-1.1896997622319975e-05,-7.529991960571467e-05,0.00010985622563822184,-0.000225424489584361,0.00020840699175487393,0.5667307363794304,-1.1073611046598737,1.66717879931545,-0.035671702033435615,1.60797514614144,0.02144738932441266,0.11354033549452285,-0.14307487059766016,0.22546203268560983,-0.07991420112836596,0.09787034895242515,0.05654553177226763
-0.40202206571675386,-0.3840504553582843,0.13820123446271654,1.8715056093366391,-1.0746356098995244,-0.6215439455589638,0.10000056812550812,-1.1896994719360933e-05,-7.529990075405138e-05,0.00010985619371051136,-0.00022542451647566963,0.00020840697968696129,0.5676402508592991,-1.1085048687583816,1.6689805983998676,-0.036309752277300156,1.6087591350596575,0.0219003661246121,0.11383845278051602,-0.14286616548117878,0.22498783554960566,-0.07959838248020405,0.0981270217659625,0.05669876926490849
-0.401222061332105,-0.38405055053422815,0.13820063206363137,1.871507974891691,-1.0746349994289082,-0.6215419752618501,0.1000005440710058,-1.1896991774475671e-05,-7.529988266074046e-05,0.00010985616201350523,-0.00022542454296543488,0.00020840696717163223,0.5685521538707156,-1.1096469629177195,1.6707786053380516,-0.03694527619351362,1.6095451803623326,0.022354571028362122,0.11413746797390541,-0.14265738364698677,0.22451399301775896,-0.07928261783463036,0.09838444465135811,0.05685255767641056
-0.40042205713344514,-0.38405064571014624,0.1382000296646859,1.8715103404451736,-1.074634388956836,-0.6215400049626989,0.10000052098545231,-1.1896988964734166e-05,-7.529986529699356e-05,0.00010985613055237986,-0.0002254245690526159,0.0002084069542192396,0.5694664526040779,-1.1107873864958586,1.6725728229298402,-0.03757827419489068,1.6103332880546897,0.02281000845184891,0.11443738288425681,-0.14244851806588577,0.22404049591656833,-0.07896690242025524,0.09864261879174209,0.057006899230374934
-0.3996220531132777,-0.3840507408860613,0.13819942726587464,1.8715127059970833,-1.0746337784833069,-0.6215380346615179,0.10000049882984402,-1.1896986283556591e-05,-7.529984863163029e-05,0.00010985609932467888,-0.00022542459473305632,0.000208406940836868,0.5703831542642221,-1.111926138794579,1.6743632539019049,-0.038208746656187564,1.6111234641513676,0.023266682829086966,0.11473819931077751,-0.14223956171745125,0.2235673351250715,-0.07865123149202134,0.09890154535704275,0.05716179615997821
-0.3988464252480583,-0.3840508331619092,0.13819884322213255,1.8715149994698113,-1.074633186609046,-0.6215361243931357,0.09378408074470707,-1.1157423476226913e-05,-7.061891856397451e-05,0.00010302706013344543,-0.00021141137462098863,0.00019545167079642808,0.5712742252145554,-1.1130285971150853,1.67609551793352,-0.038817597760396616,1.611891544233211,0.023710627613062,0.10787998024247834,-0.1332073442402275,0.20923963407947502,-0.07347499022551775,0.09298956803050071,0.053749749569546576
-0.39812174527280414,-0.3840509193765936,0.13819829754190094,1.871517142278355,-1.0746326336087024,-0.6215343396214553,0.08738518086387848,-1.0396151214018234e-05,-6.580058042946124e-05,9.599731866596212e-05,-0.00019698401666856657,0.0001821145932666829,0.5721088184495247,-1.1140572186851596,1.6777107847709538,-0.03938431133433529,1.6126109392421812,0.02412646956983969,0.10075882781248797,-0.12395305595708724,0.19458917517620394,-0.06821197897412312,0.08685100252886788,0.050205868324534296
-0.3974482641975001,-0.3840509995002138,0.1381977904141744,1.8715191336932966,-1.0746321196753448,-0.6215326809475199,0.08098512584930732,-9.634741179458094e-06,-6.09813725731529e-05,8.89665742552434e-05,-0.00018255692552938615,0.00016877669265795772,0.5728862303958087,-1.115011936777453,1.679209152510932,-0.03990912921871281,1.6132810431329427,0.024513851550639947,0.09358612009452302,-0.11473214563410682,0.18001559581746063,-0.06300102541773997,0.08066805041044822,0.04663548931522534
-0.39682598359848587,-0.38405107353253926,0.13819732184013978,1.871520973713411,-1.0746316448107522,-0.6215311483710529,0.0745850654088748,-8.873330343666124e-06,-5.6162160646308697e-05,8.193582794819437e-05,-0.00016812983616599012,0.0001554387922449267,0.573606071321481,-1.11589301913832,1.6805912297297438,-0.04039245835205563,1.6139015204084886,0.024872573026329243,0.0863666610290317,-0.10554370403343374,0.16551557264330036,-0.057839146265585374,0.0744448560359634,0.04304104162059836
-0.39625490346665554,-0.38405114147354164,0.13819689181979009,1.8715226623389074,-1.0746312090151864,-0.6215297418923178,0.06818500742427842,-8.111919859754359e-06,-5.134295058324328e-05,7.490508192696532e-05,-0.00015370274632843864,0.00014210089118852492,0.5742679813527678,-1.116700715408033,1.6818575814932906,-0.040834675829877654,1.6144720613185444,0.02520244865182628,0.07910398593617698,-0.09638519572075334,0.15108325089077465,-0.05272246291229096,0.0681844670690697,0.039424327691014005
-0.39573502378264647,-0.3840512033232718,0.13819650035311123,1.8715241995699767,-1.0746308122888864,-0.621528461511563,0.06178495184998997,-7.350509868856179e-06,-4.652374234862185e-05,6.787433619360322e-05,-0.0001392756560102109,0.00012876298949173262,0.5748716290044129,-1.1174352548533903,1.683008725976399,-0.04123612768693086,1.6149923805809003,0.02550330757371643,0.07180166215409961,-0.0872540702237118,0.1367127739851383,-0.04764709282159945,0.061889957650490414,0.035787170700039235
-0.39526634452780873,-0.38405125908172,0.13819614744008846,1.871525585406794,-1.0746304546320689,-0.6215273072290151,0.055384898589195194,-6.5891001165836245e-06,-4.1704535872483186e-05,6.084359075197651e-05,-0.00012484856520822603,0.00011542508716783778,0.5754167114827506,-1.1180968463212064,1.6840451345573015,-0.041597128904793834,1.6154622176340625,0.025774993618206597,0.06446329471284994,-0.07814777305123731,0.1223982991102734,-0.0426091551821385,0.055564433373985374,0.03213141706127928
-0.3948488656842364,-0.3840513087489059,0.1381958330807079,1.8715268198495156,-1.0746301360449315,-0.6215262790448776,0.04898484754864537,-5.827690652232309e-06,-3.688533108049802e-05,5.3812845602956016e-05,-0.00011042147392100084,0.0001020871842281456,0.5759029549739323,-1.1186856782064787,1.6849672319211524,-0.04191796342416598,1.6158813368776992,0.026017365469075193,0.0570925229586155,-0.06906374574146973,0.10813399551736869,-0.03760477051812121,0.04921102845117098,0.028458934407585842
-0.3944825872348172,-0.3840513523248151,0.13819555727495764,1.8715279028982805,-1.0746298565276475,-0.6215253769593349,0.0425847986388098,-5.066281377107648e-06,-3.2066127903842595e-05,4.678210075250572e-05,-9.599438214300676e-05,8.874928068320666e-05,0.5763301149045846,-1.119201918420912,1.6857753961498436,-0.04219888415410278,1.6162495278899482,0.02623029682908306,0.04969301708152546,-0.05999942595210581,0.09391404286768539,-0.03263006033818464,0.042832902799591004,0.02477160949938115
-0.39416750916304155,-0.3840513898094394,0.13819532002282475,1.8715288345532104,-1.0746296160803719,-0.6215246009725477,0.03618475177412798,-4.304872363434061e-06,-2.7246926282559833e-05,3.97513562028079e-05,-8.156728987338165e-05,7.541137654612853e-05,0.5766979761745885,-1.1196457143625826,1.686469958799109,-0.04244011297871886,1.6165666056213632,0.0264136765645152,0.04226847461732791,-0.050952247655569126,0.07973262970966852,-0.027681146854544522,0.03643323911419488,0.02107134609917032
-0.3939036314531076,-0.3840514212027561,0.13819512132429707,1.871529614814412,-1.0746294147032365,-0.6215239510846576,0.029784706872051515,-3.5434636514640195e-06,-2.2427726152168683e-05,3.2720611958537635e-05,-6.714019710820675e-05,6.207347182760926e-05,0.577006353361755,-1.1200171928875502,1.6870512049639217,-0.04264184076190336,1.6168324105653553,0.02656740883258491,0.034822616922517334,-0.041919641426848744,0.06558395207392213,-0.022754152763903333,0.030015239921285197,0.017360062814064534
-0.39369095408987936,-0.38405144650485346,0.13819496117936297,1.871530243681971,-1.0746292523963519,-0.6215234272957813,0.023384663853571207,-2.782055355830598e-06,-1.7608527451885484e-05,2.5689868018664505e-05,-5.271310384500662e-05,4.873556654129505e-05,0.5772550908982332,-1.120316460284112,1.6875193733330922,-0.04280422735050404,1.617046808905025,0.026691413191475593,0.027359185630934365,-0.03289903481417928,0.05146221217371243,-0.017845201083006672,0.023582124621200656,0.013639690912545641
-0.3935294770587023,-0.3840514657156762,0.13819483958801182,1.8715307211559595,-1.0746291291598082,-0.6215230296060172,0.01698462264300795,-2.0206470346852403e-06,-1.2789330123554534e-05,1.8659124389521116e-05,-3.8286010081845304e-05,3.539766069520639e-05,0.5774440632184843,-1.120543602250308,1.6878746562338305,-0.04292740157638164,1.617209692636277,0.026785624692814734,0.019881939090672065,-0.023887852778796095,0.03736161719255558,-0.012950415029675009,0.017137126518101994,0.009912172117158845
-0.3934192003456713,-0.38405147883522406,0.1381947565502325,1.8715310472364293,-1.0746290449936737,-0.6215227580154405,0.010584583167087398,-1.2592389641702228e-06,-7.970134113903063e-06,1.1628381071489106e-05,-2.3858915816166257e-05,2.205975430458109e-05,0.577573174878707,-1.1206986838751494,1.688117199666862,-0.043011461257663086,1.6173209796671506,0.026849993956419373,0.01239464878916216,-0.014883518187562105,0.023276378137081007,-0.008065917938911362,0.010683489842936844,0.006179456379485621
-0.3933601239373727,-0.3840514858634425,0.13819471206601563,1.871531221923417,-1.0746289998979954,-0.6215226125241052,0.004184545356285452,-4.97831145935749e-07,-3.1509393675355247e-06,4.59763806920214e-06,-9.431821046192472e-06,8.721847378859735e-06,0.5776423606476092,-1.1207817496240287,1.6882471033326705,-0.043056473199453826,1.6173806138932985,0.02688448722717416,0.004901095765730404,-0.00588345235675371,0.00920070875581143,-0.0031878332117157705,0.004224466768299365,0.002443499639468574
-0.3933491800882654,-0.3840514871654356,0.13819470382536098,1.871531254286314,-1.0746289915370462,-0.6215225855745319,8.617714412073597e-07,-1.017309153588582e-10,-6.477563069261626e-10,1.6284996018358118e-09,-9.661352717842029e-10,2.8642848842744345e-09,0.5776551787229606,-1.1207971364708742,1.6882711656113327,-0.04306481011082308,1.6173916623461544,0.02689087783154812,1.0093085845923734e-06,-1.211753255665635e-06,1.8949875274643827e-06,-6.570880441258226e-07,8.695969045155401e-07,5.017096998129324e-07
-0.3933491800882654,-0.3840514871654356,0.13819470382536098,1.871531254286314,-1.0746289915370462,-0.6215225855745319,0.0,0.0,0.0,0.0,0.0,0.0,0.5776551787229606,-1.1207971364708742,1.6882711656113327,-0.04306481011082308,1.6173916623461544,0.02689087783154812,0.0,0.0,0.0,0.0,0.0,0.0
