el-Lennard/Robotik/Lösung/Modularbeit Code/A2_servoj.csv
x,y,z,rx,ry,rz,vx,vy,vz,vrx,vry,vrz,q1,q2,q3,q4,q5,q6,qd1,qd2,qd3,qd4,qd5,qd6
-0.4432438422725438,-0.3840451794989859,0.1382324492883113,1.8713829983487855,-1.074667552940746,-0.6216459402238667,0.0061757263479703395,1.580894848781261e-05,4.234003331236267e-06,-8.084661134049632e-06,1.908894935980475e-06,-1.9310723382060012e-05,0.5237257815248321,-1.0473952366839576,1.5711175770114671,-0.00012354360824851085,1.5709063171503024,6.3502975055097e-05,0.006126752694918859,-0.009528164786976242,0.015481693148672013,-0.005952053683060303,0.005305923174706595,0.003063377392899857
-0.44318277660626,-0.3840450335455721,0.13823249450079406,1.871382839868372,-1.0746677422920294,-0.6216460141557372,0.008579634703370928,2.0377809767730312e-05,6.3928385652784376e-06,-1.106151563269207e-05,2.3713046722172865e-06,-2.6828402501323945e-05,0.5237863866296086,-1.04748943524066,1.5712706203700626,-0.00018237086184313966,1.5709588027063452,9.38055423132333e-05,0.008515980407344605,-0.0132339188783656,0.02150036000625596,-0.008263836689414278,0.007375054700490094,0.004257992525985662
-0.4430989719072683,-0.38404485147606804,0.1382325624188177,1.8713826256528294,-1.074668004000922,-0.6216461140554742,0.011139955067547789,2.409412785560296e-05,9.061165905004502e-06,-1.4108260303636808e-05,2.659274632135951e-06,-3.483647453155717e-05,0.5238696098294828,-1.0476186748028304,1.5714805648160253,-0.00026304524118181405,1.571030876102274,0.00013541717462734002,0.011064329391697261,-0.01717813809662487,0.02790416419713623,-0.010721748493404945,0.00958198895192797,0.005532169466313615
-0.44299258997028346,-0.3840446448814428,0.13823265651049055,1.871382358143057,-1.0746683387155358,-0.6216462387645447,0.014048268334189188,2.7278128477799856e-05,1.2423254359439577e-05,-1.7456955539560566e-05,2.8007962524297277e-06,-4.3934828787054424e-05,0.5239753278530184,-1.0477826786033937,1.5717469386585436,-0.00036536706618051085,1.5711224305781133,0.00018827624937307305,0.013962982991769792,-0.021655523211658218,0.03517127210763175,-0.013509059733831666,0.012092295344262597,0.006981500638390406
-0.44286093938106114,-0.3840444205107312,0.13823278297385858,1.8713820327381272,-1.0746687561454458,-0.621646390405989,0.01728892800558146,2.966314534014917e-05,1.6538704032399077e-05,-2.1062101259816148e-05,2.749315067785904e-06,-5.4075677923641485e-05,0.5241062603999631,-1.0479855624416778,1.5720764000197847,-0.0004918715851953692,1.5712358214566693,0.00025374263813191086,0.01719792204585136,-0.026640757982995006,0.0432596480686455,-0.01660885421330354,0.014893832613102778,0.008598977549821033
-0.44270146918681175,-0.3840441872370741,0.13823294845173528,1.871381645533691,-1.0746692657653494,-0.6216465707748999,0.020843825302895264,3.101600755531061e-05,2.1451688064435664e-05,-2.487898493264227e-05,2.463987106637172e-06,-6.520382756350449e-05,0.5242650008607423,-1.0482312151383084,1.5724752304108514,-0.0006449426972849892,1.5713732946704322,0.00033311306902494343,0.0207528482106254,-0.03210457779359117,0.052120741449004505,-0.020001625391599834,0.017972485542296607,0.010376452542049719
-0.44251178319324724,-0.38404395574022027,0.13823315989969936,1.8713811932995257,-1.0746698767409226,-0.6216467813495155,0.02469327381407457,3.114537292772126e-05,2.7189546868501028e-05,-2.886546344006702e-05,1.910971606948475e-06,-7.72594474066704e-05,0.5244540033830645,-1.048523275322875,1.5729492962620537,-0.0008267975082247858,1.5715369755597703,0.00042761466402849646,0.02461005199980249,-0.03801514174671358,0.061701723212385644,-0.02366614142948982,0.02131291667750737,0.01230507291340985
-0.44228964822476474,-0.3840437381407422,0.13823342444733777,1.8713806734357301,-1.0746705978702307,-0.6216470233122974,0.028816722833368783,2.9906271300178918e-05,3.3762374008335966e-05,-3.2983168963850173e-05,1.0640929976506522e-06,-9.018029701007152e-05,0.5246755758508233,-1.0488651175999273,1.5735040257509467,-0.0010394768109591723,1.5717288627910617,0.0005384014333429927,0.028751111110101233,-0.04433914184460368,0.07194729568126311,-0.027580146408527503,0.024899171060672347,0.014375630198404831
-0.44203300619175484,-0.3840435475508466,0.13823374922708212,1.8713800839221932,-1.0746714375038962,-0.6216472975743563,0.03319116786215208,2.7216513424875953e-05,4.115539837466371e-05,-3.719764802868203e-05,-9.195050575030311e-08,-0.00010389673695333952,0.5249318688346138,-1.0492598330349825,1.5741443765647103,-0.0012848322103202747,1.5719508187858902,0.0006665487564346518,0.03315525998575738,-0.051039390217848514,0.08279580535968863,-0.0317188927674864,0.028713264204352787,0.016577745043840544
-0.441740110327991,-0.3840433966076733,0.1382341406931218,1.8713794233485572,-1.0746724029431136,-0.6216476047667362,0.037765805631549305,2.325941274251668e-05,4.922657594078537e-05,-4.14744205721046e-05,-1.5205424487730462e-06,-0.00011825234094425124,0.5252247383120316,-1.0497100201524514,1.5748744975325628,-0.0015643970222321002,1.5722044508320994,0.0008129847464717553,0.03777362298874865,-0.05803614352732118,0.09411675978669228,-0.036031419380329985,0.03271286748050417,0.0188869833853746
-0.4414100253068569,-0.3840432929237334,0.13823460241946203,1.8713786911586576,-1.0746734982935024,-0.621647945145248,0.0424296301632657,1.8754697087341725e-05,5.757289895266223e-05,-4.5775547924210847e-05,-3.077811690680582e-06,-0.00013290210943930035,0.5255552373568197,-1.0502170215061248,1.5756964951734334,-0.0018789178992548727,1.572490670874995,0.0009782360903471126,0.04249602157914244,-0.06515785902316257,0.10563141985483245,-0.040410532386229575,0.0368025625907261,0.02124825901480339
-0.44104267511467693,-0.3840432372617034,0.1382351344597193,1.8713778874109839,-1.0746747241056334,-0.6216483187097809,0.0470785824025994,1.4543345047310956e-05,6.576514737218466e-05,-5.008413083643082e-05,-4.597313961553218e-06,-0.0001475222207441302,0.5259235623203926,-1.0507808545098367,1.5766103250490007,-0.0022283161877769686,1.572809648910058,0.0011624011363911958,0.047218594814011236,-0.07224416759097793,0.11707954896058692,-0.044756441621773335,0.04089240251872579,0.023609644236288252
-0.4406386715203958,-0.38404322387711465,0.13823573373189607,1.8713770124614346,-1.0746760779718405,-0.6216487253508455,0.05163235966647756,1.1378816644050113e-05,7.343994106029127e-05,-5.4398980935684016e-05,-5.930481763387341e-06,-0.00016186254213024914,0.5263292213790016,-1.051400477813674,1.5776142256772276,-0.002611855665463736,1.5731609589492683,0.001365234167270706,0.05186092433076569,-0.07917152177084119,0.12826083340764066,-0.04899247314957981,0.0449127421327709,0.025930932594017818
-0.4401991478268116,-0.38404324149259395,0.1382363945966273,1.8713760667738126,-1.0746775551708636,-0.6216491649339062,0.056030494705912995,9.878808344902888e-06,8.030912982521245e-05,-5.872529450764996e-05,-6.954937368370412e-06,-0.00017573435525522312,0.5267711987689863,-1.0520740489639486,1.5787051377612848,-0.0030283041990202264,1.5735437212531622,0.0015862275170701922,0.05636219527779641,-0.08584711559296776,0.13902497423322935,-0.0530612361717104,0.048810913460795954,0.02818171931438657
-0.4397256207889736,-0.3840432745350105,0.13823710947510792,1.871375050840534,-1.0746791492465286,-0.6216496373311083,0.06022896375858413,1.0500857820421244e-05,8.616222505440512e-05,-6.306841108310798e-05,-7.5786566829227214e-06,-0.00018899978124121627,0.5272480914148596,-1.0527991383738247,1.579879052231802,-0.0034760678698582126,1.573956720654423,0.0018246798846470104,0.06067786998660672,-0.09220362198474835,0.14926311280633373,-0.05692130711034305,0.05254834501071452,0.03033973812563283
-0.4392198768184345,-0.38404330446843066,0.13823786945880256,1.8713739651751504,-1.0746808525169056,-0.6216501424189336,0.0641972653459151,1.3536883513367788e-05,9.086341329086911e-05,-6.743008284354479e-05,-7.740815492728037e-06,-0.00020156271143486823,0.5277582217156891,-1.0535729056041596,1.5811312968887214,-0.0039533013613120005,1.5743985042339788,0.0020797527260360193,0.0647768186678782,-0.09819465816309023,0.1589004438520455,-0.06054437395213325,0.056098076883458206,0.03238942659494134
-0.4386838790313534,-0.3840433110982773,0.13823866487560474,1.8713728103464664,-1.0746826565128356,-0.6216506800564636,0.0679159160686081,1.9121580285385263e-05,9.434474061618454e-05,-7.180666525058443e-05,-7.4101927770488935e-06,-0.00021336106363543939,0.5282997298354909,-1.054392243279871,1.5824567703279881,-0.004457997973059236,1.574867461247074,0.002350516398800742,0.06863885574596505,-0.10379089651467152,0.1678898811686515,-0.06391278849377531,0.059442627177947176,0.03432069428921527
-0.4381196921013697,-0.38404327375960495,0.13823948578915465,1.8713715870316412,-1.0746845523470316,-0.6216512500551884,0.07137431418954805,2.72500317670187e-05,9.659691100637211e-05,-7.618868846358262e-05,-6.5819385671912756e-06,-0.0002243601988550746,0.5288706484580011,-1.0552538933492048,1.5838501308291084,-0.004988062236369828,1.575361887863052,0.002635987538542953,0.07225263472724743,-0.10897674544327866,0.17620665272517136,-0.06701747858699884,0.06257216889443257,0.03612787020634762
-0.43752942224477887,-0.3840431723347658,0.13824032241836556,1.8713702960725043,-1.0746865310170561,-0.6216518521480014,0.07456892624548575,3.780062919030366e-05,9.765890474974458e-05,-8.056134905524287e-05,-5.273392440344193e-06,-0.00023454734966802532,0.529468962614408,-1.0561545398297891,1.5853059469597273,-0.005541367746534576,1.575880038977945,0.002935158971886849,0.07561385866202218,-0.11374753142719828,0.18384371289422063,-0.06985617679873721,0.06548298014906524,0.037808808006079934
-0.4369151699984173,-0.38404298807543197,0.1382411654724774,1.871368938524943,-1.0746885836470577,-0.6216524859622905,0.07750175621693461,5.05602075779496e-05,9.760735769936926e-05,-8.490555172306277e-05,-3.5194982364802896e-06,-0.0002439269267842971,0.530092656873192,-1.0570908816742666,1.5868188158192322,-0.0061158025050733755,1.576420169082327,0.0032470233105299723,0.07872376725837646,-0.11810712000701641,0.1908078701687951,-0.07243192603159065,0.06817613397546558,0.039364129569038106
-0.4362789937494007,-0.3840427042215727,0.1382420064032468,1.8713675156955183,-1.0746907016741607,-0.6216531509998695,0.08017906085385398,6.524910580447801e-05,9.654638646488105e-05,-8.91992180697028e-05,-1.3682229222343467e-06,-0.00025251658542407157,0.5307397518925874,-1.0580596889271874,1.5883834540906954,-0.006709303772225894,1.5769805639169154,0.003570591226631604,0.0815878655050691,-0.12206591956266778,0.19711653874752247,-0.0747518265584315,0.07065639727876581,0.04079658931192881
-0.4356228822450867,-0.3840423064274199,0.13824283758016082,1.8713660291628564,-1.0746928769860695,-0.6216538466249135,0.0826102785698706,8.154456375763615e-05,9.459831931019682e-05,-9.34186577657356e-05,1.123736100453604e-06,-0.0002603439468536993,0.5314083320765999,-1.0590578449304004,1.5899947663943952,-0.007319884167987567,1.5775595644236184,0.0039049052800169304,0.0842148622355001,-0.12563921750435733,0.202795031796188,-0.07682599259275691,0.07293131160359949,0.042110543474498024
-0.43494873455012883,-0.3840417830121335,0.13824365239730543,1.87136448078358,-1.0746951020166022,-0.6216545720598979,0.0848071428610832,9.910146003258021e-05,9.189560507840093e-05,-9.753986318311592e-05,3.894774776122545e-06,-0.0002674438831186364,0.5320965658431193,-1.0600823769636527,1.5916478948316226,-0.007945650525570613,1.5781555842984545,0.004249050051473745,0.08661579040240529,-0.1288458038748124,0.2078743229722146,-0.07866668993133215,0.07501043126794689,0.04331151026270587
-0.4342583461305888,-0.3840411250597449,0.13824444532195468,1.8713628726841083,-1.0746973698057702,-0.621655326388834,0.08678295447087794,0.00011756986145249397,8.857402558008054e-05,-0.00010153964147201905,6.881639750818541e-06,-0.0002738562844167153,0.5328027198055061,-1.0611304773771302,1.5933382530692286,-0.00858481679249401,1.5787671222733701,0.004602159232836151,0.08880328392634333,-0.13170684233243077,0.212389210920364,-0.08028762936310738,0.07690469709372416,0.04440580827935831
-0.4335533999338056,-0.3840403263941268,0.13824521189539118,1.8713612072404768,-1.074699674030658,-0.6216561085666674,0.08855198951090797,0.00013660920860630329,8.4767227195093e-05,-0.00010539653866842996,1.0022084657831248e-05,-0.000279624238674947,0.5335251679851486,-1.0621995169800567,1.5950615478381596,-0.009235712089648018,1.5793927700947394,0.004963420232606839,0.09079098882970138,-0.13424495305662734,0.2163768289142522,-0.08170339343986037,0.0786259264319296,0.04540026209781679
-0.4328354614972545,-0.3840393834568854,0.1382459486961792,1.871359487048872,-1.0747020090128943,-0.6216569174334626,0.09012902346849272,0.000155899213833797,8.060251014928356e-05,-0.00010909154017907374,1.3256935983620155e-05,-0.0002847925620057881,0.5342623970099478,-1.063287052191031,1.596813790297885,-0.009896784875405018,1.5800312170255566,0.005332076774597505,0.09259308897569256,-0.13648347629634291,0.21987544864240793,-0.08292897685453161,0.08018640243860058,0.046301965138332915
-0.43210597726730365,-0.3840382951118021,0.13824665327540608,1.8713577148894927,-1.0747043697078396,-0.6216577517320209,0.09152895349294667,0.00017514771597638458,7.619776433794555e-05,-0.00011260855280063875,1.6531609675782266e-05,-0.0002894066266507407,0.5350130081106005,-1.0643908272286016,1.5985912993481384,-0.010566604018453774,1.5806812515744264,0.005707429895523329,0.09422392910598672,-0.13844588908310826,0.22292353334155773,-0.08397942308207783,0.08159854761384912,0.04711809119367809
-0.4313662754339002,-0.3840370623993344,0.13824732407233306,1.8713558936863757,-1.0747067516800377,-0.6216586101276176,0.09276650357270765,0.00019409583744145494,7.165941150317938e-05,-0.00011593468673778279,1.9797138091311173e-05,-0.000293511440105549,0.5357757166011147,-1.0655087724214969,1.6003906986449732,-0.011243857457399642,1.5813417610458191,0.0060888376847670995,0.09569772002113455,-0.14015535106842905,0.2255590010916285,-0.08486954211547314,0.08287466847869135,0.047855747026032645
-0.4306175687005577,-0.38403568826126633,0.13824796031774858,1.8713540264654231,-1.0747091510687985,-0.6216594912287005,0.09385599920637049,0.00021252083858938327,6.70812018652702e-05,-0.00011906036399047387,2.3010776507348396e-05,-0.00029715093529357126,0.536549349420477,-1.0666389995443897,1.6022089087952371,-0.011927349015728339,1.5820117294112206,0.006475714054771489,0.0970283126864834,-0.14163435854135797,0.22781866413903934,-0.08561369608962277,0.08402675994318289,0.04852185942639572
-0.42986095850351097,-0.384034177250411,0.13824856193108065,1.8713521163125895,-1.0747115645471579,-0.6216603936075791,0.09481119995018578,0.00023023707669620838,6.254371242095723e-05,-0.00012197928295259314,2.6136260912072717e-05,-0.0003003674370477688,0.537332841217187,-1.0677797949343066,1.6040431359579157,-0.012615993845688678,1.5826902339183506,0.0068675267829146095,0.09822902978571087,-0.1429044884570629,0.2297378146424666,-0.08622564134178938,0.08506635942570492,0.0491230909975162
-0.42909744027871394,-0.38403253524033865,0.13824912941615017,1.8713501663337584,-1.0747139892768933,-0.6216613158203211,0.09564517980930824,0.00024709546251752685,5.8114402175141225e-05,-0.00012468826960324725,2.9143786824725737e-05,-0.0003032012750092336,0.5381252293759622,-1.068929611012443,1.6058908578684252,-0.013308812892555366,1.583376440784264,0.00726379502451859,0.09931254479804288,-0.14398621678378878,0.2313499312750738,-0.08671841702328772,0.08600444212908455,0.04966577969833343
-0.4283279094458779,-0.38403076914399803,0.13824966375936232,1.8713481796174916,-1.0747164228617239,-0.621662256425268,0.09637024684510205,0.0002629817765541132,5.384809224462575e-05,-0.00012718704424387328,3.200977377102246e-05,-0.00030569051716698367,0.538925648314904,-1.0700870567239527,1.6077498081191612,-0.014004926700055265,1.584069600256637,0.007664086461132697,0.1002908000574312,-0.1448987976762966,0.2326864847064537,-0.0871042717682569,0.08685135007617695,0.05015589787903737
-0.4275531678412266,-0.3840288866494618,0.1382501663331529,1.8713461592014762,-1.074718863300397,-0.6216632139997497,0.09699789461292933,0.0002778141661731232,4.978775437113182e-05,-0.00012947792988332596,3.471647295034269e-05,-0.0003078708019708179,0.5397333233204997,-1.0712508873121465,1.6096179593730393,-0.014703548817234235,1.584769041274797,0.008068014217776408,0.10117495647634055,-0.14566019193115687,0.23377682316318135,-0.08739462115558526,0.08761674856792409,0.05059902714805851
-0.4267739303823569,-0.3840268959782116,0.13825063880664756,1.8713441080432016,-1.0747213089409176,-0.6216641871547282,0.09753877913829005,0.0002915400994816009,4.596550838637362e-05,-0.00013156552504840074,3.725146793573733e-05,-0.00030977525012282,0.5405475641358494,-1.072419993761553,1.611493506053333,-0.015403979015559344,1.5854741659170273,0.008475233656832884,0.10197536869683327,-0.14628703489552994,0.23464812206500943,-0.08760002978384747,0.0883096046621985,0.05100034595232509
-0.4259908317935146,-0.3840248056683847,0.13825108306482117,1.871342028995113,-1.074723758436867,-0.6216651745472522,0.0980027160983205,0.0003041330058398127,4.240374570141645e-05,-0.00013345636001679817,3.960711011432444e-05,-0.00031143443999383236,0.541367758473359,-1.0735933921748746,1.6133748469399778,-0.016105596481301276,1.586184443782448,0.008885439134211696,0.1027015803804472,-0.14679463550716795,0.2353253841890141,-0.08773021272959307,0.08893818309346631,0.05136462722654046
-0.42520443325728047,-0.3840226243853644,0.13825150113681237,1.8713399247843088,-1.0747262107064464,-0.6216661748906805,0.09839869371413049,0.00031558878886922667,3.9116311812001244e-05,-0.00013515855183107023,4.177992287122262e-05,-0.00031287643303716875,0.5421933655858753,-1.0747702132902006,1.615260568007153,-0.01680785311150146,1.5868994064234985,0.009298360784764157,0.10336233517845242,-0.14719699945971068,0.23583147895963358,-0.08779405198985092,0.08951005577215229,0.05169624388228131
-0.42441522888926175,-0.3840203607596352,0.1382518951336257,1.8713377979966512,-1.0747286648946726,-0.6216671869627397,0.0987348975891445,0.00032592235749984226,3.610969518592872e-05,-0.00013668146998289943,4.377000136483733e-05,-0.000314126837749,0.5430239099989539,-1.075949692295806,1.6171494257570722,-0.017510267011003222,1.587618641917959,0.009713761388295885,0.10396559964725523,-0.14750687063304205,0.23618721132956633,-0.08779962423199326,0.09003212162892507,0.05199918026931463
-0.4236236519601213,-0.38401802325175693,0.13825226719508343,1.8713356510650505,-1.0747311203389296,-0.6216682096115271,0.09901874436150783,0.00033516428457431875,3.3384182624242684e-05,-0.00013803542161760357,4.558042842728316e-05,-0.00031520890254930004,0.5438589754808877,-1.0771311590589931,1.6190403312384496,-0.01821241626239889,1.5883417896468672,0.010131433354485141,0.10451859500107036,-0.14773578592134523,0.23641141233424415,-0.08775423679985095,0.09051063411238174,0.052277048055211446
-0.42283008080985574,-0.38401562004197803,0.1382526194456154,1.8713334862616053,-1.0747335765379789,-0.6216692417596253,0.09925692158487302,0.0003433576716939014,3.093495221944842e-05,-0.00013923136236726474,4.7216721502457704e-05,-0.00031614362955423997,0.5446981993055415,-1.0783140288516826,1.6209323348832583,-0.018913933019620188,1.58906853532601,0.01055119585422977,0.10502783513582271,-0.14789413944805657,0.23652104479808816,-0.0876644694644368,0.09095123411783768,0.05253310524025726
-0.42203484441722217,-0.3840131589443956,0.13825295395830833,1.871331305693207,-1.0747360331243831,-0.6216702824065137,0.09945543172191092,0.00035055527293852937,2.8753084134838237e-05,-0.00014028063663284324,4.8686320920102166e-05,-0.00031694990268729684,0.5455412668453505,-1.0794977936278691,1.6228246122504983,-0.019614497958635013,1.589798606323334,0.010972892116097087,0.10549916882411627,-0.14799125289250906,0.23653131886891002,-0.0875362198707442,0.09135898652848067,0.05277027725759872
-0.42123822760228624,-0.38401064734144297,0.1382532727264981,1.8713291113001835,-1.0747384898402146,-0.6216713306294781,0.09961963853649627,0.00035681690871248236,2.6826477077113112e-05,-0.00014119474930435888,4.999812593025482e-05,-0.00031764462470578597,0.5463879065174551,-1.080682013885653,1.6247164507293288,-0.020313835104722955,1.590531767282182,0.01139638689936216,0.10593782437970747,-0.14803544928187545,0.2364558130807346,-0.08737475102757715,0.09173841889526113,0.0529911793078663
-0.42044047585107724,-0.38400809213809073,0.1382535776421489,1.8713269048575554,-1.0747409465158864,-0.6216723855832432,0.0997543145131743,0.00036220718398601894,2.5140664302359486e-05,-0.00014198516943963319,5.116208183382834e-05,-0.00031824285874989394,0.5472378850944007,-1.0818663111286835,1.6266072372248155,-0.021011707044600314,1.5912678160602391,0.011821564149345789,0.10634845542928009,-0.14803412813653646,0.23630659751566688,-0.08718473952351716,0.09209356107578241,0.053198139247192966
-0.41964179976072075,-0.38400549973217746,0.13825387048019563,1.871324687978529,-1.074743403051898,-0.6216734464985019,0.09986368822211349,0.00036679351196332815,2.3679527713568175e-05,-0.0001426631652092572,5.2188819080114385e-05,-0.0003187579709675453,0.5480910033816796,-1.0830503609276363,1.6284964468265886,-0.021707910522870577,1.5920065799861765,0.012248324836189093,0.1067351867166826,-0.14799384030899307,0.23609435637124718,-0.0869703234361135,0.09242798490139335,0.05339322049123178
-0.4188423791108204,-0.3840028759993807,0.13825415288807236,1.8713224621197295,-1.0747458594032178,-0.6216745126795808,0.09995149079209541,0.0003706444342749539,2.2425912255602168e-05,-0.00014323966866499477,5.3089343398145944e-05,-0.0003192017714372976,0.5489470922572652,-1.0842338865714503,1.6303836324429215,-0.022402272415522617,1.5927479124297799,0.012676584974638723,0.10710165910667559,-0.14792036123653662,0.2358285078581442,-0.08673514913993186,0.09274484315107688,0.05357824451871529
-0.41804236657187355,-0.3840002262895832,0.13825442637965354,1.871320228587915,-1.0747483155661068,-0.621675583501377,0.10002100085815291,0.0003738282217138187,2.1362145163132118e-05,-0.00014372516820387177,5.387477464091628e-05,-0.00031958465132773603,0.5498060090628617,-1.0854166532897018,1.632268415369283,-0.023094646067928437,1.593491689676672,0.013106273819701253,0.10745107315759236,-0.14781876164511665,0.23551731986928448,-0.08648241641813961,0.09304690728606552,0.05375481265927938
-0.4172418910660471,-0.38399755543376934,0.1382546923328877,1.871317988547734,-1.0747507715670828,-0.6216766584057781,0.10007508752042144,0.00037641173467846574,2.0470466666195733e-05,-0.00014412962632108506,5.455613112284943e-05,-0.000319915714668665,0.5506676343325654,-1.08659846302141,1.6341504767505581,-0.023784907981182712,1.5942378080952386,0.01353733223101525,0.1077862308003594,-0.14769347500498328,0.23516802028946085,-0.08621492144725312,0.09333660354454322,0.05392432693429347
-0.41644106079773885,-0.3839948677582169,0.13825495199046123,1.8713157430302887,-1.0747532274538163,-0.6216777368976775,0.10011625099038247,0.0003784595196389113,1.973337965090572e-05,-0.00014446241995768466,5.514415560860242e-05,-0.0003202029036282125,0.5515318688417852,-1.0877791497012907,1.6360295498892246,-0.02447295482788192,1.5949861815809032,0.01396971119736172,0.1081095747998187,-0.14754836125502954,0.2347869011661686,-0.08593509735999422,0.09361604711581663,0.05408800978868601
-0.4156399659745546,-0.38399216710526346,0.13825520646289488,1.871313492942177,-1.074755683287695,-0.621678818540745,0.10014666071517382,0.00038003311634845057,1.9133926464254568e-05,-0.00014473230074028148,5.5649178832183066e-05,-0.0003204531165167217,0.5523986309573613,-1.0889585750317003,1.6379054133472897,-0.025158700776856335,1.5957367392612456,0.01440337051178268,0.10842322578737354,-0.1473867664889565,0.23437941624890132,-0.08564505220156116,0.09388707421123112,0.05424692260829196
-0.41483868123879847,-0.38398945685842645,0.13825545673352907,1.8713112390748337,-1.0747581391378631,-0.6216799029530469,0.10016819086280757,0.0003811905504128298,1.865590122545356e-05,-0.00014494737235835192,5.608101620937708e-05,-0.0003206723180465276,0.5532678542686958,-1.09013662470689,1.6397778847872637,-0.025842075105344975,1.5964894234444822,0.014838277587212878,0.10872901674534866,-0.14721157843843127,0.23395027163482565,-0.08534660418311286,0.09415127192824335,0.05440198296293444
-0.41403726783122397,-0.3839867399709901,0.13825570366493972,1.8713089821139248,-1.074760595076503,-0.6216809898026256,0.10018245312493168,0.00038198598624950095,1.8284005875699354e-05,-0.0001451150825425504,5.644889359600683e-05,-0.00032086564160715633,0.5541394854791961,-1.0913132050556147,1.6416468154964623,-0.02652302007684071,1.59724418779338,0.015274406402274442,0.10902852489637561,-0.14702527770137747,0.23350350944214524,-0.08504131420683518,0.09441000586720212,0.05455398055190873
-0.41323577550861335,-0.3839840189966926,0.1382559480063639,1.8713067226486726,-1.0747630511751995,-0.6216820788031057,0.10019082685160466,0.0003824695166669074,1.800395785770107e-05,-0.00014524222712510027,5.676139793291124e-05,-0.00032103748353319236,0.5550134825373093,-1.092488240068203,1.6435120855391883,-0.027201489062907314,1.598000995706663,0.015711736566872983,0.10932310100842214,-0.1468299847518301,0.23304258457587332,-0.0847305156918056,0.09466444551005124,0.054703591857191716
-0.4124342442357404,-0.3839812961216055,0.1382561904017992,1.8713044611809455,-1.0747655075022091,-0.621683169709405,0.10019448657722231,0.00038268706695946883,1.780255691766078e-05,-0.00014533496398794893,5.702644902822254e-05,-0.0003211915894764869,0.5558898129867834,-1.0936616687749634,1.6453735994825323,-0.027877444887796088,1.5987598188902712,0.0161502524974119,0.10961389617027095,-0.14662750283576304,0.23257043476067157,-0.08441534177199521,0.09491558740841355,0.054851393531791685
-0.4116327056725428,-0.38397857319617873,0.13825643139848467,1.871302198134029,-1.0747679641204742,-0.6216842623135929,0.10019442703022963,0.00038268039315968085,1.7667717771355507e-05,-0.00014539883485460703,5.7251288887560925e-05,-0.00032133113306418923,0.5567684525164321,-1.094833442943921,1.647231282643433,-0.02855085837542859,1.5995206361013954,0.01658994269176305,0.10990188612547824,-0.14641935690777305,0.2320895440973512,-0.08409674996900066,0.09516427625723903,0.054997874567263426
-0.4108311844756624,-0.3839758517672277,0.13825667145551804,1.8712999338609815,-1.074770421086273,-0.6216853564409361,0.10019148574365512,0.00038248715617024,1.7588474867573152e-05,-0.00014543879307996055,5.744248539340038e-05,-0.0003214587872123649,0.5576493836905346,-1.0960035250673261,1.6490850778070538,-0.029221707079301495,1.6002834320489436,0.01703079909455872,0.11018789327700135,-0.14620682879993926,0.2316020004584753,-0.08377554446448839,0.09541122395124152,0.05514344729649335
-0.410029699432489,-0.3839731331089547,0.13825691095241785,1.8712976686525293,-1.0747728784483634,-0.6216864519461691,0.10018636340019468,0.00038214105553688077,1.7554964815905823e-05,-0.00014545923586820053,5.760594746866826e-05,-0.0003215767884448238,0.5585325948420017,-1.0971718866080948,1.6509349423693074,-0.02988997417693895,1.6010481964349674,0.017472816543870336,0.11047260649135786,-0.14599098883900066,0.2311095470784127,-0.0834523961123813,0.09565702673569045,0.05528845729619432
-0.4092282797987528,-0.38397041797512627,0.13825715009915301,1.8712954027169588,-1.0747753361571841,-0.6216875487262186,0.10017580368361254,0.0003817381290603546,1.7534741397068753e-05,-0.00014546847360637216,5.7762698722069183e-05,-0.0003216743883666974,0.559418061544845,-1.0983384845298616,1.6527808114265894,-0.030555635386260604,1.6018149079135278,0.017915983492970695,0.11075220716863773,-0.14576723681992512,0.23060502052715318,-0.08312482898344518,0.09589837832352888,0.05543099277952322
-0.4084271409837673,-0.38396770366521327,0.1382573878836169,1.8712931359149418,-1.074777793059777,-0.62168864688016,0.10012377420430872,0.00038189668929350184,1.7306222121364294e-05,-0.00014550774725003573,5.805956731836509e-05,-0.00032163317419943785,0.5603055453511878,-1.0995030103311212,1.6546222041920347,-0.0312185204928781,1.602583359841251,0.018360181207676064,0.11098529554948057,-0.14548417845769077,0.2300078890121665,-0.0827645719479338,0.09609943552302054,0.05555031905019239
-0.40762718630764716,-0.38396497651341366,0.13825761932253142,1.8712908671836,-1.0747802441362135,-0.6216897470699099,0.09993580932954022,0.0003839777290828656,1.636581735636482e-05,-0.00014565429780547673,5.8826840277866055e-05,-0.0003211429251462408,0.5611940167553945,-1.1006641749733923,1.6564571037003126,-0.03187792035332038,1.603352660699057,0.01880489473077603,0.11106314649040827,-0.14500724568516282,0.2291073775501444,-0.08229773114834905,0.09616606757371568,0.0555919766378667
-0.40683000323970603,-0.38396221439868533,0.13825783621351168,1.871288595046776,-1.0747826808168783,-0.6216908502519393,0.09953060408416595,0.00038882202213997457,1.4378405100181344e-05,-0.00014593524244367606,6.027865274835578e-05,-0.0003199366391271885,0.562081653719312,-1.1018197186192573,1.6582819749455422,-0.03253259623732774,1.6041212328376575,0.019249212066115826,0.11089134411385075,-0.14422124391347063,0.22772347172013274,-0.0816616261036011,0.09601653537937291,0.05550866252019225
-0.4060376941397565,-0.38395939171572,0.13825802878129093,1.8712863183194743,-1.0747850922164826,-0.6216919572867419,0.0988490901152647,0.0003966725150913718,1.1208608428734064e-05,-0.0001463258607708462,6.249097227968223e-05,-0.000317820564634929,0.5629660306702673,-1.1029666560490625,1.6600921521348813,-0.033180918553508576,1.604886976128324,0.019691918768706837,0.1104003856750287,-0.14304315278866825,0.2257268836317971,-0.0808117049244929,0.0955906714697243,0.05526554333479149
-0.405252722353753,-0.38395648340169114,0.1382581870197023,1.871284036654115,-1.0747874662036172,-0.6216930686322332,0.09785048862655425,0.00040732360341829175,6.871509291472934e-06,-0.00014676342275952992,6.54340612122814e-05,-0.00031466138867757704,0.5638442916600549,-1.1041014987645248,1.6618821884745794,-0.03382099147453843,1.6056474178945401,0.020131584622691774,0.10954137694009322,-0.14141631841009827,0.22302983222698153,-0.07971818726475853,0.09484615238804073,0.054838102030944226
-0.4044777864866726,-0.383953467876058,0.13825830167710282,1.8712817509208892,-1.074789790238152,-0.6216941841271629,0.09650892378965736,0.00042024972338110066,1.4905395482328242e-06,-0.00014715926274323082,6.900082148523015e-05,-0.0003103751880279629,0.5647132927254936,-1.105220435691292,1.6636461402741418,-0.03445075368382433,1.606399836173653,0.02056663491240813,0.10828232800791879,-0.13930548047226052,0.21957815570785966,-0.07836319841748235,0.09375529104891515,0.05421028484426968
-0.40371571876463047,-0.3839503290492023,0.13825836493917762,1.871279463443736,-1.074792052007807,-0.6216953028532133,0.09481053112771913,0.0004347147549580927,-4.738054174512513e-06,-0.0001474091846781836,7.303126847762673e-05,-0.0003049179418757285,0.5655697178385771,-1.1063194785628792,1.6653777950678086,-0.0350680588150567,1.6071413601084432,0.020995408481306304,0.10660498082199939,-0.13669253560173517,0.21534459769817946,-0.07673833540149938,0.09230228952714305,0.05337291420676361
-0.4029694038877821,-0.383947057547921,0.1382583708590429,1.8712771781131503,-1.0747942398929193,-0.6216964230644991,0.09275100123743206,0.0004498632871756708,-1.1574639218359237e-05,-0.00014740223360878296,7.733327979476609e-05,-0.0002982774242824386,0.5664101723198592,-1.107394577332819,1.6670708522732067,-0.03567073871626292,1.607869050823099,0.021416204516201354,0.10450210554530169,-0.13357294716648976,0.21032312332452846,-0.07484261144281845,0.0904808978707871,0.0523223361681072
-0.40224171521771057,-0.38394365129654656,0.1382583155809589,1.8712749003968276,-1.0747963432864298,-0.6216975421732566,0.09033350485264965,0.00046479479400924966,-1.87599736306763e-05,-0.00014702787299455955,8.169976749872188e-05,-0.0002904663132684039,0.5672312571205448,-1.1084417102958088,1.6687190638402072,-0.036256652273051415,1.608579965732649,0.021827319760172548,0.10197520869287255,-0.12995272042593836,0.20452413528750893,-0.07268073052827756,0.08829242948676759,0.05105927376564418
-0.40153546554440933,-0.3839401155839488,0.13825819740022366,1.8712726372685915,-1.0747983527940344,-0.621698656780682,0.08756695059593465,0.0004786219531122309,-2.6033822673124823e-05,-0.00014618163644512794,8.592247028684288e-05,-0.00028151636986176176,0.5680296269548227,-1.1094569529985723,1.6703163413825424,-0.03682372216897889,1.6092712088677958,0.0222270776453802,0.0990326013774609,-0.12584587000534336,0.19797047308534713,-0.07026164866196091,0.08574408837602669,0.04958786051125302
-0.4008533700349873,-0.3839364627361165,0.13825801669766918,1.8712703970749873,-1.074800260337312,-0.621699762742461,0.08446453177629097,0.0004905145633973642,-3.3148954826555124e-05,-0.00014476935735525248,8.980262160811214e-05,-0.0002714735553290097,0.5688020348819337,-1.110436529482845,1.67185683542394,-0.03736996164197137,1.6099399694662557,0.022613850645976513,0.0956877811829516,-0.12127231427829765,0.19069409079707705,-0.06759738307268917,0.08284756796346479,0.047914830743783256
-0.4001980192886979,-0.3839327114999548,0.1382577757827403,1.8712681893574106,-1.0748020591803062,-0.621700855259316,0.08104252325279171,0.0004997307013788157,-3.988109289682464e-05,-0.00014271011073217071,9.315880144750502e-05,-0.00026039396808894347,0.569545365594752,-1.1113768489222657,1.6733349916224363,-0.03789349301145961,1.6105835507849222,0.022986076979865093,0.09195808601390536,-0.11625613830562914,0.18273332019967736,-0.06470203489484243,0.07961788545347977,0.04604884601318725
-0.39957186070780915,-0.3839288862329621,0.13825747867445065,1.871266024645686,-1.0748037438976306,-0.6217019289839107,0.0773192936890721,0.0005056368661561316,-4.603541088511244e-05,-0.00013993802372905262,9.58323154089391e-05,-0.00024834049393915314,0.5702566593655832,-1.1122745302875003,1.67474558815406,-0.038392559498856116,1.611199390822127,0.023342272634964672,0.08786358276339978,-0.11082417350131349,0.17413063647639151,-0.0615909947762003,0.07607241953361583,0.043999938910168505
-0.3989771866479433,-0.3839250159766371,0.13825713084486968,1.8712639142368126,-1.074805310299731,-0.6217029781366815,0.07331450247487539,0.0005077188909226012,-5.145016002283665e-05,-0.00013640312354495573,9.769046196565073e-05,-0.00023538007421701132,0.570933128327687,-1.1131264172954936,1.6760837578332295,-0.03886553164140416,1.611785076403555,0.023681039559483447,0.08342615779127693,-0.10500484818098027,0.16493085338252583,-0.05828030446118759,0.07223012284258318,0.04177905783086586
-0.3984161280353058,-0.38392113347966994,0.1382567389452765,1.8712618699703407,-1.0748067553285712,-0.621703996624337,0.06904845419848217,0.0005055853524558034,-5.599798012504002e-05,-0.00013207139398438428,9.862804832138153e-05,-0.00022158150639571203,0.5715721665299922,-1.1139295855650246,1.6773449980150958,-0.03931090940349158,1.6123383518766417,0.02400107073514144,0.07866878001359208,-0.09882726860936387,0.15517968349426817,-0.05478615066731678,0.06811088391698526,0.03939769807117594
-0.3978906052881459,-0.38391727452537106,0.13825631067324945,1.8712599039769704,-1.0748080771416406,-0.6217049781682377,0.06455334847020475,0.0004988958738668723,-5.955162290279404e-05,-0.00012692695744059845,9.854865079351668e-05,-0.0002070521378777293,0.5721714098365783,-1.114681410110446,1.6785252746865833,-0.039727356964831984,1.612857170955624,0.024301180228796414,0.07362862254956974,-0.09233712083058863,0.14494856421874774,-0.051133482217484115,0.06374688670004802,0.036874477095856895
-0.3974020013674902,-0.38391347850298696,0.13825585533344512,1.871258028108255,-1.0748092763383899,-0.6217059165730342,0.059909383738631534,0.0004872633164111289,-6.19114992460913e-05,-0.00012099549043713756,9.733429644561212e-05,-0.0001920552818898795,0.5727291197401131,-1.1153800256581192,1.6796217398826037,-0.04011395046123667,1.61334002898269,0.024580495553014125,0.06839914264520082,-0.08564771230460601,0.13441435287349604,-0.047383683487431785,0.05921903964677522,0.034256220140828124
-0.39695079401270433,-0.38390978726277375,0.1382553839786892,1.8712562528888341,-1.0748103570860688,-0.6217068062471532,0.05523318177563692,0.00047056259364517056,-6.290493163871358e-05,-0.0001143727471225979,9.492126402641313e-05,-0.0001769712530747536,0.573244614462655,-1.1160248448349481,1.680633539595349,-0.040470457284785155,1.6137863361272826,0.024838673718458836,0.06311654159704334,-0.07892363775370313,0.12383384627376265,-0.04362575035136384,0.05464525406784906,0.031611174957064225
-0.39653667997517605,-0.38390624057897155,0.1382549080054617,1.871254586754864,-1.074811326046426,-0.62170764262456,0.05061630369664365,0.0004492280633960702,-6.254440441198524e-05,-0.00010720225367519612,9.138407806632241e-05,-0.00016209655449288263,0.5737181259772817,-1.1166163812623253,1.6815615367084957,-0.040797238967638094,1.6141962936000591,0.02507582961704472,0.057888022207725244,-0.07229391900791932,0.11340820183719859,-0.03992925452574002,0.05011833599676609,0.028993061802603377
-0.39615875579147725,-0.383902872868783,0.1382544380290563,1.871253035692457,-1.0748121912766369,-0.6217084223778354,0.046128588997872776,0.00042402613059208655,-6.096022850912565e-05,-9.96495806351548e-05,8.688164164363452e-05,-0.00014765557430838905,0.5741505906695885,-1.117155993108085,1.682407909977669,-0.04109511127477461,1.6145707124199327,0.02529243114658935,0.05279562750786413,-0.06585676981282604,0.1032904044837358,-0.036346964942721084,0.04570930964091102,0.026442996196519436
-0.3958156694558453,-0.3838997114556019,0.13825398322365423,1.8712516031603277,-1.0748129614465156,-0.6217091434757489,0.04182179509742741,0.00039588193141305416,-5.834797703369286e-05,-9.188368069600744e-05,8.161577378330669e-05,-0.00013381309929048034,0.5745434735439103,-1.1176456680759053,1.6831758178977472,-0.0413652270249365,1.6149108612227467,0.025489211138842456,0.04790043797828734,-0.05968477583454442,0.09359337680401066,-0.03291768730041776,0.0414710511530316,0.023991591442445625
-0.3955057459733745,-0.3838967759531156,0.13825355100484085,1.8712502902088757,-1.074813645303483,-0.6217098051331031,0.037732742440206676,0.00036575676575156986,-5.4930692343911725e-05,-8.4064153086396e-05,7.580163168782912e-05,-0.00012068505265102648,0.5748986225602903,-1.1180878455537435,1.6838691207419427,-0.04160897927178553,1.6152183401557851,0.025667094381127846,0.04324619972804196,-0.05382936800073704,0.08439698169567418,-0.029668714697334096,0.0374414297418263,0.02166077612480444
-0.39522709041731996,-0.38389407841558476,0.13825314695149565,1.8712490957247494,-1.0748142513240129,-0.6217104076914449,0.03388601982362284,0.00033456629641651764,-5.093298866815107e-05,-7.633326132142765e-05,6.964772298014878e-05,-0.00010834765491794449,0.5752181489302659,-1.1184852707439852,1.6844921526593406,-0.04182792199716623,1.6154949772462002,0.025827137641911368,0.03886244660680212,-0.048324667969197016,0.07575404110459356,-0.026617932917834403,0.03364601064754973,0.019465358119604554
-0.3949776717055947,-0.3838916239759633,0.13825277488574259,1.8712480167455758,-1.0748147875018592,-0.6217109524606067,0.03029630023391337,0.0003031303344621439,-4.656441527793499e-05,-6.881161114247365e-05,6.334338321692563e-05,-9.684519579681618e-05,0.5755043296728282,-1.118840876189557,1.6850495366456364,-0.04202370579525727,1.6157427440411989,0.02597048084764595,0.034767174144124315,-0.04319077805761614,0.06769548435011181,-0.023775620331664887,0.030100370104860535,0.01741436411488621
-0.39475538993342624,-0.3838894117617348,0.1382524370488741,1.871247048803668,-1.0748152612339124,-0.6217114415433413,0.026970313195596608,0.0002721462262439353,-4.2009791576594356e-05,-6.159653046905987e-05,5.705186199761805e-05,-8.619659135279591e-05,0.575759529165084,-1.119157686650924,1.6855460360500292,-0.04219802632492531,1.6159636876928576,0.026098307775201,0.0309691182257656,-0.038436581663230884,0.06023472960184995,-0.021145978859483213,0.026812068101476676,0.01551218114103607
-0.394558129756929,-0.38388743593375685,0.13825213432752734,1.8712461862692689,-1.0748156792734256,-0.6217118776589429,0.02390851548324012,0.00024217918649481555,-3.7424605683724915e-05,-5.476234933342837e-05,5.090746393238751e-05,-7.640088566098022e-05,0.5759861368164627,-1.1194387437806288,1.685986437052292,-0.04235258357895333,1.6161598770018306,0.026211814821677712,0.027469686605334064,-0.03406211412840229,0.0533713925331119,-0.018728429080323294,0.023782320575009824,0.013759524201506586
-0.39438380201149037,-0.3838856867412511,0.13825186649769514,1.871245422673674,-1.0748160477278952,-0.621712263976437,0.021106498068029778,0.00021366422331109744,-3.2933938541747586e-05,-4.836193388096932e-05,4.501548989700038e-05,-6.744184034198752e-05,0.5761865183524143,-1.1196870474867744,1.6863754572414957,-0.042489050264002515,1.6163333602433814,0.026312186592274904,0.024264586756198227,-0.030060558224751212,0.047094407091527485,-0.016518699346304584,0.021007408713442182,0.012154251794183772
-0.3943046000849648,-0.3838848932644931,0.13825174535278434,1.871245075799421,-1.074816215098742,-0.6217124395367201,0.018810467957610152,0.00019005111824372674,-2.921734290870292e-05,-4.306881384492575e-05,4.008006902241415e-05,-6.010437457576283e-05,0.5762775977584996,-1.1197998316254498,1.6865521375166708,-0.042551008862915296,1.616412213440766,0.026357809012322715,0.021631358945256772,-0.02678623293547707,0.04196156535407262,-0.014715167241658132,0.018727634378847002,0.010835324761355524
-0.3943046000849648,-0.3838848932644931,0.13825174535278434,1.871245075799421,-1.074816215098742,-0.6217124395367201,0.0,0.0,0.0,0.0,0.0,0.0,0.5762775977584996,-1.1197998316254498,1.6865521375166708,-0.042551008862915296,1.616412213440766,0.026357809012322715,0.0,0.0,0.0,0.0,0.0,0.0
